(Exported by FreeCAD)
(Post Processor: script_module)
(Output Time:2025-05-01 19:18:08.880279)
(Begin preamble)
G17 G90
G21
(Begin operation: Fixture)
(Path: Fixture)
G54
(Finish operation: Fixture)
(Begin operation: 5mm Endmill004)
(Path: 5mm Endmill004)
(5mm Endmill004)
(Begin toolchange)
( M6 T2 )
M3 S8000
(Finish operation: 5mm Endmill004)
(Begin operation: Pocket_Shape)
(Path: Pocket_Shape)
(Pocket_Shape)
G0 Z27.000
G0 X0.000 Y0.000
G0 X-19.000 Y-12.500
G0 X-19.000 Y-12.500 Z25.000
G1 X-19.000 Y-12.500 Z20.000 F200.000
G1 X-27.500 Y-12.500 Z20.000 F400.000
G1 X-27.500 Y-47.500 Z20.000 F400.000
G1 X-19.000 Y-47.500 Z20.000 F400.000
G1 X-19.000 Y-12.500 Z20.000 F400.000
G1 X-19.000 Y-12.500 Z18.000 F200.000
G1 X-27.500 Y-12.500 Z18.000 F400.000
G1 X-27.500 Y-47.500 Z18.000 F400.000
G1 X-19.000 Y-47.500 Z18.000 F400.000
G1 X-19.000 Y-12.500 Z18.000 F400.000
G1 X-19.000 Y-12.500 Z16.000 F200.000
G1 X-27.500 Y-12.500 Z16.000 F400.000
G1 X-27.500 Y-47.500 Z16.000 F400.000
G1 X-19.000 Y-47.500 Z16.000 F400.000
G1 X-19.000 Y-12.500 Z16.000 F400.000
G1 X-19.000 Y-12.500 Z14.000 F200.000
G1 X-27.500 Y-12.500 Z14.000 F400.000
G1 X-27.500 Y-47.500 Z14.000 F400.000
G1 X-19.000 Y-47.500 Z14.000 F400.000
G1 X-19.000 Y-12.500 Z14.000 F400.000
G1 X-19.000 Y-12.500 Z12.000 F200.000
G1 X-27.500 Y-12.500 Z12.000 F400.000
G1 X-27.500 Y-47.500 Z12.000 F400.000
G1 X-19.000 Y-47.500 Z12.000 F400.000
G1 X-19.000 Y-12.500 Z12.000 F400.000
G1 X-19.000 Y-12.500 Z10.000 F200.000
G1 X-27.500 Y-12.500 Z10.000 F400.000
G1 X-27.500 Y-47.500 Z10.000 F400.000
G1 X-19.000 Y-47.500 Z10.000 F400.000
G1 X-19.000 Y-12.500 Z10.000 F400.000
G0 Z27.000
G0 X-23.000 Y-16.500 Z27.000
G0 X-23.000 Y-16.500 Z25.000
G1 X-23.000 Y-16.500 Z20.000 F200.000
G1 X-23.500 Y-16.500 Z20.000 F400.000
G1 X-23.500 Y-43.500 Z20.000 F400.000
G1 X-23.000 Y-43.500 Z20.000 F400.000
G1 X-23.000 Y-16.500 Z20.000 F400.000
G1 X-23.000 Y-16.500 Z18.000 F200.000
G1 X-23.500 Y-16.500 Z18.000 F400.000
G1 X-23.500 Y-43.500 Z18.000 F400.000
G1 X-23.000 Y-43.500 Z18.000 F400.000
G1 X-23.000 Y-16.500 Z18.000 F400.000
G1 X-23.000 Y-16.500 Z16.000 F200.000
G1 X-23.500 Y-16.500 Z16.000 F400.000
G1 X-23.500 Y-43.500 Z16.000 F400.000
G1 X-23.000 Y-43.500 Z16.000 F400.000
G1 X-23.000 Y-16.500 Z16.000 F400.000
G1 X-23.000 Y-16.500 Z14.000 F200.000
G1 X-23.500 Y-16.500 Z14.000 F400.000
G1 X-23.500 Y-43.500 Z14.000 F400.000
G1 X-23.000 Y-43.500 Z14.000 F400.000
G1 X-23.000 Y-16.500 Z14.000 F400.000
G1 X-23.000 Y-16.500 Z12.000 F200.000
G1 X-23.500 Y-16.500 Z12.000 F400.000
G1 X-23.500 Y-43.500 Z12.000 F400.000
G1 X-23.000 Y-43.500 Z12.000 F400.000
G1 X-23.000 Y-16.500 Z12.000 F400.000
G1 X-23.000 Y-16.500 Z10.000 F200.000
G1 X-23.500 Y-16.500 Z10.000 F400.000
G1 X-23.500 Y-43.500 Z10.000 F400.000
G1 X-23.000 Y-43.500 Z10.000 F400.000
G1 X-23.000 Y-16.500 Z10.000 F400.000
G0 Z27.000
G0 Z27.000
G0 X-23.000 Y-16.500
G0 X19.000
G0 X19.000 Z25.000
G1 X19.000 Y-16.500 Z20.000 F200.000
G1 X19.000 Y-47.500 Z20.000 F400.000
G1 X27.500 Y-47.500 Z20.000 F400.000
G1 X27.500 Y-12.500 Z20.000 F400.000
G1 X19.000 Y-12.500 Z20.000 F400.000
G1 X19.000 Y-16.500 Z20.000 F400.000
G1 X23.000 Y-16.500 Z20.000 F200.000
G1 X23.000 Y-43.500 Z20.000 F400.000
G1 X23.500 Y-43.500 Z20.000 F400.000
G1 X23.500 Y-16.500 Z20.000 F400.000
G1 X23.000 Y-16.500 Z20.000 F400.000
G1 X23.000 Y-16.500 Z18.000 F200.000
G1 X23.000 Y-43.500 Z18.000 F400.000
G1 X23.500 Y-43.500 Z18.000 F400.000
G1 X23.500 Y-16.500 Z18.000 F400.000
G1 X23.000 Y-16.500 Z18.000 F400.000
G1 X23.000 Y-12.500 Z18.000 F200.000
G1 X19.000 Y-12.500 Z18.000 F400.000
G1 X19.000 Y-47.500 Z18.000 F400.000
G1 X27.500 Y-47.500 Z18.000 F400.000
G1 X27.500 Y-12.500 Z18.000 F400.000
G1 X23.000 Y-12.500 Z18.000 F400.000
G1 X23.000 Y-12.500 Z16.000 F200.000
G1 X19.000 Y-12.500 Z16.000 F400.000
G1 X19.000 Y-47.500 Z16.000 F400.000
G1 X27.500 Y-47.500 Z16.000 F400.000
G1 X27.500 Y-12.500 Z16.000 F400.000
G1 X23.000 Y-12.500 Z16.000 F400.000
G1 X23.000 Y-16.500 Z16.000 F200.000
G1 X23.000 Y-43.500 Z16.000 F400.000
G1 X23.500 Y-43.500 Z16.000 F400.000
G1 X23.500 Y-16.500 Z16.000 F400.000
G1 X23.000 Y-16.500 Z16.000 F400.000
G1 X23.000 Y-16.500 Z14.000 F200.000
G1 X23.000 Y-43.500 Z14.000 F400.000
G1 X23.500 Y-43.500 Z14.000 F400.000
G1 X23.500 Y-16.500 Z14.000 F400.000
G1 X23.000 Y-16.500 Z14.000 F400.000
G1 X23.000 Y-12.500 Z14.000 F200.000
G1 X19.000 Y-12.500 Z14.000 F400.000
G1 X19.000 Y-47.500 Z14.000 F400.000
G1 X27.500 Y-47.500 Z14.000 F400.000
G1 X27.500 Y-12.500 Z14.000 F400.000
G1 X23.000 Y-12.500 Z14.000 F400.000
G1 X23.000 Y-12.500 Z12.000 F200.000
G1 X19.000 Y-12.500 Z12.000 F400.000
G1 X19.000 Y-47.500 Z12.000 F400.000
G1 X27.500 Y-47.500 Z12.000 F400.000
G1 X27.500 Y-12.500 Z12.000 F400.000
G1 X23.000 Y-12.500 Z12.000 F400.000
G1 X23.000 Y-16.500 Z12.000 F200.000
G1 X23.000 Y-43.500 Z12.000 F400.000
G1 X23.500 Y-43.500 Z12.000 F400.000
G1 X23.500 Y-16.500 Z12.000 F400.000
G1 X23.000 Y-16.500 Z12.000 F400.000
G1 X23.000 Y-16.500 Z10.000 F200.000
G1 X23.000 Y-43.500 Z10.000 F400.000
G1 X23.500 Y-43.500 Z10.000 F400.000
G1 X23.500 Y-16.500 Z10.000 F400.000
G1 X23.000 Y-16.500 Z10.000 F400.000
G1 X23.000 Y-12.500 Z10.000 F200.000
G1 X19.000 Y-12.500 Z10.000 F400.000
G1 X19.000 Y-47.500 Z10.000 F400.000
G1 X27.500 Y-47.500 Z10.000 F400.000
G1 X27.500 Y-12.500 Z10.000 F400.000
G1 X23.000 Y-12.500 Z10.000 F400.000
G0 Z27.000
G0 Z27.000
G0 X23.000 Y-12.500
G0 Y12.500
G0 Y12.500 Z25.000
G1 X23.000 Y12.500 Z20.000 F200.000
G1 X27.500 Y12.500 Z20.000 F400.000
G1 X27.500 Y47.500 Z20.000 F400.000
G1 X19.000 Y47.500 Z20.000 F400.000
G1 X19.000 Y12.500 Z20.000 F400.000
G1 X23.000 Y12.500 Z20.000 F400.000
G1 X23.000 Y16.500 Z20.000 F200.000
G1 X23.500 Y16.500 Z20.000 F400.000
G1 X23.500 Y43.500 Z20.000 F400.000
G1 X23.000 Y43.500 Z20.000 F400.000
G1 X23.000 Y16.500 Z20.000 F400.000
G1 X23.000 Y16.500 Z18.000 F200.000
G1 X23.500 Y16.500 Z18.000 F400.000
G1 X23.500 Y43.500 Z18.000 F400.000
G1 X23.000 Y43.500 Z18.000 F400.000
G1 X23.000 Y16.500 Z18.000 F400.000
G1 X19.000 Y16.500 Z18.000 F200.000
G1 X19.000 Y12.500 Z18.000 F400.000
G1 X27.500 Y12.500 Z18.000 F400.000
G1 X27.500 Y47.500 Z18.000 F400.000
G1 X19.000 Y47.500 Z18.000 F400.000
G1 X19.000 Y16.500 Z18.000 F400.000
G1 X19.000 Y16.500 Z16.000 F200.000
G1 X19.000 Y12.500 Z16.000 F400.000
G1 X27.500 Y12.500 Z16.000 F400.000
G1 X27.500 Y47.500 Z16.000 F400.000
G1 X19.000 Y47.500 Z16.000 F400.000
G1 X19.000 Y16.500 Z16.000 F400.000
G1 X23.000 Y16.500 Z16.000 F200.000
G1 X23.500 Y16.500 Z16.000 F400.000
G1 X23.500 Y43.500 Z16.000 F400.000
G1 X23.000 Y43.500 Z16.000 F400.000
G1 X23.000 Y16.500 Z16.000 F400.000
G1 X23.000 Y16.500 Z14.000 F200.000
G1 X23.500 Y16.500 Z14.000 F400.000
G1 X23.500 Y43.500 Z14.000 F400.000
G1 X23.000 Y43.500 Z14.000 F400.000
G1 X23.000 Y16.500 Z14.000 F400.000
G1 X19.000 Y16.500 Z14.000 F200.000
G1 X19.000 Y12.500 Z14.000 F400.000
G1 X27.500 Y12.500 Z14.000 F400.000
G1 X27.500 Y47.500 Z14.000 F400.000
G1 X19.000 Y47.500 Z14.000 F400.000
G1 X19.000 Y16.500 Z14.000 F400.000
G1 X19.000 Y16.500 Z12.000 F200.000
G1 X19.000 Y12.500 Z12.000 F400.000
G1 X27.500 Y12.500 Z12.000 F400.000
G1 X27.500 Y47.500 Z12.000 F400.000
G1 X19.000 Y47.500 Z12.000 F400.000
G1 X19.000 Y16.500 Z12.000 F400.000
G1 X23.000 Y16.500 Z12.000 F200.000
G1 X23.500 Y16.500 Z12.000 F400.000
G1 X23.500 Y43.500 Z12.000 F400.000
G1 X23.000 Y43.500 Z12.000 F400.000
G1 X23.000 Y16.500 Z12.000 F400.000
G1 X23.000 Y16.500 Z10.000 F200.000
G1 X23.500 Y16.500 Z10.000 F400.000
G1 X23.500 Y43.500 Z10.000 F400.000
G1 X23.000 Y43.500 Z10.000 F400.000
G1 X23.000 Y16.500 Z10.000 F400.000
G1 X19.000 Y16.500 Z10.000 F200.000
G1 X19.000 Y12.500 Z10.000 F400.000
G1 X27.500 Y12.500 Z10.000 F400.000
G1 X27.500 Y47.500 Z10.000 F400.000
G1 X19.000 Y47.500 Z10.000 F400.000
G1 X19.000 Y16.500 Z10.000 F400.000
G0 Z27.000
G0 Z27.000
G0 X19.000 Y16.500
G0 X-19.000
G0 X-19.000 Z25.000
G1 X-19.000 Y16.500 Z20.000 F200.000
G1 X-19.000 Y47.500 Z20.000 F400.000
G1 X-27.500 Y47.500 Z20.000 F400.000
G1 X-27.500 Y12.500 Z20.000 F400.000
G1 X-19.000 Y12.500 Z20.000 F400.000
G1 X-19.000 Y16.500 Z20.000 F400.000
G1 X-23.000 Y16.500 Z20.000 F200.000
G1 X-23.000 Y43.500 Z20.000 F400.000
G1 X-23.500 Y43.500 Z20.000 F400.000
G1 X-23.500 Y16.500 Z20.000 F400.000
G1 X-23.000 Y16.500 Z20.000 F400.000
G1 X-23.000 Y16.500 Z18.000 F200.000
G1 X-23.000 Y43.500 Z18.000 F400.000
G1 X-23.500 Y43.500 Z18.000 F400.000
G1 X-23.500 Y16.500 Z18.000 F400.000
G1 X-23.000 Y16.500 Z18.000 F400.000
G1 X-19.000 Y16.500 Z18.000 F200.000
G1 X-19.000 Y47.500 Z18.000 F400.000
G1 X-27.500 Y47.500 Z18.000 F400.000
G1 X-27.500 Y12.500 Z18.000 F400.000
G1 X-19.000 Y12.500 Z18.000 F400.000
G1 X-19.000 Y16.500 Z18.000 F400.000
G1 X-19.000 Y16.500 Z16.000 F200.000
G1 X-19.000 Y47.500 Z16.000 F400.000
G1 X-27.500 Y47.500 Z16.000 F400.000
G1 X-27.500 Y12.500 Z16.000 F400.000
G1 X-19.000 Y12.500 Z16.000 F400.000
G1 X-19.000 Y16.500 Z16.000 F400.000
G1 X-23.000 Y16.500 Z16.000 F200.000
G1 X-23.000 Y43.500 Z16.000 F400.000
G1 X-23.500 Y43.500 Z16.000 F400.000
G1 X-23.500 Y16.500 Z16.000 F400.000
G1 X-23.000 Y16.500 Z16.000 F400.000
G1 X-23.000 Y16.500 Z14.000 F200.000
G1 X-23.000 Y43.500 Z14.000 F400.000
G1 X-23.500 Y43.500 Z14.000 F400.000
G1 X-23.500 Y16.500 Z14.000 F400.000
G1 X-23.000 Y16.500 Z14.000 F400.000
G1 X-19.000 Y16.500 Z14.000 F200.000
G1 X-19.000 Y47.500 Z14.000 F400.000
G1 X-27.500 Y47.500 Z14.000 F400.000
G1 X-27.500 Y12.500 Z14.000 F400.000
G1 X-19.000 Y12.500 Z14.000 F400.000
G1 X-19.000 Y16.500 Z14.000 F400.000
G1 X-19.000 Y16.500 Z12.000 F200.000
G1 X-19.000 Y47.500 Z12.000 F400.000
G1 X-27.500 Y47.500 Z12.000 F400.000
G1 X-27.500 Y12.500 Z12.000 F400.000
G1 X-19.000 Y12.500 Z12.000 F400.000
G1 X-19.000 Y16.500 Z12.000 F400.000
G1 X-23.000 Y16.500 Z12.000 F200.000
G1 X-23.000 Y43.500 Z12.000 F400.000
G1 X-23.500 Y43.500 Z12.000 F400.000
G1 X-23.500 Y16.500 Z12.000 F400.000
G1 X-23.000 Y16.500 Z12.000 F400.000
G1 X-23.000 Y16.500 Z10.000 F200.000
G1 X-23.000 Y43.500 Z10.000 F400.000
G1 X-23.500 Y43.500 Z10.000 F400.000
G1 X-23.500 Y16.500 Z10.000 F400.000
G1 X-23.000 Y16.500 Z10.000 F400.000
G1 X-19.000 Y16.500 Z10.000 F200.000
G1 X-19.000 Y47.500 Z10.000 F400.000
G1 X-27.500 Y47.500 Z10.000 F400.000
G1 X-27.500 Y12.500 Z10.000 F400.000
G1 X-19.000 Y12.500 Z10.000 F400.000
G1 X-19.000 Y16.500 Z10.000 F400.000
G0 Z27.000
G0 Z27.000
(Finish operation: Pocket_Shape)
(Begin operation: Pocket_Shape001)
(Path: Pocket_Shape001)
(Pocket_Shape001)
G0 Z27.000
G0 X0.000 Y0.000
G0 Y-28.456
G0 Y-28.456 Z25.000
G1 X0.000 Y-28.456 Z20.000 F200.000
G3 X-0.517 Y-28.545 Z20.000 I0.000 J-1.544 K0.000 F400.000
G3 X-1.455 Y-30.517 Z20.000 I0.517 J-1.455 K0.000 F400.000
G3 X0.517 Y-31.455 Z20.000 I1.455 J0.517 K0.000 F400.000
G3 X0.000 Y-28.456 Z20.000 I-0.517 J1.455 K0.000 F400.000
G1 X-0.000 Y-29.709 Z20.000 F200.000
G3 X-0.098 Y-29.726 Z20.000 I-0.000 J-0.291 K0.000 F400.000
G3 X0.098 Y-30.274 Z20.000 I0.098 J-0.274 K0.000 F400.000
G3 X-0.000 Y-29.709 Z20.000 I-0.098 J0.274 K0.000 F400.000
G1 X-0.000 Y-29.709 Z18.000 F200.000
G3 X-0.098 Y-29.726 Z18.000 I-0.000 J-0.291 K0.000 F400.000
G3 X0.098 Y-30.274 Z18.000 I0.098 J-0.274 K0.000 F400.000
G3 X-0.000 Y-29.709 Z18.000 I-0.098 J0.274 K0.000 F400.000
G1 X-0.000 Y-28.456 Z18.000 F200.000
G3 X-0.517 Y-28.545 Z18.000 I0.000 J-1.544 K0.000 F400.000
G3 X-1.455 Y-30.517 Z18.000 I0.517 J-1.455 K0.000 F400.000
G3 X0.517 Y-31.455 Z18.000 I1.455 J0.517 K0.000 F400.000
G3 X-0.000 Y-28.456 Z18.000 I-0.517 J1.455 K0.000 F400.000
G1 X-0.000 Y-28.456 Z16.000 F200.000
G3 X-0.517 Y-28.545 Z16.000 I0.000 J-1.544 K0.000 F400.000
G3 X-1.455 Y-30.517 Z16.000 I0.517 J-1.455 K0.000 F400.000
G3 X0.517 Y-31.455 Z16.000 I1.455 J0.517 K0.000 F400.000
G3 X-0.000 Y-28.456 Z16.000 I-0.517 J1.455 K0.000 F400.000
G1 X-0.000 Y-29.709 Z16.000 F200.000
G3 X-0.098 Y-29.726 Z16.000 I0.000 J-0.291 K0.000 F400.000
G3 X0.098 Y-30.274 Z16.000 I0.098 J-0.274 K0.000 F400.000
G3 X-0.000 Y-29.709 Z16.000 I-0.098 J0.274 K0.000 F400.000
G1 X-0.000 Y-29.709 Z14.000 F200.000
G3 X-0.098 Y-29.726 Z14.000 I0.000 J-0.291 K0.000 F400.000
G3 X0.098 Y-30.274 Z14.000 I0.098 J-0.274 K0.000 F400.000
G3 X-0.000 Y-29.709 Z14.000 I-0.098 J0.274 K0.000 F400.000
G1 X-0.000 Y-28.456 Z14.000 F200.000
G3 X-0.517 Y-28.545 Z14.000 I0.000 J-1.544 K0.000 F400.000
G3 X-1.455 Y-30.517 Z14.000 I0.517 J-1.455 K0.000 F400.000
G3 X0.517 Y-31.455 Z14.000 I1.455 J0.517 K0.000 F400.000
G3 X-0.000 Y-28.456 Z14.000 I-0.517 J1.455 K0.000 F400.000
G1 X-0.000 Y-28.456 Z12.000 F200.000
G3 X-0.517 Y-28.545 Z12.000 I0.000 J-1.544 K0.000 F400.000
G3 X-1.455 Y-30.517 Z12.000 I0.517 J-1.455 K0.000 F400.000
G3 X0.517 Y-31.455 Z12.000 I1.455 J0.517 K0.000 F400.000
G3 X-0.000 Y-28.456 Z12.000 I-0.517 J1.455 K0.000 F400.000
G1 X-0.000 Y-29.709 Z12.000 F200.000
G3 X-0.098 Y-29.726 Z12.000 I0.000 J-0.291 K0.000 F400.000
G3 X0.098 Y-30.274 Z12.000 I0.098 J-0.274 K0.000 F400.000
G3 X-0.000 Y-29.709 Z12.000 I-0.098 J0.274 K0.000 F400.000
G1 X-0.000 Y-29.709 Z10.000 F200.000
G3 X-0.098 Y-29.726 Z10.000 I0.000 J-0.291 K0.000 F400.000
G3 X0.098 Y-30.274 Z10.000 I0.098 J-0.274 K0.000 F400.000
G3 X-0.000 Y-29.709 Z10.000 I-0.098 J0.274 K0.000 F400.000
G1 X-0.000 Y-28.456 Z10.000 F200.000
G3 X-0.517 Y-28.545 Z10.000 I0.000 J-1.544 K0.000 F400.000
G3 X-1.455 Y-30.517 Z10.000 I0.517 J-1.455 K0.000 F400.000
G3 X0.517 Y-31.455 Z10.000 I1.455 J0.517 K0.000 F400.000
G3 X-0.000 Y-28.456 Z10.000 I-0.517 J1.455 K0.000 F400.000
G1 X-0.000 Y-28.456 Z8.000 F200.000
G3 X-0.517 Y-28.545 Z8.000 I0.000 J-1.544 K0.000 F400.000
G3 X-1.455 Y-30.517 Z8.000 I0.517 J-1.455 K0.000 F400.000
G3 X0.517 Y-31.455 Z8.000 I1.455 J0.517 K0.000 F400.000
G3 X-0.000 Y-28.456 Z8.000 I-0.517 J1.455 K0.000 F400.000
G1 X-0.000 Y-29.709 Z8.000 F200.000
G3 X-0.098 Y-29.726 Z8.000 I0.000 J-0.291 K0.000 F400.000
G3 X0.098 Y-30.274 Z8.000 I0.098 J-0.274 K0.000 F400.000
G3 X-0.000 Y-29.709 Z8.000 I-0.098 J0.274 K0.000 F400.000
G1 X-0.000 Y-29.709 Z6.000 F200.000
G3 X-0.098 Y-29.726 Z6.000 I0.000 J-0.291 K0.000 F400.000
G3 X0.098 Y-30.274 Z6.000 I0.098 J-0.274 K0.000 F400.000
G3 X-0.000 Y-29.709 Z6.000 I-0.098 J0.274 K0.000 F400.000
G1 X-0.000 Y-28.456 Z6.000 F200.000
G3 X-0.517 Y-28.545 Z6.000 I0.000 J-1.544 K0.000 F400.000
G3 X-1.455 Y-30.517 Z6.000 I0.517 J-1.455 K0.000 F400.000
G3 X0.517 Y-31.455 Z6.000 I1.455 J0.517 K0.000 F400.000
G3 X-0.000 Y-28.456 Z6.000 I-0.517 J1.455 K0.000 F400.000
G1 X-0.000 Y-28.456 Z4.000 F200.000
G3 X-0.517 Y-28.545 Z4.000 I0.000 J-1.544 K0.000 F400.000
G3 X-1.455 Y-30.517 Z4.000 I0.517 J-1.455 K0.000 F400.000
G3 X0.517 Y-31.455 Z4.000 I1.455 J0.517 K0.000 F400.000
G3 X-0.000 Y-28.456 Z4.000 I-0.517 J1.455 K0.000 F400.000
G1 X-0.000 Y-29.709 Z4.000 F200.000
G3 X-0.098 Y-29.726 Z4.000 I0.000 J-0.291 K0.000 F400.000
G3 X0.098 Y-30.274 Z4.000 I0.098 J-0.274 K0.000 F400.000
G3 X-0.000 Y-29.709 Z4.000 I-0.098 J0.274 K0.000 F400.000
G1 X-0.000 Y-29.709 Z2.000 F200.000
G3 X-0.098 Y-29.726 Z2.000 I0.000 J-0.291 K0.000 F400.000
G3 X0.098 Y-30.274 Z2.000 I0.098 J-0.274 K0.000 F400.000
G3 X-0.000 Y-29.709 Z2.000 I-0.098 J0.274 K0.000 F400.000
G1 X-0.000 Y-28.456 Z2.000 F200.000
G3 X-0.517 Y-28.545 Z2.000 I0.000 J-1.544 K0.000 F400.000
G3 X-1.455 Y-30.517 Z2.000 I0.517 J-1.455 K0.000 F400.000
G3 X0.517 Y-31.455 Z2.000 I1.455 J0.517 K0.000 F400.000
G3 X-0.000 Y-28.456 Z2.000 I-0.517 J1.455 K0.000 F400.000
G1 X-0.000 Y-28.456 Z0.000 F200.000
G3 X-0.517 Y-28.545 Z0.000 I0.000 J-1.544 K0.000 F400.000
G3 X-1.455 Y-30.517 Z0.000 I0.517 J-1.455 K0.000 F400.000
G3 X0.517 Y-31.455 Z0.000 I1.455 J0.517 K0.000 F400.000
G3 X-0.000 Y-28.456 Z0.000 I-0.517 J1.455 K0.000 F400.000
G1 X-0.000 Y-29.709 Z0.000 F200.000
G3 X-0.098 Y-29.726 Z0.000 I0.000 J-0.291 K0.000 F400.000
G3 X0.098 Y-30.274 Z0.000 I0.098 J-0.274 K0.000 F400.000
G3 X-0.000 Y-29.709 Z0.000 I-0.098 J0.274 K0.000 F400.000
G0 Z27.000
G0 Z27.000
G0 X-0.000 Y-29.709
G0 X-0.000 Y28.456
G0 X-0.000 Y28.456 Z25.000
G1 X-0.000 Y28.456 Z20.000 F200.000
G3 X0.517 Y28.545 Z20.000 I0.000 J1.544 K0.000 F400.000
G3 X1.455 Y30.517 Z20.000 I-0.517 J1.455 K0.000 F400.000
G3 X-0.517 Y31.455 Z20.000 I-1.455 J-0.517 K0.000 F400.000
G3 X-0.000 Y28.456 Z20.000 I0.517 J-1.455 K0.000 F400.000
G1 X0.000 Y29.709 Z20.000 F200.000
G3 X0.098 Y29.726 Z20.000 I0.000 J0.291 K0.000 F400.000
G3 X-0.098 Y30.274 Z20.000 I-0.098 J0.274 K0.000 F400.000
G3 X0.000 Y29.709 Z20.000 I0.098 J-0.274 K0.000 F400.000
G1 X0.000 Y29.709 Z18.000 F200.000
G3 X0.098 Y29.726 Z18.000 I0.000 J0.291 K0.000 F400.000
G3 X-0.098 Y30.274 Z18.000 I-0.098 J0.274 K0.000 F400.000
G3 X0.000 Y29.709 Z18.000 I0.098 J-0.274 K0.000 F400.000
G1 X0.000 Y28.456 Z18.000 F200.000
G3 X0.517 Y28.545 Z18.000 I-0.000 J1.544 K0.000 F400.000
G3 X1.455 Y30.517 Z18.000 I-0.517 J1.455 K0.000 F400.000
G3 X-0.517 Y31.455 Z18.000 I-1.455 J-0.517 K0.000 F400.000
G3 X0.000 Y28.456 Z18.000 I0.517 J-1.455 K0.000 F400.000
G1 X0.000 Y28.456 Z16.000 F200.000
G3 X0.517 Y28.545 Z16.000 I-0.000 J1.544 K0.000 F400.000
G3 X1.455 Y30.517 Z16.000 I-0.517 J1.455 K0.000 F400.000
G3 X-0.517 Y31.455 Z16.000 I-1.455 J-0.517 K0.000 F400.000
G3 X0.000 Y28.456 Z16.000 I0.517 J-1.455 K0.000 F400.000
G1 X0.000 Y29.709 Z16.000 F200.000
G3 X0.098 Y29.726 Z16.000 I-0.000 J0.291 K0.000 F400.000
G3 X-0.098 Y30.274 Z16.000 I-0.098 J0.274 K0.000 F400.000
G3 X0.000 Y29.709 Z16.000 I0.098 J-0.274 K0.000 F400.000
G1 X0.000 Y29.709 Z14.000 F200.000
G3 X0.098 Y29.726 Z14.000 I-0.000 J0.291 K0.000 F400.000
G3 X-0.098 Y30.274 Z14.000 I-0.098 J0.274 K0.000 F400.000
G3 X0.000 Y29.709 Z14.000 I0.098 J-0.274 K0.000 F400.000
G1 X0.000 Y28.456 Z14.000 F200.000
G3 X0.517 Y28.545 Z14.000 I-0.000 J1.544 K0.000 F400.000
G3 X1.455 Y30.517 Z14.000 I-0.517 J1.455 K0.000 F400.000
G3 X-0.517 Y31.455 Z14.000 I-1.455 J-0.517 K0.000 F400.000
G3 X0.000 Y28.456 Z14.000 I0.517 J-1.455 K0.000 F400.000
G1 X0.000 Y28.456 Z12.000 F200.000
G3 X0.517 Y28.545 Z12.000 I-0.000 J1.544 K0.000 F400.000
G3 X1.455 Y30.517 Z12.000 I-0.517 J1.455 K0.000 F400.000
G3 X-0.517 Y31.455 Z12.000 I-1.455 J-0.517 K0.000 F400.000
G3 X0.000 Y28.456 Z12.000 I0.517 J-1.455 K0.000 F400.000
G1 X0.000 Y29.709 Z12.000 F200.000
G3 X0.098 Y29.726 Z12.000 I-0.000 J0.291 K0.000 F400.000
G3 X-0.098 Y30.274 Z12.000 I-0.098 J0.274 K0.000 F400.000
G3 X0.000 Y29.709 Z12.000 I0.098 J-0.274 K0.000 F400.000
G1 X0.000 Y29.709 Z10.000 F200.000
G3 X0.098 Y29.726 Z10.000 I-0.000 J0.291 K0.000 F400.000
G3 X-0.098 Y30.274 Z10.000 I-0.098 J0.274 K0.000 F400.000
G3 X0.000 Y29.709 Z10.000 I0.098 J-0.274 K0.000 F400.000
G1 X0.000 Y28.456 Z10.000 F200.000
G3 X0.517 Y28.545 Z10.000 I-0.000 J1.544 K0.000 F400.000
G3 X1.455 Y30.517 Z10.000 I-0.517 J1.455 K0.000 F400.000
G3 X-0.517 Y31.455 Z10.000 I-1.455 J-0.517 K0.000 F400.000
G3 X0.000 Y28.456 Z10.000 I0.517 J-1.455 K0.000 F400.000
G1 X0.000 Y28.456 Z8.000 F200.000
G3 X0.517 Y28.545 Z8.000 I-0.000 J1.544 K0.000 F400.000
G3 X1.455 Y30.517 Z8.000 I-0.517 J1.455 K0.000 F400.000
G3 X-0.517 Y31.455 Z8.000 I-1.455 J-0.517 K0.000 F400.000
G3 X0.000 Y28.456 Z8.000 I0.517 J-1.455 K0.000 F400.000
G1 X0.000 Y29.709 Z8.000 F200.000
G3 X0.098 Y29.726 Z8.000 I-0.000 J0.291 K0.000 F400.000
G3 X-0.098 Y30.274 Z8.000 I-0.098 J0.274 K0.000 F400.000
G3 X0.000 Y29.709 Z8.000 I0.098 J-0.274 K0.000 F400.000
G1 X0.000 Y29.709 Z6.000 F200.000
G3 X0.098 Y29.726 Z6.000 I-0.000 J0.291 K0.000 F400.000
G3 X-0.098 Y30.274 Z6.000 I-0.098 J0.274 K0.000 F400.000
G3 X0.000 Y29.709 Z6.000 I0.098 J-0.274 K0.000 F400.000
G1 X0.000 Y28.456 Z6.000 F200.000
G3 X0.517 Y28.545 Z6.000 I-0.000 J1.544 K0.000 F400.000
G3 X1.455 Y30.517 Z6.000 I-0.517 J1.455 K0.000 F400.000
G3 X-0.517 Y31.455 Z6.000 I-1.455 J-0.517 K0.000 F400.000
G3 X0.000 Y28.456 Z6.000 I0.517 J-1.455 K0.000 F400.000
G1 X0.000 Y28.456 Z4.000 F200.000
G3 X0.517 Y28.545 Z4.000 I-0.000 J1.544 K0.000 F400.000
G3 X1.455 Y30.517 Z4.000 I-0.517 J1.455 K0.000 F400.000
G3 X-0.517 Y31.455 Z4.000 I-1.455 J-0.517 K0.000 F400.000
G3 X0.000 Y28.456 Z4.000 I0.517 J-1.455 K0.000 F400.000
G1 X0.000 Y29.709 Z4.000 F200.000
G3 X0.098 Y29.726 Z4.000 I-0.000 J0.291 K0.000 F400.000
G3 X-0.098 Y30.274 Z4.000 I-0.098 J0.274 K0.000 F400.000
G3 X0.000 Y29.709 Z4.000 I0.098 J-0.274 K0.000 F400.000
G1 X0.000 Y29.709 Z2.000 F200.000
G3 X0.098 Y29.726 Z2.000 I-0.000 J0.291 K0.000 F400.000
G3 X-0.098 Y30.274 Z2.000 I-0.098 J0.274 K0.000 F400.000
G3 X0.000 Y29.709 Z2.000 I0.098 J-0.274 K0.000 F400.000
G1 X0.000 Y28.456 Z2.000 F200.000
G3 X0.517 Y28.545 Z2.000 I-0.000 J1.544 K0.000 F400.000
G3 X1.455 Y30.517 Z2.000 I-0.517 J1.455 K0.000 F400.000
G3 X-0.517 Y31.455 Z2.000 I-1.455 J-0.517 K0.000 F400.000
G3 X0.000 Y28.456 Z2.000 I0.517 J-1.455 K0.000 F400.000
G1 X0.000 Y28.456 Z0.000 F200.000
G3 X0.517 Y28.545 Z0.000 I-0.000 J1.544 K0.000 F400.000
G3 X1.455 Y30.517 Z0.000 I-0.517 J1.455 K0.000 F400.000
G3 X-0.517 Y31.455 Z0.000 I-1.455 J-0.517 K0.000 F400.000
G3 X0.000 Y28.456 Z0.000 I0.517 J-1.455 K0.000 F400.000
G1 X0.000 Y29.709 Z0.000 F200.000
G3 X0.098 Y29.726 Z0.000 I-0.000 J0.291 K0.000 F400.000
G3 X-0.098 Y30.274 Z0.000 I-0.098 J0.274 K0.000 F400.000
G3 X0.000 Y29.709 Z0.000 I0.098 J-0.274 K0.000 F400.000
G0 Z27.000
G0 Z27.000
(Finish operation: Pocket_Shape001)
(Begin operation: DressupTag)
(Path: DressupTag)
G0 Z27.000
G0 X0.000 Y-7.500 Z27.000
G0 X0.000 Y-7.500 Z25.000
G1 X0.000 Y-7.500 Z20.000 F200.000
G1 X-30.000 Y-7.500 Z20.000 F400.000
G3 X-32.500 Y-10.000 Z20.000 I0.000 J-2.500 K0.000 F400.000
G1 X-32.500 Y-50.000 Z20.000 F400.000
G3 X-30.000 Y-52.500 Z20.000 I2.500 J0.000 K0.000 F400.000
G1 X30.000 Y-52.500 Z20.000 F400.000
G3 X32.500 Y-50.000 Z20.000 I-0.000 J2.500 K0.000 F400.000
G1 X32.500 Y-10.000 Z20.000 F400.000
G3 X30.000 Y-7.500 Z20.000 I-2.500 J-0.000 K0.000 F400.000
G1 X0.000 Y-7.500 Z20.000 F400.000
G1 X0.000 Y-7.500 Z18.000 F200.000
G1 X-30.000 Y-7.500 Z18.000 F400.000
G3 X-32.500 Y-10.000 Z18.000 I0.000 J-2.500 K0.000 F400.000
G1 X-32.500 Y-50.000 Z18.000 F400.000
G3 X-30.000 Y-52.500 Z18.000 I2.500 J0.000 K0.000 F400.000
G1 X30.000 Y-52.500 Z18.000 F400.000
G3 X32.500 Y-50.000 Z18.000 I-0.000 J2.500 K0.000 F400.000
G1 X32.500 Y-10.000 Z18.000 F400.000
G3 X30.000 Y-7.500 Z18.000 I-2.500 J-0.000 K0.000 F400.000
G1 X0.000 Y-7.500 Z18.000 F400.000
G1 X0.000 Y-7.500 Z16.000 F200.000
G1 X-30.000 Y-7.500 Z16.000 F400.000
G3 X-32.500 Y-10.000 Z16.000 I0.000 J-2.500 K0.000 F400.000
G1 X-32.500 Y-50.000 Z16.000 F400.000
G3 X-30.000 Y-52.500 Z16.000 I2.500 J0.000 K0.000 F400.000
G1 X30.000 Y-52.500 Z16.000 F400.000
G3 X32.500 Y-50.000 Z16.000 I-0.000 J2.500 K0.000 F400.000
G1 X32.500 Y-10.000 Z16.000 F400.000
G3 X30.000 Y-7.500 Z16.000 I-2.500 J-0.000 K0.000 F400.000
G1 X0.000 Y-7.500 Z16.000 F400.000
G1 X0.000 Y-7.500 Z14.000 F200.000
G1 X-30.000 Y-7.500 Z14.000 F400.000
G3 X-32.500 Y-10.000 Z14.000 I0.000 J-2.500 K0.000 F400.000
G1 X-32.500 Y-50.000 Z14.000 F400.000
G3 X-30.000 Y-52.500 Z14.000 I2.500 J0.000 K0.000 F400.000
G1 X30.000 Y-52.500 Z14.000 F400.000
G3 X32.500 Y-50.000 Z14.000 I-0.000 J2.500 K0.000 F400.000
G1 X32.500 Y-10.000 Z14.000 F400.000
G3 X30.000 Y-7.500 Z14.000 I-2.500 J-0.000 K0.000 F400.000
G1 X0.000 Y-7.500 Z14.000 F400.000
G1 X0.000 Y-7.500 Z12.000 F200.000
G1 X-30.000 Y-7.500 Z12.000 F400.000
G3 X-32.500 Y-10.000 Z12.000 I0.000 J-2.500 K0.000 F400.000
G1 X-32.500 Y-50.000 Z12.000 F400.000
G3 X-30.000 Y-52.500 Z12.000 I2.500 J0.000 K0.000 F400.000
G1 X30.000 Y-52.500 Z12.000 F400.000
G3 X32.500 Y-50.000 Z12.000 I-0.000 J2.500 K0.000 F400.000
G1 X32.500 Y-10.000 Z12.000 F400.000
G3 X30.000 Y-7.500 Z12.000 I-2.500 J-0.000 K0.000 F400.000
G1 X0.000 Y-7.500 Z12.000 F400.000
G1 X0.000 Y-7.500 Z10.000 F200.000
G1 X-30.000 Y-7.500 Z10.000 F400.000
G3 X-32.500 Y-10.000 Z10.000 I0.000 J-2.500 K0.000 F400.000
G1 X-32.500 Y-50.000 Z10.000 F400.000
G3 X-30.000 Y-52.500 Z10.000 I2.500 J0.000 K0.000 F400.000
G1 X30.000 Y-52.500 Z10.000 F400.000
G3 X32.500 Y-50.000 Z10.000 I-0.000 J2.500 K0.000 F400.000
G1 X32.500 Y-10.000 Z10.000 F400.000
G3 X30.000 Y-7.500 Z10.000 I-2.500 J-0.000 K0.000 F400.000
G1 X0.000 Y-7.500 Z10.000 F400.000
G1 X0.000 Y-7.500 Z8.000 F200.000
G1 X-30.000 Y-7.500 Z8.000 F400.000
G3 X-32.500 Y-10.000 Z8.000 I0.000 J-2.500 K0.000 F400.000
G1 X-32.500 Y-50.000 Z8.000 F400.000
G3 X-30.000 Y-52.500 Z8.000 I2.500 J0.000 K0.000 F400.000
G1 X30.000 Y-52.500 Z8.000 F400.000
G3 X32.500 Y-50.000 Z8.000 I-0.000 J2.500 K0.000 F400.000
G1 X32.500 Y-10.000 Z8.000 F400.000
G3 X30.000 Y-7.500 Z8.000 I-2.500 J-0.000 K0.000 F400.000
G1 X0.000 Y-7.500 Z8.000 F400.000
G1 X0.000 Y-7.500 Z6.000 F200.000
G1 X-30.000 Y-7.500 Z6.000 F400.000
G3 X-32.500 Y-10.000 Z6.000 I0.000 J-2.500 K0.000 F400.000
G1 X-32.500 Y-50.000 Z6.000 F400.000
G3 X-30.000 Y-52.500 Z6.000 I2.500 J0.000 K0.000 F400.000
G1 X30.000 Y-52.500 Z6.000 F400.000
G3 X32.500 Y-50.000 Z6.000 I-0.000 J2.500 K0.000 F400.000
G1 X32.500 Y-10.000 Z6.000 F400.000
G3 X30.000 Y-7.500 Z6.000 I-2.500 J-0.000 K0.000 F400.000
G1 X0.000 Y-7.500 Z6.000 F400.000
G1 X0.000 Y-7.500 Z4.000 F200.000
G1 X-30.000 Y-7.500 Z4.000 F400.000
G3 X-32.500 Y-10.000 Z4.000 I0.000 J-2.500 K0.000 F400.000
G1 X-32.500 Y-50.000 Z4.000 F400.000
G3 X-30.000 Y-52.500 Z4.000 I2.500 J0.000 K0.000 F400.000
G1 X30.000 Y-52.500 Z4.000 F400.000
G3 X32.500 Y-50.000 Z4.000 I-0.000 J2.500 K0.000 F400.000
G1 X32.500 Y-10.000 Z4.000 F400.000
G3 X30.000 Y-7.500 Z4.000 I-2.500 J-0.000 K0.000 F400.000
G1 X0.000 Y-7.500 Z4.000 F400.000
G1 X0.000 Y-7.500 Z2.000 F200.000
G1 X-30.000 Y-7.500 Z2.000 F400.000
G3 X-32.500 Y-10.000 Z2.000 I0.000 J-2.500 K0.000 F400.000
G1 X-32.500 Y-50.000 Z2.000 F400.000
G3 X-30.000 Y-52.500 Z2.000 I2.500 J0.000 K0.000 F400.000
G1 X30.000 Y-52.500 Z2.000 F400.000
G3 X32.500 Y-50.000 Z2.000 I-0.000 J2.500 K0.000 F400.000
G1 X32.500 Y-10.000 Z2.000 F400.000
G3 X30.000 Y-7.500 Z2.000 I-2.500 J-0.000 K0.000 F400.000
G1 X0.000 Y-7.500 Z2.000 F400.000
G1 X0.000 Y-7.500 Z0.000 F200.000
G1 X-5.010 Y-7.500 Z0.000 F400.000
G1 X-6.010 Y-7.500 Z1.000 F300.000
G1 X-23.990 Y-7.500 Z1.000 F400.000
G1 X-24.990 Y-7.500 Z0.000 F300.000
G1 X-30.000 Y-7.500 Z0.000 F400.000
G3 X-32.500 Y-10.000 Z0.000 I0.000 J-2.500 K0.000 F400.000
G1 X-32.500 Y-50.000 Z0.000 F400.000
G3 X-30.000 Y-52.500 Z0.000 I2.500 J0.000 K0.000 F400.000
G1 X-24.990 Y-52.500 Z0.000 F400.000
G1 X-23.990 Y-52.500 Z1.000 F300.000
G1 X-6.010 Y-52.500 Z1.000 F400.000
G1 X-5.010 Y-52.500 Z0.000 F300.000
G1 X5.010 Y-52.500 Z0.000 F400.000
G1 X6.010 Y-52.500 Z1.000 F300.000
G1 X23.990 Y-52.500 Z1.000 F400.000
G1 X24.990 Y-52.500 Z0.000 F300.000
G1 X30.000 Y-52.500 Z0.000 F400.000
G3 X32.500 Y-50.000 Z0.000 I-0.000 J2.500 K0.000 F400.000
G1 X32.500 Y-10.000 Z0.000 F400.000
G3 X30.000 Y-7.500 Z0.000 I-2.500 J-0.000 K0.000 F400.000
G1 X24.990 Y-7.500 Z0.000 F400.000
G1 X23.990 Y-7.500 Z1.000 F300.000
G1 X6.010 Y-7.500 Z1.000 F400.000
G1 X5.010 Y-7.500 Z0.000 F300.000
G1 X0.000 Y-7.500 Z0.000 F400.000
G0 X0.000 Y-7.500 Z27.000
(Finish operation: DressupTag)
(Begin operation: DressupTag001)
(Path: DressupTag001)
G0 Z27.000
G0 X0.000 Y7.500 Z27.000
G0 X0.000 Y7.500 Z25.000
G1 X0.000 Y7.500 Z20.000 F200.000
G1 X30.000 Y7.500 Z20.000 F400.000
G3 X32.500 Y10.000 Z20.000 I-0.000 J2.500 K0.000 F400.000
G1 X32.500 Y50.000 Z20.000 F400.000
G3 X30.000 Y52.500 Z20.000 I-2.500 J-0.000 K0.000 F400.000
G1 X-30.000 Y52.500 Z20.000 F400.000
G3 X-32.500 Y50.000 Z20.000 I0.000 J-2.500 K0.000 F400.000
G1 X-32.500 Y10.000 Z20.000 F400.000
G3 X-30.000 Y7.500 Z20.000 I2.500 J0.000 K0.000 F400.000
G1 X0.000 Y7.500 Z20.000 F400.000
G1 X0.000 Y7.500 Z18.000 F200.000
G1 X30.000 Y7.500 Z18.000 F400.000
G3 X32.500 Y10.000 Z18.000 I-0.000 J2.500 K0.000 F400.000
G1 X32.500 Y50.000 Z18.000 F400.000
G3 X30.000 Y52.500 Z18.000 I-2.500 J-0.000 K0.000 F400.000
G1 X-30.000 Y52.500 Z18.000 F400.000
G3 X-32.500 Y50.000 Z18.000 I0.000 J-2.500 K0.000 F400.000
G1 X-32.500 Y10.000 Z18.000 F400.000
G3 X-30.000 Y7.500 Z18.000 I2.500 J0.000 K0.000 F400.000
G1 X0.000 Y7.500 Z18.000 F400.000
G1 X0.000 Y7.500 Z16.000 F200.000
G1 X30.000 Y7.500 Z16.000 F400.000
G3 X32.500 Y10.000 Z16.000 I-0.000 J2.500 K0.000 F400.000
G1 X32.500 Y50.000 Z16.000 F400.000
G3 X30.000 Y52.500 Z16.000 I-2.500 J-0.000 K0.000 F400.000
G1 X-30.000 Y52.500 Z16.000 F400.000
G3 X-32.500 Y50.000 Z16.000 I0.000 J-2.500 K0.000 F400.000
G1 X-32.500 Y10.000 Z16.000 F400.000
G3 X-30.000 Y7.500 Z16.000 I2.500 J0.000 K0.000 F400.000
G1 X0.000 Y7.500 Z16.000 F400.000
G1 X0.000 Y7.500 Z14.000 F200.000
G1 X30.000 Y7.500 Z14.000 F400.000
G3 X32.500 Y10.000 Z14.000 I-0.000 J2.500 K0.000 F400.000
G1 X32.500 Y50.000 Z14.000 F400.000
G3 X30.000 Y52.500 Z14.000 I-2.500 J-0.000 K0.000 F400.000
G1 X-30.000 Y52.500 Z14.000 F400.000
G3 X-32.500 Y50.000 Z14.000 I0.000 J-2.500 K0.000 F400.000
G1 X-32.500 Y10.000 Z14.000 F400.000
G3 X-30.000 Y7.500 Z14.000 I2.500 J0.000 K0.000 F400.000
G1 X0.000 Y7.500 Z14.000 F400.000
G1 X0.000 Y7.500 Z12.000 F200.000
G1 X30.000 Y7.500 Z12.000 F400.000
G3 X32.500 Y10.000 Z12.000 I-0.000 J2.500 K0.000 F400.000
G1 X32.500 Y50.000 Z12.000 F400.000
G3 X30.000 Y52.500 Z12.000 I-2.500 J-0.000 K0.000 F400.000
G1 X-30.000 Y52.500 Z12.000 F400.000
G3 X-32.500 Y50.000 Z12.000 I0.000 J-2.500 K0.000 F400.000
G1 X-32.500 Y10.000 Z12.000 F400.000
G3 X-30.000 Y7.500 Z12.000 I2.500 J0.000 K0.000 F400.000
G1 X0.000 Y7.500 Z12.000 F400.000
G1 X0.000 Y7.500 Z10.000 F200.000
G1 X30.000 Y7.500 Z10.000 F400.000
G3 X32.500 Y10.000 Z10.000 I-0.000 J2.500 K0.000 F400.000
G1 X32.500 Y50.000 Z10.000 F400.000
G3 X30.000 Y52.500 Z10.000 I-2.500 J-0.000 K0.000 F400.000
G1 X-30.000 Y52.500 Z10.000 F400.000
G3 X-32.500 Y50.000 Z10.000 I0.000 J-2.500 K0.000 F400.000
G1 X-32.500 Y10.000 Z10.000 F400.000
G3 X-30.000 Y7.500 Z10.000 I2.500 J0.000 K0.000 F400.000
G1 X0.000 Y7.500 Z10.000 F400.000
G1 X0.000 Y7.500 Z8.000 F200.000
G1 X30.000 Y7.500 Z8.000 F400.000
G3 X32.500 Y10.000 Z8.000 I-0.000 J2.500 K0.000 F400.000
G1 X32.500 Y50.000 Z8.000 F400.000
G3 X30.000 Y52.500 Z8.000 I-2.500 J-0.000 K0.000 F400.000
G1 X-30.000 Y52.500 Z8.000 F400.000
G3 X-32.500 Y50.000 Z8.000 I0.000 J-2.500 K0.000 F400.000
G1 X-32.500 Y10.000 Z8.000 F400.000
G3 X-30.000 Y7.500 Z8.000 I2.500 J0.000 K0.000 F400.000
G1 X0.000 Y7.500 Z8.000 F400.000
G1 X0.000 Y7.500 Z6.000 F200.000
G1 X30.000 Y7.500 Z6.000 F400.000
G3 X32.500 Y10.000 Z6.000 I-0.000 J2.500 K0.000 F400.000
G1 X32.500 Y50.000 Z6.000 F400.000
G3 X30.000 Y52.500 Z6.000 I-2.500 J-0.000 K0.000 F400.000
G1 X-30.000 Y52.500 Z6.000 F400.000
G3 X-32.500 Y50.000 Z6.000 I0.000 J-2.500 K0.000 F400.000
G1 X-32.500 Y10.000 Z6.000 F400.000
G3 X-30.000 Y7.500 Z6.000 I2.500 J0.000 K0.000 F400.000
G1 X0.000 Y7.500 Z6.000 F400.000
G1 X0.000 Y7.500 Z4.000 F200.000
G1 X30.000 Y7.500 Z4.000 F400.000
G3 X32.500 Y10.000 Z4.000 I-0.000 J2.500 K0.000 F400.000
G1 X32.500 Y50.000 Z4.000 F400.000
G3 X30.000 Y52.500 Z4.000 I-2.500 J-0.000 K0.000 F400.000
G1 X-30.000 Y52.500 Z4.000 F400.000
G3 X-32.500 Y50.000 Z4.000 I0.000 J-2.500 K0.000 F400.000
G1 X-32.500 Y10.000 Z4.000 F400.000
G3 X-30.000 Y7.500 Z4.000 I2.500 J0.000 K0.000 F400.000
G1 X0.000 Y7.500 Z4.000 F400.000
G1 X0.000 Y7.500 Z2.000 F200.000
G1 X30.000 Y7.500 Z2.000 F400.000
G3 X32.500 Y10.000 Z2.000 I-0.000 J2.500 K0.000 F400.000
G1 X32.500 Y50.000 Z2.000 F400.000
G3 X30.000 Y52.500 Z2.000 I-2.500 J-0.000 K0.000 F400.000
G1 X-30.000 Y52.500 Z2.000 F400.000
G3 X-32.500 Y50.000 Z2.000 I0.000 J-2.500 K0.000 F400.000
G1 X-32.500 Y10.000 Z2.000 F400.000
G3 X-30.000 Y7.500 Z2.000 I2.500 J0.000 K0.000 F400.000
G1 X0.000 Y7.500 Z2.000 F400.000
G1 X0.000 Y7.500 Z0.000 F200.000
G1 X5.010 Y7.500 Z0.000 F400.000
G1 X6.010 Y7.500 Z1.000 F300.000
G1 X23.990 Y7.500 Z1.000 F400.000
G1 X24.990 Y7.500 Z0.000 F300.000
G1 X30.000 Y7.500 Z0.000 F400.000
G3 X32.500 Y10.000 Z0.000 I-0.000 J2.500 K0.000 F400.000
G1 X32.500 Y50.000 Z0.000 F400.000
G3 X30.000 Y52.500 Z0.000 I-2.500 J-0.000 K0.000 F400.000
G1 X24.990 Y52.500 Z0.000 F400.000
G1 X23.990 Y52.500 Z1.000 F300.000
G1 X6.010 Y52.500 Z1.000 F400.000
G1 X5.010 Y52.500 Z0.000 F300.000
G1 X-5.010 Y52.500 Z0.000 F400.000
G1 X-6.010 Y52.500 Z1.000 F300.000
G1 X-23.990 Y52.500 Z1.000 F400.000
G1 X-24.990 Y52.500 Z0.000 F300.000
G1 X-30.000 Y52.500 Z0.000 F400.000
G3 X-32.500 Y50.000 Z0.000 I0.000 J-2.500 K0.000 F400.000
G1 X-32.500 Y10.000 Z0.000 F400.000
G3 X-30.000 Y7.500 Z0.000 I2.500 J0.000 K0.000 F400.000
G1 X-24.990 Y7.500 Z0.000 F400.000
G1 X-23.990 Y7.500 Z1.000 F300.000
G1 X-6.010 Y7.500 Z1.000 F400.000
G1 X-5.010 Y7.500 Z0.000 F300.000
G1 X0.000 Y7.500 Z0.000 F400.000
G0 X0.000 Y7.500 Z27.000
(Finish operation: DressupTag001)
(Begin postamble)
M5
G17 G90
M2
