(Exported by FreeCAD)
(Post Processor: script_module)
(Output Time:2025-04-27 12:11:07.623983)
(Begin preamble)
G17 G90
G21
(Begin operation: Fixture)
(Path: Fixture)
G54
(Finish operation: Fixture)
(Begin operation: 5mm Endmill010)
(Path: 5mm Endmill010)
(5mm Endmill010)
(Begin toolchange)
( M6 T2 )
M3 S8000
(Finish operation: 5mm Endmill010)
(Begin operation: DressupTag004)
(Path: DressupTag004)
G0 Z15.000
G0 X0.000 Y62.500 Z15.000
G0 X0.000 Y62.500 Z13.000
G1 X0.000 Y62.500 Z8.000 F200.000
G1 X-175.000 Y62.500 Z8.000 F400.000
G3 X-177.500 Y60.000 Z8.000 I0.000 J-2.500 K0.000 F400.000
G1 X-177.500 Y-60.000 Z8.000 F400.000
G3 X-175.000 Y-62.500 Z8.000 I2.500 J0.000 K0.000 F400.000
G1 X165.000 Y-62.500 Z8.000 F400.000
G3 X167.198 Y-58.809 Z8.000 I-0.000 J2.500 K0.000 F400.000
G1 X102.198 Y61.191 Z8.000 F400.000
G3 X100.000 Y62.500 Z8.000 I-2.198 J-1.191 K0.000 F400.000
G1 X0.000 Y62.500 Z8.000 F400.000
G1 X0.000 Y62.500 Z6.000 F200.000
G1 X-175.000 Y62.500 Z6.000 F400.000
G3 X-177.500 Y60.000 Z6.000 I0.000 J-2.500 K0.000 F400.000
G1 X-177.500 Y-60.000 Z6.000 F400.000
G3 X-175.000 Y-62.500 Z6.000 I2.500 J0.000 K0.000 F400.000
G1 X165.000 Y-62.500 Z6.000 F400.000
G3 X167.198 Y-58.809 Z6.000 I-0.000 J2.500 K0.000 F400.000
G1 X102.198 Y61.191 Z6.000 F400.000
G3 X100.000 Y62.500 Z6.000 I-2.198 J-1.191 K0.000 F400.000
G1 X0.000 Y62.500 Z6.000 F400.000
G1 X0.000 Y62.500 Z4.000 F200.000
G1 X-175.000 Y62.500 Z4.000 F400.000
G3 X-177.500 Y60.000 Z4.000 I0.000 J-2.500 K0.000 F400.000
G1 X-177.500 Y-60.000 Z4.000 F400.000
G3 X-175.000 Y-62.500 Z4.000 I2.500 J0.000 K0.000 F400.000
G1 X165.000 Y-62.500 Z4.000 F400.000
G3 X167.198 Y-58.809 Z4.000 I-0.000 J2.500 K0.000 F400.000
G1 X102.198 Y61.191 Z4.000 F400.000
G3 X100.000 Y62.500 Z4.000 I-2.198 J-1.191 K0.000 F400.000
G1 X0.000 Y62.500 Z4.000 F400.000
G1 X0.000 Y62.500 Z2.000 F200.000
G1 X-175.000 Y62.500 Z2.000 F400.000
G3 X-177.500 Y60.000 Z2.000 I0.000 J-2.500 K0.000 F400.000
G1 X-177.500 Y-60.000 Z2.000 F400.000
G3 X-175.000 Y-62.500 Z2.000 I2.500 J0.000 K0.000 F400.000
G1 X165.000 Y-62.500 Z2.000 F400.000
G3 X167.198 Y-58.809 Z2.000 I-0.000 J2.500 K0.000 F400.000
G1 X102.198 Y61.191 Z2.000 F400.000
G3 X100.000 Y62.500 Z2.000 I-2.198 J-1.191 K0.000 F400.000
G1 X0.000 Y62.500 Z2.000 F400.000
G1 X0.000 Y62.500 Z0.000 F200.000
G1 X-75.010 Y62.500 Z0.000 F400.000
G1 X-76.010 Y62.500 Z1.000 F300.000
G1 X-98.990 Y62.500 Z1.000 F400.000
G1 X-99.990 Y62.500 Z0.000 F300.000
G1 X-175.000 Y62.500 Z0.000 F400.000
G3 X-177.500 Y60.000 Z0.000 I0.000 J-2.500 K0.000 F400.000
G1 X-177.500 Y12.490 Z0.000 F400.000
G1 X-177.500 Y11.490 Z1.000 F300.000
G1 X-177.500 Y-11.490 Z1.000 F400.000
G1 X-177.500 Y-12.490 Z0.000 F300.000
G1 X-177.500 Y-60.000 Z0.000 F400.000
G3 X-175.000 Y-62.500 Z0.000 I2.500 J0.000 K0.000 F400.000
G1 X-130.823 Y-62.500 Z0.000 F400.000
G1 X-129.823 Y-62.500 Z1.000 F300.000
G1 X-106.843 Y-62.500 Z1.000 F400.000
G1 X-105.843 Y-62.500 Z0.000 F300.000
G1 X-17.490 Y-62.500 Z0.000 F400.000
G1 X-16.490 Y-62.500 Z1.000 F300.000
G1 X6.490 Y-62.500 Z1.000 F400.000
G1 X7.490 Y-62.500 Z0.000 F300.000
G1 X95.843 Y-62.500 Z0.000 F400.000
G1 X96.843 Y-62.500 Z1.000 F300.000
G1 X119.823 Y-62.500 Z1.000 F400.000
G1 X120.823 Y-62.500 Z0.000 F300.000
G1 X165.000 Y-62.500 Z0.000 F400.000
G3 X167.198 Y-58.809 Z0.000 I-0.000 J2.500 K0.000 F400.000
G1 X140.647 Y-9.792 Z0.000 F400.000
G1 X140.171 Y-8.912 Z1.000 F300.000
G1 X129.226 Y11.294 Z1.000 F400.000
G1 X128.749 Y12.173 Z0.000 F300.000
G1 X102.198 Y61.191 Z0.000 F400.000
G3 X100.000 Y62.500 Z0.000 I-2.198 J-1.191 K0.000 F400.000
G1 X62.490 Y62.500 Z0.000 F400.000
G1 X61.490 Y62.500 Z1.000 F300.000
G1 X38.510 Y62.500 Z1.000 F400.000
G1 X37.510 Y62.500 Z0.000 F300.000
G1 X0.000 Y62.500 Z0.000 F400.000
G0 X0.000 Y62.500 Z15.000
(Finish operation: DressupTag004)
(Begin postamble)
M5
G17 G90
M2
