(Exported by FreeCAD)
(Post Processor: script_module)
(Output Time:2025-05-28 17:56:35.214632)
(Begin preamble)
G17 G90
G21
(Begin operation: Fixture)
(Path: Fixture)
G54
(Finish operation: Fixture)
(Begin operation: 5mm Endmill016)
(Path: 5mm Endmill016)
(5mm Endmill016)
(Begin toolchange)
( M6 T2 )
M3 S8000
(Finish operation: 5mm Endmill016)
(Begin operation: Drilling003)
(Path: Drilling003)
(Drilling003)
(Begin Drilling)
G0 Z15.000
G90
( G98 )
G0 X54.000 Y-60.000
(G83 X54.000 Y-60.000 Z0.000 F200.000 Q3.750 R13.000)
G0 X54.000 Y-60.000
G0 Z13.000 F200.00
G1 Z9.250 F200.00
G0 Z13.000
G0 Z9.438
G1 Z5.500 F200.00
G0 Z13.000
G0 Z5.688
G1 Z1.750 F200.00
G0 Z13.000
G0 Z1.938
G1 Z0.000 F200.00
G0 Z15.000
G0 X144.000 Y-60.000
(G83 X144.000 Y-60.000 Z0.000 F200.000 Q3.750 R13.000)
G0 X144.000 Y-60.000
G0 Z13.000 F200.00
G1 Z9.250 F200.00
G0 Z13.000
G0 Z9.438
G1 Z5.500 F200.00
G0 Z13.000
G0 Z5.688
G1 Z1.750 F200.00
G0 Z13.000
G0 Z1.938
G1 Z0.000 F200.00
G0 Z15.000
G0 X144.000 Y125.000
(G83 X144.000 Y125.000 Z0.000 F200.000 Q3.750 R13.000)
G0 X144.000 Y125.000
G0 Z13.000 F200.00
G1 Z9.250 F200.00
G0 Z13.000
G0 Z9.438
G1 Z5.500 F200.00
G0 Z13.000
G0 Z5.688
G1 Z1.750 F200.00
G0 Z13.000
G0 Z1.938
G1 Z0.000 F200.00
G0 Z15.000
G0 X54.000 Y125.000
(G83 X54.000 Y125.000 Z0.000 F200.000 Q3.750 R13.000)
G0 X54.000 Y125.000
G0 Z13.000 F200.00
G1 Z9.250 F200.00
G0 Z13.000
G0 Z9.438
G1 Z5.500 F200.00
G0 Z13.000
G0 Z5.688
G1 Z1.750 F200.00
G0 Z13.000
G0 Z1.938
G1 Z0.000 F200.00
G0 Z15.000
G0 X-144.000 Y125.000
(G83 X-144.000 Y125.000 Z0.000 F200.000 Q3.750 R13.000)
G0 X-144.000 Y125.000
G0 Z13.000 F200.00
G1 Z9.250 F200.00
G0 Z13.000
G0 Z9.438
G1 Z5.500 F200.00
G0 Z13.000
G0 Z5.688
G1 Z1.750 F200.00
G0 Z13.000
G0 Z1.938
G1 Z0.000 F200.00
G0 Z15.000
G0 X-144.000 Y-60.000
(G83 X-144.000 Y-60.000 Z0.000 F200.000 Q3.750 R13.000)
G0 X-144.000 Y-60.000
G0 Z13.000 F200.00
G1 Z9.250 F200.00
G0 Z13.000
G0 Z9.438
G1 Z5.500 F200.00
G0 Z13.000
G0 Z5.688
G1 Z1.750 F200.00
G0 Z13.000
G0 Z1.938
G1 Z0.000 F200.00
G0 Z15.000
( G80 )
G0 Z13.000
G0 Z15.000
(Finish operation: Drilling003)
(Begin operation: DressupTag007)
(Path: DressupTag007)
G0 Z15.000
G0 X67.500 Y-80.000 Z15.000
G0 X67.500 Y-80.000 Z13.000
G1 X67.500 Y-80.000 Z8.000 F200.000
G1 X155.000 Y-80.000 Z8.000 F400.000
G3 X157.500 Y-77.500 Z8.000 I-0.000 J2.500 K0.000 F400.000
G1 X157.500 Y142.500 Z8.000 F400.000
G3 X155.000 Y145.000 Z8.000 I-2.500 J-0.000 K0.000 F400.000
G1 X-155.000 Y145.000 Z8.000 F400.000
G3 X-157.500 Y142.500 Z8.000 I0.000 J-2.500 K0.000 F400.000
G1 X-157.500 Y-142.500 Z8.000 F400.000
G3 X-155.000 Y-145.000 Z8.000 I2.500 J0.000 K0.000 F400.000
G1 X65.000 Y-145.000 Z8.000 F400.000
G3 X67.500 Y-142.500 Z8.000 I-0.000 J2.500 K0.000 F400.000
G1 X67.500 Y-80.000 Z8.000 F400.000
G1 X67.500 Y-80.000 Z6.000 F200.000
G1 X155.000 Y-80.000 Z6.000 F400.000
G3 X157.500 Y-77.500 Z6.000 I-0.000 J2.500 K0.000 F400.000
G1 X157.500 Y142.500 Z6.000 F400.000
G3 X155.000 Y145.000 Z6.000 I-2.500 J-0.000 K0.000 F400.000
G1 X-155.000 Y145.000 Z6.000 F400.000
G3 X-157.500 Y142.500 Z6.000 I0.000 J-2.500 K0.000 F400.000
G1 X-157.500 Y-142.500 Z6.000 F400.000
G3 X-155.000 Y-145.000 Z6.000 I2.500 J0.000 K0.000 F400.000
G1 X65.000 Y-145.000 Z6.000 F400.000
G3 X67.500 Y-142.500 Z6.000 I-0.000 J2.500 K0.000 F400.000
G1 X67.500 Y-80.000 Z6.000 F400.000
G1 X67.500 Y-80.000 Z4.000 F200.000
G1 X155.000 Y-80.000 Z4.000 F400.000
G3 X157.500 Y-77.500 Z4.000 I-0.000 J2.500 K0.000 F400.000
G1 X157.500 Y142.500 Z4.000 F400.000
G3 X155.000 Y145.000 Z4.000 I-2.500 J-0.000 K0.000 F400.000
G1 X-155.000 Y145.000 Z4.000 F400.000
G3 X-157.500 Y142.500 Z4.000 I0.000 J-2.500 K0.000 F400.000
G1 X-157.500 Y-142.500 Z4.000 F400.000
G3 X-155.000 Y-145.000 Z4.000 I2.500 J0.000 K0.000 F400.000
G1 X65.000 Y-145.000 Z4.000 F400.000
G3 X67.500 Y-142.500 Z4.000 I-0.000 J2.500 K0.000 F400.000
G1 X67.500 Y-80.000 Z4.000 F400.000
G1 X67.500 Y-80.000 Z2.000 F200.000
G1 X155.000 Y-80.000 Z2.000 F400.000
G3 X157.500 Y-77.500 Z2.000 I-0.000 J2.500 K0.000 F400.000
G1 X157.500 Y142.500 Z2.000 F400.000
G3 X155.000 Y145.000 Z2.000 I-2.500 J-0.000 K0.000 F400.000
G1 X-155.000 Y145.000 Z2.000 F400.000
G3 X-157.500 Y142.500 Z2.000 I0.000 J-2.500 K0.000 F400.000
G1 X-157.500 Y-142.500 Z2.000 F400.000
G3 X-155.000 Y-145.000 Z2.000 I2.500 J0.000 K0.000 F400.000
G1 X65.000 Y-145.000 Z2.000 F400.000
G3 X67.500 Y-142.500 Z2.000 I-0.000 J2.500 K0.000 F400.000
G1 X67.500 Y-80.000 Z2.000 F400.000
G1 X67.500 Y-80.000 Z0.000 F200.000
G1 X98.760 Y-80.000 Z0.000 F400.000
G1 X99.760 Y-80.000 Z1.000 F300.000
G1 X122.740 Y-80.000 Z1.000 F400.000
G1 X123.740 Y-80.000 Z0.000 F300.000
G1 X155.000 Y-80.000 Z0.000 F400.000
G3 X157.500 Y-77.500 Z0.000 I-0.000 J2.500 K0.000 F400.000
G1 X157.500 Y20.010 Z0.000 F400.000
G1 X157.500 Y21.010 Z1.000 F300.000
G1 X157.500 Y43.990 Z1.000 F400.000
G1 X157.500 Y44.990 Z0.000 F300.000
G1 X157.500 Y142.500 Z0.000 F400.000
G3 X155.000 Y145.000 Z0.000 I-2.500 J-0.000 K0.000 F400.000
G1 X89.990 Y145.000 Z0.000 F400.000
G1 X88.990 Y145.000 Z1.000 F300.000
G1 X66.010 Y145.000 Z1.000 F400.000
G1 X65.010 Y145.000 Z0.000 F300.000
G1 X-65.010 Y145.000 Z0.000 F400.000
G1 X-66.010 Y145.000 Z1.000 F300.000
G1 X-88.990 Y145.000 Z1.000 F400.000
G1 X-89.990 Y145.000 Z0.000 F300.000
G1 X-155.000 Y145.000 Z0.000 F400.000
G3 X-157.500 Y142.500 Z0.000 I0.000 J-2.500 K0.000 F400.000
G1 X-157.500 Y83.740 Z0.000 F400.000
G1 X-157.500 Y82.740 Z1.000 F300.000
G1 X-157.500 Y59.760 Z1.000 F400.000
G1 X-157.500 Y58.760 Z0.000 F300.000
G1 X-157.500 Y-58.760 Z0.000 F400.000
G1 X-157.500 Y-59.760 Z1.000 F300.000
G1 X-157.500 Y-82.740 Z1.000 F400.000
G1 X-157.500 Y-83.740 Z0.000 F300.000
G1 X-157.500 Y-142.500 Z0.000 F400.000
G3 X-155.000 Y-145.000 Z0.000 I2.500 J0.000 K0.000 F400.000
G1 X-57.490 Y-145.000 Z0.000 F400.000
G1 X-56.490 Y-145.000 Z1.000 F300.000
G1 X-33.510 Y-145.000 Z1.000 F400.000
G1 X-32.510 Y-145.000 Z0.000 F300.000
G1 X65.000 Y-145.000 Z0.000 F400.000
G3 X67.500 Y-142.500 Z0.000 I-0.000 J2.500 K0.000 F400.000
G1 X67.500 Y-80.000 Z0.000 F400.000
G0 X67.500 Y-80.000 Z15.000
(Finish operation: DressupTag007)
(Begin postamble)
M5
G17 G90
M2
