(Exported by FreeCAD)
(Post Processor: script_module)
(Output Time:2025-04-20 17:40:47.508282)
(Begin preamble)
G17 G90
G21
(Begin operation: Fixture)
(Path: Fixture)
G54
(Finish operation: Fixture)
(Begin operation: 5mm Endmill004)
(Path: 5mm Endmill004)
(5mm Endmill004)
(Begin toolchange)
( M6 T2 )
M3 S8000
(Finish operation: 5mm Endmill004)
(Begin operation: Pocket_Shape)
(Path: Pocket_Shape)
(Pocket_Shape)
G0 Z27.000
G0 X0.000 Y0.000
G0 X-28.000
G0 X-28.000 Z25.000
G1 X-28.000 Y0.000 Z21.000 F200.000
G1 X-28.000 Y27.000 Z21.000 F400.000
G1 X-82.000 Y27.000 Z21.000 F400.000
G1 X-82.000 Y-27.000 Z21.000 F400.000
G1 X-28.000 Y-27.000 Z21.000 F400.000
G1 X-28.000 Y0.000 Z21.000 F400.000
G1 X-32.000 Y0.000 Z21.000 F200.000
G1 X-32.000 Y23.000 Z21.000 F400.000
G1 X-78.000 Y23.000 Z21.000 F400.000
G1 X-78.000 Y-23.000 Z21.000 F400.000
G1 X-32.000 Y-23.000 Z21.000 F400.000
G1 X-32.000 Y0.000 Z21.000 F400.000
G1 X-36.000 Y0.000 Z21.000 F200.000
G1 X-36.000 Y19.000 Z21.000 F400.000
G1 X-74.000 Y19.000 Z21.000 F400.000
G1 X-74.000 Y-19.000 Z21.000 F400.000
G1 X-36.000 Y-19.000 Z21.000 F400.000
G1 X-36.000 Y0.000 Z21.000 F400.000
G1 X-40.000 Y0.000 Z21.000 F200.000
G1 X-40.000 Y15.000 Z21.000 F400.000
G1 X-70.000 Y15.000 Z21.000 F400.000
G1 X-70.000 Y-15.000 Z21.000 F400.000
G1 X-40.000 Y-15.000 Z21.000 F400.000
G1 X-40.000 Y0.000 Z21.000 F400.000
G1 X-44.000 Y0.000 Z21.000 F200.000
G1 X-44.000 Y11.000 Z21.000 F400.000
G1 X-66.000 Y11.000 Z21.000 F400.000
G1 X-66.000 Y-11.000 Z21.000 F400.000
G1 X-44.000 Y-11.000 Z21.000 F400.000
G1 X-44.000 Y0.000 Z21.000 F400.000
G1 X-48.000 Y0.000 Z21.000 F200.000
G1 X-48.000 Y7.000 Z21.000 F400.000
G1 X-62.000 Y7.000 Z21.000 F400.000
G1 X-62.000 Y-7.000 Z21.000 F400.000
G1 X-48.000 Y-7.000 Z21.000 F400.000
G1 X-48.000 Y0.000 Z21.000 F400.000
G1 X-52.000 Y0.000 Z21.000 F200.000
G1 X-52.000 Y3.000 Z21.000 F400.000
G1 X-58.000 Y3.000 Z21.000 F400.000
G1 X-58.000 Y-3.000 Z21.000 F400.000
G1 X-52.000 Y-3.000 Z21.000 F400.000
G1 X-52.000 Y0.000 Z21.000 F400.000
G1 X-53.250 Y0.000 Z21.000 F200.000
G1 X-53.250 Y1.750 Z21.000 F400.000
G1 X-56.750 Y1.750 Z21.000 F400.000
G1 X-56.750 Y-1.750 Z21.000 F400.000
G1 X-53.250 Y-1.750 Z21.000 F400.000
G1 X-53.250 Y0.000 Z21.000 F400.000
G1 X-54.500 Y0.000 Z21.000 F200.000
G1 X-54.500 Y0.500 Z21.000 F400.000
G1 X-55.500 Y0.500 Z21.000 F400.000
G1 X-55.500 Y-0.500 Z21.000 F400.000
G1 X-54.500 Y-0.500 Z21.000 F400.000
G1 X-54.500 Y0.000 Z21.000 F400.000
G1 X-54.500 Y0.000 Z20.000 F200.000
G1 X-54.500 Y0.500 Z20.000 F400.000
G1 X-55.500 Y0.500 Z20.000 F400.000
G1 X-55.500 Y-0.500 Z20.000 F400.000
G1 X-54.500 Y-0.500 Z20.000 F400.000
G1 X-54.500 Y0.000 Z20.000 F400.000
G1 X-53.250 Y0.000 Z20.000 F200.000
G1 X-53.250 Y1.750 Z20.000 F400.000
G1 X-56.750 Y1.750 Z20.000 F400.000
G1 X-56.750 Y-1.750 Z20.000 F400.000
G1 X-53.250 Y-1.750 Z20.000 F400.000
G1 X-53.250 Y0.000 Z20.000 F400.000
G1 X-52.000 Y0.000 Z20.000 F200.000
G1 X-52.000 Y3.000 Z20.000 F400.000
G1 X-58.000 Y3.000 Z20.000 F400.000
G1 X-58.000 Y-3.000 Z20.000 F400.000
G1 X-52.000 Y-3.000 Z20.000 F400.000
G1 X-52.000 Y0.000 Z20.000 F400.000
G1 X-48.000 Y0.000 Z20.000 F200.000
G1 X-48.000 Y7.000 Z20.000 F400.000
G1 X-62.000 Y7.000 Z20.000 F400.000
G1 X-62.000 Y-7.000 Z20.000 F400.000
G1 X-48.000 Y-7.000 Z20.000 F400.000
G1 X-48.000 Y0.000 Z20.000 F400.000
G1 X-44.000 Y0.000 Z20.000 F200.000
G1 X-44.000 Y11.000 Z20.000 F400.000
G1 X-66.000 Y11.000 Z20.000 F400.000
G1 X-66.000 Y-11.000 Z20.000 F400.000
G1 X-44.000 Y-11.000 Z20.000 F400.000
G1 X-44.000 Y0.000 Z20.000 F400.000
G1 X-40.000 Y0.000 Z20.000 F200.000
G1 X-40.000 Y15.000 Z20.000 F400.000
G1 X-70.000 Y15.000 Z20.000 F400.000
G1 X-70.000 Y-15.000 Z20.000 F400.000
G1 X-40.000 Y-15.000 Z20.000 F400.000
G1 X-40.000 Y0.000 Z20.000 F400.000
G1 X-36.000 Y0.000 Z20.000 F200.000
G1 X-36.000 Y19.000 Z20.000 F400.000
G1 X-74.000 Y19.000 Z20.000 F400.000
G1 X-74.000 Y-19.000 Z20.000 F400.000
G1 X-36.000 Y-19.000 Z20.000 F400.000
G1 X-36.000 Y0.000 Z20.000 F400.000
G1 X-32.000 Y0.000 Z20.000 F200.000
G1 X-32.000 Y23.000 Z20.000 F400.000
G1 X-78.000 Y23.000 Z20.000 F400.000
G1 X-78.000 Y-23.000 Z20.000 F400.000
G1 X-32.000 Y-23.000 Z20.000 F400.000
G1 X-32.000 Y0.000 Z20.000 F400.000
G1 X-28.000 Y0.000 Z20.000 F200.000
G1 X-28.000 Y27.000 Z20.000 F400.000
G1 X-82.000 Y27.000 Z20.000 F400.000
G1 X-82.000 Y-27.000 Z20.000 F400.000
G1 X-28.000 Y-27.000 Z20.000 F400.000
G1 X-28.000 Y0.000 Z20.000 F400.000
G1 X-28.000 Y0.000 Z19.000 F200.000
G1 X-28.000 Y27.000 Z19.000 F400.000
G1 X-82.000 Y27.000 Z19.000 F400.000
G1 X-82.000 Y-27.000 Z19.000 F400.000
G1 X-28.000 Y-27.000 Z19.000 F400.000
G1 X-28.000 Y0.000 Z19.000 F400.000
G1 X-32.000 Y0.000 Z19.000 F200.000
G1 X-32.000 Y23.000 Z19.000 F400.000
G1 X-78.000 Y23.000 Z19.000 F400.000
G1 X-78.000 Y-23.000 Z19.000 F400.000
G1 X-32.000 Y-23.000 Z19.000 F400.000
G1 X-32.000 Y0.000 Z19.000 F400.000
G1 X-36.000 Y0.000 Z19.000 F200.000
G1 X-36.000 Y19.000 Z19.000 F400.000
G1 X-74.000 Y19.000 Z19.000 F400.000
G1 X-74.000 Y-19.000 Z19.000 F400.000
G1 X-36.000 Y-19.000 Z19.000 F400.000
G1 X-36.000 Y0.000 Z19.000 F400.000
G1 X-40.000 Y0.000 Z19.000 F200.000
G1 X-40.000 Y15.000 Z19.000 F400.000
G1 X-70.000 Y15.000 Z19.000 F400.000
G1 X-70.000 Y-15.000 Z19.000 F400.000
G1 X-40.000 Y-15.000 Z19.000 F400.000
G1 X-40.000 Y0.000 Z19.000 F400.000
G1 X-44.000 Y0.000 Z19.000 F200.000
G1 X-44.000 Y11.000 Z19.000 F400.000
G1 X-66.000 Y11.000 Z19.000 F400.000
G1 X-66.000 Y-11.000 Z19.000 F400.000
G1 X-44.000 Y-11.000 Z19.000 F400.000
G1 X-44.000 Y0.000 Z19.000 F400.000
G1 X-48.000 Y0.000 Z19.000 F200.000
G1 X-48.000 Y7.000 Z19.000 F400.000
G1 X-62.000 Y7.000 Z19.000 F400.000
G1 X-62.000 Y-7.000 Z19.000 F400.000
G1 X-48.000 Y-7.000 Z19.000 F400.000
G1 X-48.000 Y0.000 Z19.000 F400.000
G1 X-52.000 Y0.000 Z19.000 F200.000
G1 X-52.000 Y3.000 Z19.000 F400.000
G1 X-58.000 Y3.000 Z19.000 F400.000
G1 X-58.000 Y-3.000 Z19.000 F400.000
G1 X-52.000 Y-3.000 Z19.000 F400.000
G1 X-52.000 Y0.000 Z19.000 F400.000
G1 X-53.250 Y0.000 Z19.000 F200.000
G1 X-53.250 Y1.750 Z19.000 F400.000
G1 X-56.750 Y1.750 Z19.000 F400.000
G1 X-56.750 Y-1.750 Z19.000 F400.000
G1 X-53.250 Y-1.750 Z19.000 F400.000
G1 X-53.250 Y0.000 Z19.000 F400.000
G1 X-54.500 Y0.000 Z19.000 F200.000
G1 X-54.500 Y0.500 Z19.000 F400.000
G1 X-55.500 Y0.500 Z19.000 F400.000
G1 X-55.500 Y-0.500 Z19.000 F400.000
G1 X-54.500 Y-0.500 Z19.000 F400.000
G1 X-54.500 Y0.000 Z19.000 F400.000
G1 X-54.500 Y0.000 Z18.000 F200.000
G1 X-54.500 Y0.500 Z18.000 F400.000
G1 X-55.500 Y0.500 Z18.000 F400.000
G1 X-55.500 Y-0.500 Z18.000 F400.000
G1 X-54.500 Y-0.500 Z18.000 F400.000
G1 X-54.500 Y0.000 Z18.000 F400.000
G1 X-53.250 Y0.000 Z18.000 F200.000
G1 X-53.250 Y1.750 Z18.000 F400.000
G1 X-56.750 Y1.750 Z18.000 F400.000
G1 X-56.750 Y-1.750 Z18.000 F400.000
G1 X-53.250 Y-1.750 Z18.000 F400.000
G1 X-53.250 Y0.000 Z18.000 F400.000
G1 X-52.000 Y0.000 Z18.000 F200.000
G1 X-52.000 Y3.000 Z18.000 F400.000
G1 X-58.000 Y3.000 Z18.000 F400.000
G1 X-58.000 Y-3.000 Z18.000 F400.000
G1 X-52.000 Y-3.000 Z18.000 F400.000
G1 X-52.000 Y0.000 Z18.000 F400.000
G1 X-48.000 Y0.000 Z18.000 F200.000
G1 X-48.000 Y7.000 Z18.000 F400.000
G1 X-62.000 Y7.000 Z18.000 F400.000
G1 X-62.000 Y-7.000 Z18.000 F400.000
G1 X-48.000 Y-7.000 Z18.000 F400.000
G1 X-48.000 Y0.000 Z18.000 F400.000
G1 X-44.000 Y0.000 Z18.000 F200.000
G1 X-44.000 Y11.000 Z18.000 F400.000
G1 X-66.000 Y11.000 Z18.000 F400.000
G1 X-66.000 Y-11.000 Z18.000 F400.000
G1 X-44.000 Y-11.000 Z18.000 F400.000
G1 X-44.000 Y0.000 Z18.000 F400.000
G1 X-40.000 Y0.000 Z18.000 F200.000
G1 X-40.000 Y15.000 Z18.000 F400.000
G1 X-70.000 Y15.000 Z18.000 F400.000
G1 X-70.000 Y-15.000 Z18.000 F400.000
G1 X-40.000 Y-15.000 Z18.000 F400.000
G1 X-40.000 Y0.000 Z18.000 F400.000
G1 X-36.000 Y0.000 Z18.000 F200.000
G1 X-36.000 Y19.000 Z18.000 F400.000
G1 X-74.000 Y19.000 Z18.000 F400.000
G1 X-74.000 Y-19.000 Z18.000 F400.000
G1 X-36.000 Y-19.000 Z18.000 F400.000
G1 X-36.000 Y0.000 Z18.000 F400.000
G1 X-32.000 Y0.000 Z18.000 F200.000
G1 X-32.000 Y23.000 Z18.000 F400.000
G1 X-78.000 Y23.000 Z18.000 F400.000
G1 X-78.000 Y-23.000 Z18.000 F400.000
G1 X-32.000 Y-23.000 Z18.000 F400.000
G1 X-32.000 Y0.000 Z18.000 F400.000
G1 X-28.000 Y0.000 Z18.000 F200.000
G1 X-28.000 Y27.000 Z18.000 F400.000
G1 X-82.000 Y27.000 Z18.000 F400.000
G1 X-82.000 Y-27.000 Z18.000 F400.000
G1 X-28.000 Y-27.000 Z18.000 F400.000
G1 X-28.000 Y0.000 Z18.000 F400.000
G1 X-28.000 Y0.000 Z17.000 F200.000
G1 X-28.000 Y27.000 Z17.000 F400.000
G1 X-82.000 Y27.000 Z17.000 F400.000
G1 X-82.000 Y-27.000 Z17.000 F400.000
G1 X-28.000 Y-27.000 Z17.000 F400.000
G1 X-28.000 Y0.000 Z17.000 F400.000
G1 X-32.000 Y0.000 Z17.000 F200.000
G1 X-32.000 Y23.000 Z17.000 F400.000
G1 X-78.000 Y23.000 Z17.000 F400.000
G1 X-78.000 Y-23.000 Z17.000 F400.000
G1 X-32.000 Y-23.000 Z17.000 F400.000
G1 X-32.000 Y0.000 Z17.000 F400.000
G1 X-36.000 Y0.000 Z17.000 F200.000
G1 X-36.000 Y19.000 Z17.000 F400.000
G1 X-74.000 Y19.000 Z17.000 F400.000
G1 X-74.000 Y-19.000 Z17.000 F400.000
G1 X-36.000 Y-19.000 Z17.000 F400.000
G1 X-36.000 Y0.000 Z17.000 F400.000
G1 X-40.000 Y0.000 Z17.000 F200.000
G1 X-40.000 Y15.000 Z17.000 F400.000
G1 X-70.000 Y15.000 Z17.000 F400.000
G1 X-70.000 Y-15.000 Z17.000 F400.000
G1 X-40.000 Y-15.000 Z17.000 F400.000
G1 X-40.000 Y0.000 Z17.000 F400.000
G1 X-44.000 Y0.000 Z17.000 F200.000
G1 X-44.000 Y11.000 Z17.000 F400.000
G1 X-66.000 Y11.000 Z17.000 F400.000
G1 X-66.000 Y-11.000 Z17.000 F400.000
G1 X-44.000 Y-11.000 Z17.000 F400.000
G1 X-44.000 Y0.000 Z17.000 F400.000
G1 X-48.000 Y0.000 Z17.000 F200.000
G1 X-48.000 Y7.000 Z17.000 F400.000
G1 X-62.000 Y7.000 Z17.000 F400.000
G1 X-62.000 Y-7.000 Z17.000 F400.000
G1 X-48.000 Y-7.000 Z17.000 F400.000
G1 X-48.000 Y0.000 Z17.000 F400.000
G1 X-52.000 Y0.000 Z17.000 F200.000
G1 X-52.000 Y3.000 Z17.000 F400.000
G1 X-58.000 Y3.000 Z17.000 F400.000
G1 X-58.000 Y-3.000 Z17.000 F400.000
G1 X-52.000 Y-3.000 Z17.000 F400.000
G1 X-52.000 Y0.000 Z17.000 F400.000
G1 X-53.250 Y0.000 Z17.000 F200.000
G1 X-53.250 Y1.750 Z17.000 F400.000
G1 X-56.750 Y1.750 Z17.000 F400.000
G1 X-56.750 Y-1.750 Z17.000 F400.000
G1 X-53.250 Y-1.750 Z17.000 F400.000
G1 X-53.250 Y0.000 Z17.000 F400.000
G1 X-54.500 Y0.000 Z17.000 F200.000
G1 X-54.500 Y0.500 Z17.000 F400.000
G1 X-55.500 Y0.500 Z17.000 F400.000
G1 X-55.500 Y-0.500 Z17.000 F400.000
G1 X-54.500 Y-0.500 Z17.000 F400.000
G1 X-54.500 Y0.000 Z17.000 F400.000
G1 X-54.500 Y0.000 Z16.000 F200.000
G1 X-54.500 Y0.500 Z16.000 F400.000
G1 X-55.500 Y0.500 Z16.000 F400.000
G1 X-55.500 Y-0.500 Z16.000 F400.000
G1 X-54.500 Y-0.500 Z16.000 F400.000
G1 X-54.500 Y0.000 Z16.000 F400.000
G1 X-53.250 Y0.000 Z16.000 F200.000
G1 X-53.250 Y1.750 Z16.000 F400.000
G1 X-56.750 Y1.750 Z16.000 F400.000
G1 X-56.750 Y-1.750 Z16.000 F400.000
G1 X-53.250 Y-1.750 Z16.000 F400.000
G1 X-53.250 Y0.000 Z16.000 F400.000
G1 X-52.000 Y0.000 Z16.000 F200.000
G1 X-52.000 Y3.000 Z16.000 F400.000
G1 X-58.000 Y3.000 Z16.000 F400.000
G1 X-58.000 Y-3.000 Z16.000 F400.000
G1 X-52.000 Y-3.000 Z16.000 F400.000
G1 X-52.000 Y0.000 Z16.000 F400.000
G1 X-48.000 Y0.000 Z16.000 F200.000
G1 X-48.000 Y7.000 Z16.000 F400.000
G1 X-62.000 Y7.000 Z16.000 F400.000
G1 X-62.000 Y-7.000 Z16.000 F400.000
G1 X-48.000 Y-7.000 Z16.000 F400.000
G1 X-48.000 Y0.000 Z16.000 F400.000
G1 X-44.000 Y0.000 Z16.000 F200.000
G1 X-44.000 Y11.000 Z16.000 F400.000
G1 X-66.000 Y11.000 Z16.000 F400.000
G1 X-66.000 Y-11.000 Z16.000 F400.000
G1 X-44.000 Y-11.000 Z16.000 F400.000
G1 X-44.000 Y0.000 Z16.000 F400.000
G1 X-40.000 Y0.000 Z16.000 F200.000
G1 X-40.000 Y15.000 Z16.000 F400.000
G1 X-70.000 Y15.000 Z16.000 F400.000
G1 X-70.000 Y-15.000 Z16.000 F400.000
G1 X-40.000 Y-15.000 Z16.000 F400.000
G1 X-40.000 Y0.000 Z16.000 F400.000
G1 X-36.000 Y0.000 Z16.000 F200.000
G1 X-36.000 Y19.000 Z16.000 F400.000
G1 X-74.000 Y19.000 Z16.000 F400.000
G1 X-74.000 Y-19.000 Z16.000 F400.000
G1 X-36.000 Y-19.000 Z16.000 F400.000
G1 X-36.000 Y0.000 Z16.000 F400.000
G1 X-32.000 Y0.000 Z16.000 F200.000
G1 X-32.000 Y23.000 Z16.000 F400.000
G1 X-78.000 Y23.000 Z16.000 F400.000
G1 X-78.000 Y-23.000 Z16.000 F400.000
G1 X-32.000 Y-23.000 Z16.000 F400.000
G1 X-32.000 Y0.000 Z16.000 F400.000
G1 X-28.000 Y0.000 Z16.000 F200.000
G1 X-28.000 Y27.000 Z16.000 F400.000
G1 X-82.000 Y27.000 Z16.000 F400.000
G1 X-82.000 Y-27.000 Z16.000 F400.000
G1 X-28.000 Y-27.000 Z16.000 F400.000
G1 X-28.000 Y0.000 Z16.000 F400.000
G1 X-28.000 Y0.000 Z15.000 F200.000
G1 X-28.000 Y27.000 Z15.000 F400.000
G1 X-82.000 Y27.000 Z15.000 F400.000
G1 X-82.000 Y-27.000 Z15.000 F400.000
G1 X-28.000 Y-27.000 Z15.000 F400.000
G1 X-28.000 Y0.000 Z15.000 F400.000
G1 X-32.000 Y0.000 Z15.000 F200.000
G1 X-32.000 Y23.000 Z15.000 F400.000
G1 X-78.000 Y23.000 Z15.000 F400.000
G1 X-78.000 Y-23.000 Z15.000 F400.000
G1 X-32.000 Y-23.000 Z15.000 F400.000
G1 X-32.000 Y0.000 Z15.000 F400.000
G1 X-36.000 Y0.000 Z15.000 F200.000
G1 X-36.000 Y19.000 Z15.000 F400.000
G1 X-74.000 Y19.000 Z15.000 F400.000
G1 X-74.000 Y-19.000 Z15.000 F400.000
G1 X-36.000 Y-19.000 Z15.000 F400.000
G1 X-36.000 Y0.000 Z15.000 F400.000
G1 X-40.000 Y0.000 Z15.000 F200.000
G1 X-40.000 Y15.000 Z15.000 F400.000
G1 X-70.000 Y15.000 Z15.000 F400.000
G1 X-70.000 Y-15.000 Z15.000 F400.000
G1 X-40.000 Y-15.000 Z15.000 F400.000
G1 X-40.000 Y0.000 Z15.000 F400.000
G1 X-44.000 Y0.000 Z15.000 F200.000
G1 X-44.000 Y11.000 Z15.000 F400.000
G1 X-66.000 Y11.000 Z15.000 F400.000
G1 X-66.000 Y-11.000 Z15.000 F400.000
G1 X-44.000 Y-11.000 Z15.000 F400.000
G1 X-44.000 Y0.000 Z15.000 F400.000
G1 X-48.000 Y0.000 Z15.000 F200.000
G1 X-48.000 Y7.000 Z15.000 F400.000
G1 X-62.000 Y7.000 Z15.000 F400.000
G1 X-62.000 Y-7.000 Z15.000 F400.000
G1 X-48.000 Y-7.000 Z15.000 F400.000
G1 X-48.000 Y0.000 Z15.000 F400.000
G1 X-52.000 Y0.000 Z15.000 F200.000
G1 X-52.000 Y3.000 Z15.000 F400.000
G1 X-58.000 Y3.000 Z15.000 F400.000
G1 X-58.000 Y-3.000 Z15.000 F400.000
G1 X-52.000 Y-3.000 Z15.000 F400.000
G1 X-52.000 Y0.000 Z15.000 F400.000
G1 X-53.250 Y0.000 Z15.000 F200.000
G1 X-53.250 Y1.750 Z15.000 F400.000
G1 X-56.750 Y1.750 Z15.000 F400.000
G1 X-56.750 Y-1.750 Z15.000 F400.000
G1 X-53.250 Y-1.750 Z15.000 F400.000
G1 X-53.250 Y0.000 Z15.000 F400.000
G1 X-54.500 Y0.000 Z15.000 F200.000
G1 X-54.500 Y0.500 Z15.000 F400.000
G1 X-55.500 Y0.500 Z15.000 F400.000
G1 X-55.500 Y-0.500 Z15.000 F400.000
G1 X-54.500 Y-0.500 Z15.000 F400.000
G1 X-54.500 Y0.000 Z15.000 F400.000
G1 X-54.500 Y0.000 Z14.000 F200.000
G1 X-54.500 Y0.500 Z14.000 F400.000
G1 X-55.500 Y0.500 Z14.000 F400.000
G1 X-55.500 Y-0.500 Z14.000 F400.000
G1 X-54.500 Y-0.500 Z14.000 F400.000
G1 X-54.500 Y0.000 Z14.000 F400.000
G1 X-53.250 Y0.000 Z14.000 F200.000
G1 X-53.250 Y1.750 Z14.000 F400.000
G1 X-56.750 Y1.750 Z14.000 F400.000
G1 X-56.750 Y-1.750 Z14.000 F400.000
G1 X-53.250 Y-1.750 Z14.000 F400.000
G1 X-53.250 Y0.000 Z14.000 F400.000
G1 X-52.000 Y0.000 Z14.000 F200.000
G1 X-52.000 Y3.000 Z14.000 F400.000
G1 X-58.000 Y3.000 Z14.000 F400.000
G1 X-58.000 Y-3.000 Z14.000 F400.000
G1 X-52.000 Y-3.000 Z14.000 F400.000
G1 X-52.000 Y0.000 Z14.000 F400.000
G1 X-48.000 Y0.000 Z14.000 F200.000
G1 X-48.000 Y7.000 Z14.000 F400.000
G1 X-62.000 Y7.000 Z14.000 F400.000
G1 X-62.000 Y-7.000 Z14.000 F400.000
G1 X-48.000 Y-7.000 Z14.000 F400.000
G1 X-48.000 Y0.000 Z14.000 F400.000
G1 X-44.000 Y0.000 Z14.000 F200.000
G1 X-44.000 Y11.000 Z14.000 F400.000
G1 X-66.000 Y11.000 Z14.000 F400.000
G1 X-66.000 Y-11.000 Z14.000 F400.000
G1 X-44.000 Y-11.000 Z14.000 F400.000
G1 X-44.000 Y0.000 Z14.000 F400.000
G1 X-40.000 Y0.000 Z14.000 F200.000
G1 X-40.000 Y15.000 Z14.000 F400.000
G1 X-70.000 Y15.000 Z14.000 F400.000
G1 X-70.000 Y-15.000 Z14.000 F400.000
G1 X-40.000 Y-15.000 Z14.000 F400.000
G1 X-40.000 Y0.000 Z14.000 F400.000
G1 X-36.000 Y0.000 Z14.000 F200.000
G1 X-36.000 Y19.000 Z14.000 F400.000
G1 X-74.000 Y19.000 Z14.000 F400.000
G1 X-74.000 Y-19.000 Z14.000 F400.000
G1 X-36.000 Y-19.000 Z14.000 F400.000
G1 X-36.000 Y0.000 Z14.000 F400.000
G1 X-32.000 Y0.000 Z14.000 F200.000
G1 X-32.000 Y23.000 Z14.000 F400.000
G1 X-78.000 Y23.000 Z14.000 F400.000
G1 X-78.000 Y-23.000 Z14.000 F400.000
G1 X-32.000 Y-23.000 Z14.000 F400.000
G1 X-32.000 Y0.000 Z14.000 F400.000
G1 X-28.000 Y0.000 Z14.000 F200.000
G1 X-28.000 Y27.000 Z14.000 F400.000
G1 X-82.000 Y27.000 Z14.000 F400.000
G1 X-82.000 Y-27.000 Z14.000 F400.000
G1 X-28.000 Y-27.000 Z14.000 F400.000
G1 X-28.000 Y0.000 Z14.000 F400.000
G1 X-28.000 Y0.000 Z13.000 F200.000
G1 X-28.000 Y27.000 Z13.000 F400.000
G1 X-82.000 Y27.000 Z13.000 F400.000
G1 X-82.000 Y-27.000 Z13.000 F400.000
G1 X-28.000 Y-27.000 Z13.000 F400.000
G1 X-28.000 Y0.000 Z13.000 F400.000
G1 X-32.000 Y0.000 Z13.000 F200.000
G1 X-32.000 Y23.000 Z13.000 F400.000
G1 X-78.000 Y23.000 Z13.000 F400.000
G1 X-78.000 Y-23.000 Z13.000 F400.000
G1 X-32.000 Y-23.000 Z13.000 F400.000
G1 X-32.000 Y0.000 Z13.000 F400.000
G1 X-36.000 Y0.000 Z13.000 F200.000
G1 X-36.000 Y19.000 Z13.000 F400.000
G1 X-74.000 Y19.000 Z13.000 F400.000
G1 X-74.000 Y-19.000 Z13.000 F400.000
G1 X-36.000 Y-19.000 Z13.000 F400.000
G1 X-36.000 Y0.000 Z13.000 F400.000
G1 X-40.000 Y0.000 Z13.000 F200.000
G1 X-40.000 Y15.000 Z13.000 F400.000
G1 X-70.000 Y15.000 Z13.000 F400.000
G1 X-70.000 Y-15.000 Z13.000 F400.000
G1 X-40.000 Y-15.000 Z13.000 F400.000
G1 X-40.000 Y0.000 Z13.000 F400.000
G1 X-44.000 Y0.000 Z13.000 F200.000
G1 X-44.000 Y11.000 Z13.000 F400.000
G1 X-66.000 Y11.000 Z13.000 F400.000
G1 X-66.000 Y-11.000 Z13.000 F400.000
G1 X-44.000 Y-11.000 Z13.000 F400.000
G1 X-44.000 Y0.000 Z13.000 F400.000
G1 X-48.000 Y0.000 Z13.000 F200.000
G1 X-48.000 Y7.000 Z13.000 F400.000
G1 X-62.000 Y7.000 Z13.000 F400.000
G1 X-62.000 Y-7.000 Z13.000 F400.000
G1 X-48.000 Y-7.000 Z13.000 F400.000
G1 X-48.000 Y0.000 Z13.000 F400.000
G1 X-52.000 Y0.000 Z13.000 F200.000
G1 X-52.000 Y3.000 Z13.000 F400.000
G1 X-58.000 Y3.000 Z13.000 F400.000
G1 X-58.000 Y-3.000 Z13.000 F400.000
G1 X-52.000 Y-3.000 Z13.000 F400.000
G1 X-52.000 Y0.000 Z13.000 F400.000
G1 X-53.250 Y0.000 Z13.000 F200.000
G1 X-53.250 Y1.750 Z13.000 F400.000
G1 X-56.750 Y1.750 Z13.000 F400.000
G1 X-56.750 Y-1.750 Z13.000 F400.000
G1 X-53.250 Y-1.750 Z13.000 F400.000
G1 X-53.250 Y0.000 Z13.000 F400.000
G1 X-54.500 Y0.000 Z13.000 F200.000
G1 X-54.500 Y0.500 Z13.000 F400.000
G1 X-55.500 Y0.500 Z13.000 F400.000
G1 X-55.500 Y-0.500 Z13.000 F400.000
G1 X-54.500 Y-0.500 Z13.000 F400.000
G1 X-54.500 Y0.000 Z13.000 F400.000
G1 X-54.500 Y0.000 Z12.000 F200.000
G1 X-54.500 Y0.500 Z12.000 F400.000
G1 X-55.500 Y0.500 Z12.000 F400.000
G1 X-55.500 Y-0.500 Z12.000 F400.000
G1 X-54.500 Y-0.500 Z12.000 F400.000
G1 X-54.500 Y0.000 Z12.000 F400.000
G1 X-53.250 Y0.000 Z12.000 F200.000
G1 X-53.250 Y1.750 Z12.000 F400.000
G1 X-56.750 Y1.750 Z12.000 F400.000
G1 X-56.750 Y-1.750 Z12.000 F400.000
G1 X-53.250 Y-1.750 Z12.000 F400.000
G1 X-53.250 Y0.000 Z12.000 F400.000
G1 X-52.000 Y0.000 Z12.000 F200.000
G1 X-52.000 Y3.000 Z12.000 F400.000
G1 X-58.000 Y3.000 Z12.000 F400.000
G1 X-58.000 Y-3.000 Z12.000 F400.000
G1 X-52.000 Y-3.000 Z12.000 F400.000
G1 X-52.000 Y0.000 Z12.000 F400.000
G1 X-48.000 Y0.000 Z12.000 F200.000
G1 X-48.000 Y7.000 Z12.000 F400.000
G1 X-62.000 Y7.000 Z12.000 F400.000
G1 X-62.000 Y-7.000 Z12.000 F400.000
G1 X-48.000 Y-7.000 Z12.000 F400.000
G1 X-48.000 Y0.000 Z12.000 F400.000
G1 X-44.000 Y0.000 Z12.000 F200.000
G1 X-44.000 Y11.000 Z12.000 F400.000
G1 X-66.000 Y11.000 Z12.000 F400.000
G1 X-66.000 Y-11.000 Z12.000 F400.000
G1 X-44.000 Y-11.000 Z12.000 F400.000
G1 X-44.000 Y0.000 Z12.000 F400.000
G1 X-40.000 Y0.000 Z12.000 F200.000
G1 X-40.000 Y15.000 Z12.000 F400.000
G1 X-70.000 Y15.000 Z12.000 F400.000
G1 X-70.000 Y-15.000 Z12.000 F400.000
G1 X-40.000 Y-15.000 Z12.000 F400.000
G1 X-40.000 Y0.000 Z12.000 F400.000
G1 X-36.000 Y0.000 Z12.000 F200.000
G1 X-36.000 Y19.000 Z12.000 F400.000
G1 X-74.000 Y19.000 Z12.000 F400.000
G1 X-74.000 Y-19.000 Z12.000 F400.000
G1 X-36.000 Y-19.000 Z12.000 F400.000
G1 X-36.000 Y0.000 Z12.000 F400.000
G1 X-32.000 Y0.000 Z12.000 F200.000
G1 X-32.000 Y23.000 Z12.000 F400.000
G1 X-78.000 Y23.000 Z12.000 F400.000
G1 X-78.000 Y-23.000 Z12.000 F400.000
G1 X-32.000 Y-23.000 Z12.000 F400.000
G1 X-32.000 Y0.000 Z12.000 F400.000
G1 X-28.000 Y0.000 Z12.000 F200.000
G1 X-28.000 Y27.000 Z12.000 F400.000
G1 X-82.000 Y27.000 Z12.000 F400.000
G1 X-82.000 Y-27.000 Z12.000 F400.000
G1 X-28.000 Y-27.000 Z12.000 F400.000
G1 X-28.000 Y0.000 Z12.000 F400.000
G1 X-28.000 Y0.000 Z11.000 F200.000
G1 X-28.000 Y27.000 Z11.000 F400.000
G1 X-82.000 Y27.000 Z11.000 F400.000
G1 X-82.000 Y-27.000 Z11.000 F400.000
G1 X-28.000 Y-27.000 Z11.000 F400.000
G1 X-28.000 Y0.000 Z11.000 F400.000
G1 X-32.000 Y0.000 Z11.000 F200.000
G1 X-32.000 Y23.000 Z11.000 F400.000
G1 X-78.000 Y23.000 Z11.000 F400.000
G1 X-78.000 Y-23.000 Z11.000 F400.000
G1 X-32.000 Y-23.000 Z11.000 F400.000
G1 X-32.000 Y0.000 Z11.000 F400.000
G1 X-36.000 Y0.000 Z11.000 F200.000
G1 X-36.000 Y19.000 Z11.000 F400.000
G1 X-74.000 Y19.000 Z11.000 F400.000
G1 X-74.000 Y-19.000 Z11.000 F400.000
G1 X-36.000 Y-19.000 Z11.000 F400.000
G1 X-36.000 Y0.000 Z11.000 F400.000
G1 X-40.000 Y0.000 Z11.000 F200.000
G1 X-40.000 Y15.000 Z11.000 F400.000
G1 X-70.000 Y15.000 Z11.000 F400.000
G1 X-70.000 Y-15.000 Z11.000 F400.000
G1 X-40.000 Y-15.000 Z11.000 F400.000
G1 X-40.000 Y0.000 Z11.000 F400.000
G1 X-44.000 Y0.000 Z11.000 F200.000
G1 X-44.000 Y11.000 Z11.000 F400.000
G1 X-66.000 Y11.000 Z11.000 F400.000
G1 X-66.000 Y-11.000 Z11.000 F400.000
G1 X-44.000 Y-11.000 Z11.000 F400.000
G1 X-44.000 Y0.000 Z11.000 F400.000
G1 X-48.000 Y0.000 Z11.000 F200.000
G1 X-48.000 Y7.000 Z11.000 F400.000
G1 X-62.000 Y7.000 Z11.000 F400.000
G1 X-62.000 Y-7.000 Z11.000 F400.000
G1 X-48.000 Y-7.000 Z11.000 F400.000
G1 X-48.000 Y0.000 Z11.000 F400.000
G1 X-52.000 Y0.000 Z11.000 F200.000
G1 X-52.000 Y3.000 Z11.000 F400.000
G1 X-58.000 Y3.000 Z11.000 F400.000
G1 X-58.000 Y-3.000 Z11.000 F400.000
G1 X-52.000 Y-3.000 Z11.000 F400.000
G1 X-52.000 Y0.000 Z11.000 F400.000
G1 X-53.250 Y0.000 Z11.000 F200.000
G1 X-53.250 Y1.750 Z11.000 F400.000
G1 X-56.750 Y1.750 Z11.000 F400.000
G1 X-56.750 Y-1.750 Z11.000 F400.000
G1 X-53.250 Y-1.750 Z11.000 F400.000
G1 X-53.250 Y0.000 Z11.000 F400.000
G1 X-54.500 Y0.000 Z11.000 F200.000
G1 X-54.500 Y0.500 Z11.000 F400.000
G1 X-55.500 Y0.500 Z11.000 F400.000
G1 X-55.500 Y-0.500 Z11.000 F400.000
G1 X-54.500 Y-0.500 Z11.000 F400.000
G1 X-54.500 Y0.000 Z11.000 F400.000
G1 X-54.500 Y0.000 Z10.000 F200.000
G1 X-54.500 Y0.500 Z10.000 F400.000
G1 X-55.500 Y0.500 Z10.000 F400.000
G1 X-55.500 Y-0.500 Z10.000 F400.000
G1 X-54.500 Y-0.500 Z10.000 F400.000
G1 X-54.500 Y0.000 Z10.000 F400.000
G1 X-53.250 Y0.000 Z10.000 F200.000
G1 X-53.250 Y1.750 Z10.000 F400.000
G1 X-56.750 Y1.750 Z10.000 F400.000
G1 X-56.750 Y-1.750 Z10.000 F400.000
G1 X-53.250 Y-1.750 Z10.000 F400.000
G1 X-53.250 Y0.000 Z10.000 F400.000
G1 X-52.000 Y0.000 Z10.000 F200.000
G1 X-52.000 Y3.000 Z10.000 F400.000
G1 X-58.000 Y3.000 Z10.000 F400.000
G1 X-58.000 Y-3.000 Z10.000 F400.000
G1 X-52.000 Y-3.000 Z10.000 F400.000
G1 X-52.000 Y0.000 Z10.000 F400.000
G1 X-48.000 Y0.000 Z10.000 F200.000
G1 X-48.000 Y7.000 Z10.000 F400.000
G1 X-62.000 Y7.000 Z10.000 F400.000
G1 X-62.000 Y-7.000 Z10.000 F400.000
G1 X-48.000 Y-7.000 Z10.000 F400.000
G1 X-48.000 Y0.000 Z10.000 F400.000
G1 X-44.000 Y0.000 Z10.000 F200.000
G1 X-44.000 Y11.000 Z10.000 F400.000
G1 X-66.000 Y11.000 Z10.000 F400.000
G1 X-66.000 Y-11.000 Z10.000 F400.000
G1 X-44.000 Y-11.000 Z10.000 F400.000
G1 X-44.000 Y0.000 Z10.000 F400.000
G1 X-40.000 Y0.000 Z10.000 F200.000
G1 X-40.000 Y15.000 Z10.000 F400.000
G1 X-70.000 Y15.000 Z10.000 F400.000
G1 X-70.000 Y-15.000 Z10.000 F400.000
G1 X-40.000 Y-15.000 Z10.000 F400.000
G1 X-40.000 Y0.000 Z10.000 F400.000
G1 X-36.000 Y0.000 Z10.000 F200.000
G1 X-36.000 Y19.000 Z10.000 F400.000
G1 X-74.000 Y19.000 Z10.000 F400.000
G1 X-74.000 Y-19.000 Z10.000 F400.000
G1 X-36.000 Y-19.000 Z10.000 F400.000
G1 X-36.000 Y0.000 Z10.000 F400.000
G1 X-32.000 Y0.000 Z10.000 F200.000
G1 X-32.000 Y23.000 Z10.000 F400.000
G1 X-78.000 Y23.000 Z10.000 F400.000
G1 X-78.000 Y-23.000 Z10.000 F400.000
G1 X-32.000 Y-23.000 Z10.000 F400.000
G1 X-32.000 Y0.000 Z10.000 F400.000
G1 X-28.000 Y0.000 Z10.000 F200.000
G1 X-28.000 Y27.000 Z10.000 F400.000
G1 X-82.000 Y27.000 Z10.000 F400.000
G1 X-82.000 Y-27.000 Z10.000 F400.000
G1 X-28.000 Y-27.000 Z10.000 F400.000
G1 X-28.000 Y0.000 Z10.000 F400.000
G1 X-28.000 Y0.000 Z9.000 F200.000
G1 X-28.000 Y27.000 Z9.000 F400.000
G1 X-82.000 Y27.000 Z9.000 F400.000
G1 X-82.000 Y-27.000 Z9.000 F400.000
G1 X-28.000 Y-27.000 Z9.000 F400.000
G1 X-28.000 Y0.000 Z9.000 F400.000
G1 X-32.000 Y0.000 Z9.000 F200.000
G1 X-32.000 Y23.000 Z9.000 F400.000
G1 X-78.000 Y23.000 Z9.000 F400.000
G1 X-78.000 Y-23.000 Z9.000 F400.000
G1 X-32.000 Y-23.000 Z9.000 F400.000
G1 X-32.000 Y0.000 Z9.000 F400.000
G1 X-36.000 Y0.000 Z9.000 F200.000
G1 X-36.000 Y19.000 Z9.000 F400.000
G1 X-74.000 Y19.000 Z9.000 F400.000
G1 X-74.000 Y-19.000 Z9.000 F400.000
G1 X-36.000 Y-19.000 Z9.000 F400.000
G1 X-36.000 Y0.000 Z9.000 F400.000
G1 X-40.000 Y0.000 Z9.000 F200.000
G1 X-40.000 Y15.000 Z9.000 F400.000
G1 X-70.000 Y15.000 Z9.000 F400.000
G1 X-70.000 Y-15.000 Z9.000 F400.000
G1 X-40.000 Y-15.000 Z9.000 F400.000
G1 X-40.000 Y0.000 Z9.000 F400.000
G1 X-44.000 Y0.000 Z9.000 F200.000
G1 X-44.000 Y11.000 Z9.000 F400.000
G1 X-66.000 Y11.000 Z9.000 F400.000
G1 X-66.000 Y-11.000 Z9.000 F400.000
G1 X-44.000 Y-11.000 Z9.000 F400.000
G1 X-44.000 Y0.000 Z9.000 F400.000
G1 X-48.000 Y0.000 Z9.000 F200.000
G1 X-48.000 Y7.000 Z9.000 F400.000
G1 X-62.000 Y7.000 Z9.000 F400.000
G1 X-62.000 Y-7.000 Z9.000 F400.000
G1 X-48.000 Y-7.000 Z9.000 F400.000
G1 X-48.000 Y0.000 Z9.000 F400.000
G1 X-52.000 Y0.000 Z9.000 F200.000
G1 X-52.000 Y3.000 Z9.000 F400.000
G1 X-58.000 Y3.000 Z9.000 F400.000
G1 X-58.000 Y-3.000 Z9.000 F400.000
G1 X-52.000 Y-3.000 Z9.000 F400.000
G1 X-52.000 Y0.000 Z9.000 F400.000
G1 X-53.250 Y0.000 Z9.000 F200.000
G1 X-53.250 Y1.750 Z9.000 F400.000
G1 X-56.750 Y1.750 Z9.000 F400.000
G1 X-56.750 Y-1.750 Z9.000 F400.000
G1 X-53.250 Y-1.750 Z9.000 F400.000
G1 X-53.250 Y0.000 Z9.000 F400.000
G1 X-54.500 Y0.000 Z9.000 F200.000
G1 X-54.500 Y0.500 Z9.000 F400.000
G1 X-55.500 Y0.500 Z9.000 F400.000
G1 X-55.500 Y-0.500 Z9.000 F400.000
G1 X-54.500 Y-0.500 Z9.000 F400.000
G1 X-54.500 Y0.000 Z9.000 F400.000
G0 Z27.000
G0 Z27.000
G0 X-54.500
G0 X56.000 Y-19.000
G0 X56.000 Y-19.000 Z25.000
G1 X56.000 Y-19.000 Z21.000 F200.000
G1 X56.000 Y-57.000 Z21.000 F400.000
G1 X94.000 Y-57.000 Z21.000 F400.000
G1 X94.000 Y-19.000 Z21.000 F400.000
G1 X56.000 Y-19.000 Z21.000 F400.000
G1 X56.000 Y-19.000 Z20.000 F200.000
G1 X56.000 Y-57.000 Z20.000 F400.000
G1 X94.000 Y-57.000 Z20.000 F400.000
G1 X94.000 Y-19.000 Z20.000 F400.000
G1 X56.000 Y-19.000 Z20.000 F400.000
G1 X56.000 Y-19.000 Z19.000 F200.000
G1 X56.000 Y-57.000 Z19.000 F400.000
G1 X94.000 Y-57.000 Z19.000 F400.000
G1 X94.000 Y-19.000 Z19.000 F400.000
G1 X56.000 Y-19.000 Z19.000 F400.000
G1 X56.000 Y-19.000 Z18.000 F200.000
G1 X56.000 Y-57.000 Z18.000 F400.000
G1 X94.000 Y-57.000 Z18.000 F400.000
G1 X94.000 Y-19.000 Z18.000 F400.000
G1 X56.000 Y-19.000 Z18.000 F400.000
G1 X56.000 Y-19.000 Z17.000 F200.000
G1 X56.000 Y-57.000 Z17.000 F400.000
G1 X94.000 Y-57.000 Z17.000 F400.000
G1 X94.000 Y-19.000 Z17.000 F400.000
G1 X56.000 Y-19.000 Z17.000 F400.000
G1 X56.000 Y-19.000 Z16.000 F200.000
G1 X56.000 Y-57.000 Z16.000 F400.000
G1 X94.000 Y-57.000 Z16.000 F400.000
G1 X94.000 Y-19.000 Z16.000 F400.000
G1 X56.000 Y-19.000 Z16.000 F400.000
G1 X56.000 Y-19.000 Z15.000 F200.000
G1 X56.000 Y-57.000 Z15.000 F400.000
G1 X94.000 Y-57.000 Z15.000 F400.000
G1 X94.000 Y-19.000 Z15.000 F400.000
G1 X56.000 Y-19.000 Z15.000 F400.000
G1 X56.000 Y-19.000 Z14.000 F200.000
G1 X56.000 Y-57.000 Z14.000 F400.000
G1 X94.000 Y-57.000 Z14.000 F400.000
G1 X94.000 Y-19.000 Z14.000 F400.000
G1 X56.000 Y-19.000 Z14.000 F400.000
G1 X56.000 Y-19.000 Z13.000 F200.000
G1 X56.000 Y-57.000 Z13.000 F400.000
G1 X94.000 Y-57.000 Z13.000 F400.000
G1 X94.000 Y-19.000 Z13.000 F400.000
G1 X56.000 Y-19.000 Z13.000 F400.000
G1 X56.000 Y-19.000 Z12.000 F200.000
G1 X56.000 Y-57.000 Z12.000 F400.000
G1 X94.000 Y-57.000 Z12.000 F400.000
G1 X94.000 Y-19.000 Z12.000 F400.000
G1 X56.000 Y-19.000 Z12.000 F400.000
G1 X56.000 Y-19.000 Z11.000 F200.000
G1 X56.000 Y-57.000 Z11.000 F400.000
G1 X94.000 Y-57.000 Z11.000 F400.000
G1 X94.000 Y-19.000 Z11.000 F400.000
G1 X56.000 Y-19.000 Z11.000 F400.000
G1 X56.000 Y-19.000 Z10.000 F200.000
G1 X56.000 Y-57.000 Z10.000 F400.000
G1 X94.000 Y-57.000 Z10.000 F400.000
G1 X94.000 Y-19.000 Z10.000 F400.000
G1 X56.000 Y-19.000 Z10.000 F400.000
G1 X56.000 Y-19.000 Z9.000 F200.000
G1 X56.000 Y-57.000 Z9.000 F400.000
G1 X94.000 Y-57.000 Z9.000 F400.000
G1 X94.000 Y-19.000 Z9.000 F400.000
G1 X56.000 Y-19.000 Z9.000 F400.000
G0 Z27.000
G0 X60.000 Y-23.000 Z27.000
G0 X60.000 Y-23.000 Z25.000
G1 X60.000 Y-23.000 Z21.000 F200.000
G1 X60.000 Y-53.000 Z21.000 F400.000
G1 X90.000 Y-53.000 Z21.000 F400.000
G1 X90.000 Y-23.000 Z21.000 F400.000
G1 X60.000 Y-23.000 Z21.000 F400.000
G1 X60.000 Y-23.000 Z20.000 F200.000
G1 X60.000 Y-53.000 Z20.000 F400.000
G1 X90.000 Y-53.000 Z20.000 F400.000
G1 X90.000 Y-23.000 Z20.000 F400.000
G1 X60.000 Y-23.000 Z20.000 F400.000
G1 X60.000 Y-23.000 Z19.000 F200.000
G1 X60.000 Y-53.000 Z19.000 F400.000
G1 X90.000 Y-53.000 Z19.000 F400.000
G1 X90.000 Y-23.000 Z19.000 F400.000
G1 X60.000 Y-23.000 Z19.000 F400.000
G1 X60.000 Y-23.000 Z18.000 F200.000
G1 X60.000 Y-53.000 Z18.000 F400.000
G1 X90.000 Y-53.000 Z18.000 F400.000
G1 X90.000 Y-23.000 Z18.000 F400.000
G1 X60.000 Y-23.000 Z18.000 F400.000
G1 X60.000 Y-23.000 Z17.000 F200.000
G1 X60.000 Y-53.000 Z17.000 F400.000
G1 X90.000 Y-53.000 Z17.000 F400.000
G1 X90.000 Y-23.000 Z17.000 F400.000
G1 X60.000 Y-23.000 Z17.000 F400.000
G1 X60.000 Y-23.000 Z16.000 F200.000
G1 X60.000 Y-53.000 Z16.000 F400.000
G1 X90.000 Y-53.000 Z16.000 F400.000
G1 X90.000 Y-23.000 Z16.000 F400.000
G1 X60.000 Y-23.000 Z16.000 F400.000
G1 X60.000 Y-23.000 Z15.000 F200.000
G1 X60.000 Y-53.000 Z15.000 F400.000
G1 X90.000 Y-53.000 Z15.000 F400.000
G1 X90.000 Y-23.000 Z15.000 F400.000
G1 X60.000 Y-23.000 Z15.000 F400.000
G1 X60.000 Y-23.000 Z14.000 F200.000
G1 X60.000 Y-53.000 Z14.000 F400.000
G1 X90.000 Y-53.000 Z14.000 F400.000
G1 X90.000 Y-23.000 Z14.000 F400.000
G1 X60.000 Y-23.000 Z14.000 F400.000
G1 X60.000 Y-23.000 Z13.000 F200.000
G1 X60.000 Y-53.000 Z13.000 F400.000
G1 X90.000 Y-53.000 Z13.000 F400.000
G1 X90.000 Y-23.000 Z13.000 F400.000
G1 X60.000 Y-23.000 Z13.000 F400.000
G1 X60.000 Y-23.000 Z12.000 F200.000
G1 X60.000 Y-53.000 Z12.000 F400.000
G1 X90.000 Y-53.000 Z12.000 F400.000
G1 X90.000 Y-23.000 Z12.000 F400.000
G1 X60.000 Y-23.000 Z12.000 F400.000
G1 X60.000 Y-23.000 Z11.000 F200.000
G1 X60.000 Y-53.000 Z11.000 F400.000
G1 X90.000 Y-53.000 Z11.000 F400.000
G1 X90.000 Y-23.000 Z11.000 F400.000
G1 X60.000 Y-23.000 Z11.000 F400.000
G1 X60.000 Y-23.000 Z10.000 F200.000
G1 X60.000 Y-53.000 Z10.000 F400.000
G1 X90.000 Y-53.000 Z10.000 F400.000
G1 X90.000 Y-23.000 Z10.000 F400.000
G1 X60.000 Y-23.000 Z10.000 F400.000
G1 X60.000 Y-23.000 Z9.000 F200.000
G1 X60.000 Y-53.000 Z9.000 F400.000
G1 X90.000 Y-53.000 Z9.000 F400.000
G1 X90.000 Y-23.000 Z9.000 F400.000
G1 X60.000 Y-23.000 Z9.000 F400.000
G0 Z27.000
G0 X64.000 Y-27.000 Z27.000
G0 X64.000 Y-27.000 Z25.000
G1 X64.000 Y-27.000 Z21.000 F200.000
G1 X64.000 Y-49.000 Z21.000 F400.000
G1 X86.000 Y-49.000 Z21.000 F400.000
G1 X86.000 Y-27.000 Z21.000 F400.000
G1 X64.000 Y-27.000 Z21.000 F400.000
G1 X64.000 Y-27.000 Z20.000 F200.000
G1 X64.000 Y-49.000 Z20.000 F400.000
G1 X86.000 Y-49.000 Z20.000 F400.000
G1 X86.000 Y-27.000 Z20.000 F400.000
G1 X64.000 Y-27.000 Z20.000 F400.000
G1 X64.000 Y-27.000 Z19.000 F200.000
G1 X64.000 Y-49.000 Z19.000 F400.000
G1 X86.000 Y-49.000 Z19.000 F400.000
G1 X86.000 Y-27.000 Z19.000 F400.000
G1 X64.000 Y-27.000 Z19.000 F400.000
G1 X64.000 Y-27.000 Z18.000 F200.000
G1 X64.000 Y-49.000 Z18.000 F400.000
G1 X86.000 Y-49.000 Z18.000 F400.000
G1 X86.000 Y-27.000 Z18.000 F400.000
G1 X64.000 Y-27.000 Z18.000 F400.000
G1 X64.000 Y-27.000 Z17.000 F200.000
G1 X64.000 Y-49.000 Z17.000 F400.000
G1 X86.000 Y-49.000 Z17.000 F400.000
G1 X86.000 Y-27.000 Z17.000 F400.000
G1 X64.000 Y-27.000 Z17.000 F400.000
G1 X64.000 Y-27.000 Z16.000 F200.000
G1 X64.000 Y-49.000 Z16.000 F400.000
G1 X86.000 Y-49.000 Z16.000 F400.000
G1 X86.000 Y-27.000 Z16.000 F400.000
G1 X64.000 Y-27.000 Z16.000 F400.000
G1 X64.000 Y-27.000 Z15.000 F200.000
G1 X64.000 Y-49.000 Z15.000 F400.000
G1 X86.000 Y-49.000 Z15.000 F400.000
G1 X86.000 Y-27.000 Z15.000 F400.000
G1 X64.000 Y-27.000 Z15.000 F400.000
G1 X64.000 Y-27.000 Z14.000 F200.000
G1 X64.000 Y-49.000 Z14.000 F400.000
G1 X86.000 Y-49.000 Z14.000 F400.000
G1 X86.000 Y-27.000 Z14.000 F400.000
G1 X64.000 Y-27.000 Z14.000 F400.000
G1 X64.000 Y-27.000 Z13.000 F200.000
G1 X64.000 Y-49.000 Z13.000 F400.000
G1 X86.000 Y-49.000 Z13.000 F400.000
G1 X86.000 Y-27.000 Z13.000 F400.000
G1 X64.000 Y-27.000 Z13.000 F400.000
G1 X64.000 Y-27.000 Z12.000 F200.000
G1 X64.000 Y-49.000 Z12.000 F400.000
G1 X86.000 Y-49.000 Z12.000 F400.000
G1 X86.000 Y-27.000 Z12.000 F400.000
G1 X64.000 Y-27.000 Z12.000 F400.000
G1 X64.000 Y-27.000 Z11.000 F200.000
G1 X64.000 Y-49.000 Z11.000 F400.000
G1 X86.000 Y-49.000 Z11.000 F400.000
G1 X86.000 Y-27.000 Z11.000 F400.000
G1 X64.000 Y-27.000 Z11.000 F400.000
G1 X64.000 Y-27.000 Z10.000 F200.000
G1 X64.000 Y-49.000 Z10.000 F400.000
G1 X86.000 Y-49.000 Z10.000 F400.000
G1 X86.000 Y-27.000 Z10.000 F400.000
G1 X64.000 Y-27.000 Z10.000 F400.000
G1 X64.000 Y-27.000 Z9.000 F200.000
G1 X64.000 Y-49.000 Z9.000 F400.000
G1 X86.000 Y-49.000 Z9.000 F400.000
G1 X86.000 Y-27.000 Z9.000 F400.000
G1 X64.000 Y-27.000 Z9.000 F400.000
G0 Z27.000
G0 X68.000 Y-31.000 Z27.000
G0 X68.000 Y-31.000 Z25.000
G1 X68.000 Y-31.000 Z21.000 F200.000
G1 X68.000 Y-45.000 Z21.000 F400.000
G1 X82.000 Y-45.000 Z21.000 F400.000
G1 X82.000 Y-31.000 Z21.000 F400.000
G1 X68.000 Y-31.000 Z21.000 F400.000
G1 X68.000 Y-31.000 Z20.000 F200.000
G1 X68.000 Y-45.000 Z20.000 F400.000
G1 X82.000 Y-45.000 Z20.000 F400.000
G1 X82.000 Y-31.000 Z20.000 F400.000
G1 X68.000 Y-31.000 Z20.000 F400.000
G1 X68.000 Y-31.000 Z19.000 F200.000
G1 X68.000 Y-45.000 Z19.000 F400.000
G1 X82.000 Y-45.000 Z19.000 F400.000
G1 X82.000 Y-31.000 Z19.000 F400.000
G1 X68.000 Y-31.000 Z19.000 F400.000
G1 X68.000 Y-31.000 Z18.000 F200.000
G1 X68.000 Y-45.000 Z18.000 F400.000
G1 X82.000 Y-45.000 Z18.000 F400.000
G1 X82.000 Y-31.000 Z18.000 F400.000
G1 X68.000 Y-31.000 Z18.000 F400.000
G1 X68.000 Y-31.000 Z17.000 F200.000
G1 X68.000 Y-45.000 Z17.000 F400.000
G1 X82.000 Y-45.000 Z17.000 F400.000
G1 X82.000 Y-31.000 Z17.000 F400.000
G1 X68.000 Y-31.000 Z17.000 F400.000
G1 X68.000 Y-31.000 Z16.000 F200.000
G1 X68.000 Y-45.000 Z16.000 F400.000
G1 X82.000 Y-45.000 Z16.000 F400.000
G1 X82.000 Y-31.000 Z16.000 F400.000
G1 X68.000 Y-31.000 Z16.000 F400.000
G1 X68.000 Y-31.000 Z15.000 F200.000
G1 X68.000 Y-45.000 Z15.000 F400.000
G1 X82.000 Y-45.000 Z15.000 F400.000
G1 X82.000 Y-31.000 Z15.000 F400.000
G1 X68.000 Y-31.000 Z15.000 F400.000
G1 X68.000 Y-31.000 Z14.000 F200.000
G1 X68.000 Y-45.000 Z14.000 F400.000
G1 X82.000 Y-45.000 Z14.000 F400.000
G1 X82.000 Y-31.000 Z14.000 F400.000
G1 X68.000 Y-31.000 Z14.000 F400.000
G1 X68.000 Y-31.000 Z13.000 F200.000
G1 X68.000 Y-45.000 Z13.000 F400.000
G1 X82.000 Y-45.000 Z13.000 F400.000
G1 X82.000 Y-31.000 Z13.000 F400.000
G1 X68.000 Y-31.000 Z13.000 F400.000
G1 X68.000 Y-31.000 Z12.000 F200.000
G1 X68.000 Y-45.000 Z12.000 F400.000
G1 X82.000 Y-45.000 Z12.000 F400.000
G1 X82.000 Y-31.000 Z12.000 F400.000
G1 X68.000 Y-31.000 Z12.000 F400.000
G1 X68.000 Y-31.000 Z11.000 F200.000
G1 X68.000 Y-45.000 Z11.000 F400.000
G1 X82.000 Y-45.000 Z11.000 F400.000
G1 X82.000 Y-31.000 Z11.000 F400.000
G1 X68.000 Y-31.000 Z11.000 F400.000
G1 X68.000 Y-31.000 Z10.000 F200.000
G1 X68.000 Y-45.000 Z10.000 F400.000
G1 X82.000 Y-45.000 Z10.000 F400.000
G1 X82.000 Y-31.000 Z10.000 F400.000
G1 X68.000 Y-31.000 Z10.000 F400.000
G1 X68.000 Y-31.000 Z9.000 F200.000
G1 X68.000 Y-45.000 Z9.000 F400.000
G1 X82.000 Y-45.000 Z9.000 F400.000
G1 X82.000 Y-31.000 Z9.000 F400.000
G1 X68.000 Y-31.000 Z9.000 F400.000
G0 Z27.000
G0 X72.000 Y-35.000 Z27.000
G0 X72.000 Y-35.000 Z25.000
G1 X72.000 Y-35.000 Z21.000 F200.000
G1 X72.000 Y-41.000 Z21.000 F400.000
G1 X78.000 Y-41.000 Z21.000 F400.000
G1 X78.000 Y-35.000 Z21.000 F400.000
G1 X72.000 Y-35.000 Z21.000 F400.000
G1 X73.250 Y-36.250 Z21.000 F200.000
G1 X73.250 Y-39.750 Z21.000 F400.000
G1 X76.750 Y-39.750 Z21.000 F400.000
G1 X76.750 Y-36.250 Z21.000 F400.000
G1 X73.250 Y-36.250 Z21.000 F400.000
G1 X74.500 Y-37.500 Z21.000 F200.000
G1 X74.500 Y-38.500 Z21.000 F400.000
G1 X75.500 Y-38.500 Z21.000 F400.000
G1 X75.500 Y-37.500 Z21.000 F400.000
G1 X74.500 Y-37.500 Z21.000 F400.000
G1 X74.500 Y-37.500 Z20.000 F200.000
G1 X74.500 Y-38.500 Z20.000 F400.000
G1 X75.500 Y-38.500 Z20.000 F400.000
G1 X75.500 Y-37.500 Z20.000 F400.000
G1 X74.500 Y-37.500 Z20.000 F400.000
G1 X74.500 Y-36.250 Z20.000 F200.000
G1 X73.250 Y-36.250 Z20.000 F400.000
G1 X73.250 Y-39.750 Z20.000 F400.000
G1 X76.750 Y-39.750 Z20.000 F400.000
G1 X76.750 Y-36.250 Z20.000 F400.000
G1 X74.500 Y-36.250 Z20.000 F400.000
G1 X74.500 Y-35.000 Z20.000 F200.000
G1 X72.000 Y-35.000 Z20.000 F400.000
G1 X72.000 Y-41.000 Z20.000 F400.000
G1 X78.000 Y-41.000 Z20.000 F400.000
G1 X78.000 Y-35.000 Z20.000 F400.000
G1 X74.500 Y-35.000 Z20.000 F400.000
G1 X74.500 Y-35.000 Z19.000 F200.000
G1 X72.000 Y-35.000 Z19.000 F400.000
G1 X72.000 Y-41.000 Z19.000 F400.000
G1 X78.000 Y-41.000 Z19.000 F400.000
G1 X78.000 Y-35.000 Z19.000 F400.000
G1 X74.500 Y-35.000 Z19.000 F400.000
G1 X74.500 Y-36.250 Z19.000 F200.000
G1 X73.250 Y-36.250 Z19.000 F400.000
G1 X73.250 Y-39.750 Z19.000 F400.000
G1 X76.750 Y-39.750 Z19.000 F400.000
G1 X76.750 Y-36.250 Z19.000 F400.000
G1 X74.500 Y-36.250 Z19.000 F400.000
G1 X74.500 Y-37.500 Z19.000 F200.000
G1 X74.500 Y-38.500 Z19.000 F400.000
G1 X75.500 Y-38.500 Z19.000 F400.000
G1 X75.500 Y-37.500 Z19.000 F400.000
G1 X74.500 Y-37.500 Z19.000 F400.000
G1 X74.500 Y-37.500 Z18.000 F200.000
G1 X74.500 Y-38.500 Z18.000 F400.000
G1 X75.500 Y-38.500 Z18.000 F400.000
G1 X75.500 Y-37.500 Z18.000 F400.000
G1 X74.500 Y-37.500 Z18.000 F400.000
G1 X74.500 Y-36.250 Z18.000 F200.000
G1 X73.250 Y-36.250 Z18.000 F400.000
G1 X73.250 Y-39.750 Z18.000 F400.000
G1 X76.750 Y-39.750 Z18.000 F400.000
G1 X76.750 Y-36.250 Z18.000 F400.000
G1 X74.500 Y-36.250 Z18.000 F400.000
G1 X74.500 Y-35.000 Z18.000 F200.000
G1 X72.000 Y-35.000 Z18.000 F400.000
G1 X72.000 Y-41.000 Z18.000 F400.000
G1 X78.000 Y-41.000 Z18.000 F400.000
G1 X78.000 Y-35.000 Z18.000 F400.000
G1 X74.500 Y-35.000 Z18.000 F400.000
G1 X74.500 Y-35.000 Z17.000 F200.000
G1 X72.000 Y-35.000 Z17.000 F400.000
G1 X72.000 Y-41.000 Z17.000 F400.000
G1 X78.000 Y-41.000 Z17.000 F400.000
G1 X78.000 Y-35.000 Z17.000 F400.000
G1 X74.500 Y-35.000 Z17.000 F400.000
G1 X74.500 Y-36.250 Z17.000 F200.000
G1 X73.250 Y-36.250 Z17.000 F400.000
G1 X73.250 Y-39.750 Z17.000 F400.000
G1 X76.750 Y-39.750 Z17.000 F400.000
G1 X76.750 Y-36.250 Z17.000 F400.000
G1 X74.500 Y-36.250 Z17.000 F400.000
G1 X74.500 Y-37.500 Z17.000 F200.000
G1 X74.500 Y-38.500 Z17.000 F400.000
G1 X75.500 Y-38.500 Z17.000 F400.000
G1 X75.500 Y-37.500 Z17.000 F400.000
G1 X74.500 Y-37.500 Z17.000 F400.000
G1 X74.500 Y-37.500 Z16.000 F200.000
G1 X74.500 Y-38.500 Z16.000 F400.000
G1 X75.500 Y-38.500 Z16.000 F400.000
G1 X75.500 Y-37.500 Z16.000 F400.000
G1 X74.500 Y-37.500 Z16.000 F400.000
G1 X74.500 Y-36.250 Z16.000 F200.000
G1 X73.250 Y-36.250 Z16.000 F400.000
G1 X73.250 Y-39.750 Z16.000 F400.000
G1 X76.750 Y-39.750 Z16.000 F400.000
G1 X76.750 Y-36.250 Z16.000 F400.000
G1 X74.500 Y-36.250 Z16.000 F400.000
G1 X74.500 Y-35.000 Z16.000 F200.000
G1 X72.000 Y-35.000 Z16.000 F400.000
G1 X72.000 Y-41.000 Z16.000 F400.000
G1 X78.000 Y-41.000 Z16.000 F400.000
G1 X78.000 Y-35.000 Z16.000 F400.000
G1 X74.500 Y-35.000 Z16.000 F400.000
G1 X74.500 Y-35.000 Z15.000 F200.000
G1 X72.000 Y-35.000 Z15.000 F400.000
G1 X72.000 Y-41.000 Z15.000 F400.000
G1 X78.000 Y-41.000 Z15.000 F400.000
G1 X78.000 Y-35.000 Z15.000 F400.000
G1 X74.500 Y-35.000 Z15.000 F400.000
G1 X74.500 Y-36.250 Z15.000 F200.000
G1 X73.250 Y-36.250 Z15.000 F400.000
G1 X73.250 Y-39.750 Z15.000 F400.000
G1 X76.750 Y-39.750 Z15.000 F400.000
G1 X76.750 Y-36.250 Z15.000 F400.000
G1 X74.500 Y-36.250 Z15.000 F400.000
G1 X74.500 Y-37.500 Z15.000 F200.000
G1 X74.500 Y-38.500 Z15.000 F400.000
G1 X75.500 Y-38.500 Z15.000 F400.000
G1 X75.500 Y-37.500 Z15.000 F400.000
G1 X74.500 Y-37.500 Z15.000 F400.000
G1 X74.500 Y-37.500 Z14.000 F200.000
G1 X74.500 Y-38.500 Z14.000 F400.000
G1 X75.500 Y-38.500 Z14.000 F400.000
G1 X75.500 Y-37.500 Z14.000 F400.000
G1 X74.500 Y-37.500 Z14.000 F400.000
G1 X74.500 Y-36.250 Z14.000 F200.000
G1 X73.250 Y-36.250 Z14.000 F400.000
G1 X73.250 Y-39.750 Z14.000 F400.000
G1 X76.750 Y-39.750 Z14.000 F400.000
G1 X76.750 Y-36.250 Z14.000 F400.000
G1 X74.500 Y-36.250 Z14.000 F400.000
G1 X74.500 Y-35.000 Z14.000 F200.000
G1 X72.000 Y-35.000 Z14.000 F400.000
G1 X72.000 Y-41.000 Z14.000 F400.000
G1 X78.000 Y-41.000 Z14.000 F400.000
G1 X78.000 Y-35.000 Z14.000 F400.000
G1 X74.500 Y-35.000 Z14.000 F400.000
G1 X74.500 Y-35.000 Z13.000 F200.000
G1 X72.000 Y-35.000 Z13.000 F400.000
G1 X72.000 Y-41.000 Z13.000 F400.000
G1 X78.000 Y-41.000 Z13.000 F400.000
G1 X78.000 Y-35.000 Z13.000 F400.000
G1 X74.500 Y-35.000 Z13.000 F400.000
G1 X74.500 Y-36.250 Z13.000 F200.000
G1 X73.250 Y-36.250 Z13.000 F400.000
G1 X73.250 Y-39.750 Z13.000 F400.000
G1 X76.750 Y-39.750 Z13.000 F400.000
G1 X76.750 Y-36.250 Z13.000 F400.000
G1 X74.500 Y-36.250 Z13.000 F400.000
G1 X74.500 Y-37.500 Z13.000 F200.000
G1 X74.500 Y-38.500 Z13.000 F400.000
G1 X75.500 Y-38.500 Z13.000 F400.000
G1 X75.500 Y-37.500 Z13.000 F400.000
G1 X74.500 Y-37.500 Z13.000 F400.000
G1 X74.500 Y-37.500 Z12.000 F200.000
G1 X74.500 Y-38.500 Z12.000 F400.000
G1 X75.500 Y-38.500 Z12.000 F400.000
G1 X75.500 Y-37.500 Z12.000 F400.000
G1 X74.500 Y-37.500 Z12.000 F400.000
G1 X74.500 Y-36.250 Z12.000 F200.000
G1 X73.250 Y-36.250 Z12.000 F400.000
G1 X73.250 Y-39.750 Z12.000 F400.000
G1 X76.750 Y-39.750 Z12.000 F400.000
G1 X76.750 Y-36.250 Z12.000 F400.000
G1 X74.500 Y-36.250 Z12.000 F400.000
G1 X74.500 Y-35.000 Z12.000 F200.000
G1 X72.000 Y-35.000 Z12.000 F400.000
G1 X72.000 Y-41.000 Z12.000 F400.000
G1 X78.000 Y-41.000 Z12.000 F400.000
G1 X78.000 Y-35.000 Z12.000 F400.000
G1 X74.500 Y-35.000 Z12.000 F400.000
G1 X74.500 Y-35.000 Z11.000 F200.000
G1 X72.000 Y-35.000 Z11.000 F400.000
G1 X72.000 Y-41.000 Z11.000 F400.000
G1 X78.000 Y-41.000 Z11.000 F400.000
G1 X78.000 Y-35.000 Z11.000 F400.000
G1 X74.500 Y-35.000 Z11.000 F400.000
G1 X74.500 Y-36.250 Z11.000 F200.000
G1 X73.250 Y-36.250 Z11.000 F400.000
G1 X73.250 Y-39.750 Z11.000 F400.000
G1 X76.750 Y-39.750 Z11.000 F400.000
G1 X76.750 Y-36.250 Z11.000 F400.000
G1 X74.500 Y-36.250 Z11.000 F400.000
G1 X74.500 Y-37.500 Z11.000 F200.000
G1 X74.500 Y-38.500 Z11.000 F400.000
G1 X75.500 Y-38.500 Z11.000 F400.000
G1 X75.500 Y-37.500 Z11.000 F400.000
G1 X74.500 Y-37.500 Z11.000 F400.000
G1 X74.500 Y-37.500 Z10.000 F200.000
G1 X74.500 Y-38.500 Z10.000 F400.000
G1 X75.500 Y-38.500 Z10.000 F400.000
G1 X75.500 Y-37.500 Z10.000 F400.000
G1 X74.500 Y-37.500 Z10.000 F400.000
G1 X74.500 Y-36.250 Z10.000 F200.000
G1 X73.250 Y-36.250 Z10.000 F400.000
G1 X73.250 Y-39.750 Z10.000 F400.000
G1 X76.750 Y-39.750 Z10.000 F400.000
G1 X76.750 Y-36.250 Z10.000 F400.000
G1 X74.500 Y-36.250 Z10.000 F400.000
G1 X74.500 Y-35.000 Z10.000 F200.000
G1 X72.000 Y-35.000 Z10.000 F400.000
G1 X72.000 Y-41.000 Z10.000 F400.000
G1 X78.000 Y-41.000 Z10.000 F400.000
G1 X78.000 Y-35.000 Z10.000 F400.000
G1 X74.500 Y-35.000 Z10.000 F400.000
G1 X74.500 Y-35.000 Z9.000 F200.000
G1 X72.000 Y-35.000 Z9.000 F400.000
G1 X72.000 Y-41.000 Z9.000 F400.000
G1 X78.000 Y-41.000 Z9.000 F400.000
G1 X78.000 Y-35.000 Z9.000 F400.000
G1 X74.500 Y-35.000 Z9.000 F400.000
G1 X74.500 Y-36.250 Z9.000 F200.000
G1 X73.250 Y-36.250 Z9.000 F400.000
G1 X73.250 Y-39.750 Z9.000 F400.000
G1 X76.750 Y-39.750 Z9.000 F400.000
G1 X76.750 Y-36.250 Z9.000 F400.000
G1 X74.500 Y-36.250 Z9.000 F400.000
G1 X74.500 Y-37.500 Z9.000 F200.000
G1 X74.500 Y-38.500 Z9.000 F400.000
G1 X75.500 Y-38.500 Z9.000 F400.000
G1 X75.500 Y-37.500 Z9.000 F400.000
G1 X74.500 Y-37.500 Z9.000 F400.000
G0 Z27.000
G0 Z27.000
(Finish operation: Pocket_Shape)
(Begin operation: Pocket_Shape001)
(Path: Pocket_Shape001)
(Pocket_Shape001)
G0 Z27.000
G0 X0.000 Y0.000
G0 X-38.001
G0 X-38.001 Z25.000
G1 X-38.001 Y0.000 Z8.000 F200.000
G3 X-57.131 Y16.865 Z8.000 I-16.999 J-0.000 K0.000 F400.000
G3 X-71.865 Y-2.131 Z8.000 I2.131 J-16.865 K0.000 F400.000
G3 X-52.869 Y-16.865 Z8.000 I16.865 J2.131 K0.000 F400.000
G3 X-38.001 Y0.000 Z8.000 I-2.131 J16.865 K0.000 F400.000
G1 X-42.003 Y0.000 Z8.000 F200.000
G3 X-56.629 Y12.894 Z8.000 I-12.997 J-0.000 K0.000 F400.000
G3 X-67.894 Y-1.629 Z8.000 I1.629 J-12.894 K0.000 F400.000
G3 X-53.371 Y-12.894 Z8.000 I12.894 J1.629 K0.000 F400.000
G3 X-42.003 Y0.000 Z8.000 I-1.629 J12.894 K0.000 F400.000
G1 X-46.005 Y0.000 Z8.000 F200.000
G3 X-56.127 Y8.924 Z8.000 I-8.995 J-0.000 K0.000 F400.000
G3 X-53.873 Y-8.924 Z8.000 I1.127 J-8.924 K0.000 F400.000
G3 X-46.005 Y0.000 Z8.000 I-1.127 J8.924 K0.000 F400.000
G1 X-50.007 Y0.000 Z8.000 F200.000
G3 X-55.626 Y4.953 Z8.000 I-4.993 J-0.000 K0.000 F400.000
G3 X-54.374 Y-4.953 Z8.000 I0.626 J-4.953 K0.000 F400.000
G3 X-50.007 Y0.000 Z8.000 I-0.626 J4.953 K0.000 F400.000
G1 X-54.009 Y0.000 Z8.000 F200.000
G3 X-55.124 Y0.983 Z8.000 I-0.991 J-0.000 K0.000 F400.000
G3 X-54.876 Y-0.983 Z8.000 I0.124 J-0.983 K0.000 F400.000
G3 X-54.009 Y0.000 Z8.000 I-0.124 J0.983 K0.000 F400.000
G1 X-54.009 Y0.000 Z7.000 F200.000
G3 X-55.124 Y0.983 Z7.000 I-0.991 J-0.000 K0.000 F400.000
G3 X-54.876 Y-0.983 Z7.000 I0.124 J-0.983 K0.000 F400.000
G3 X-54.009 Y0.000 Z7.000 I-0.124 J0.983 K0.000 F400.000
G1 X-50.007 Y0.000 Z7.000 F200.000
G3 X-55.626 Y4.953 Z7.000 I-4.993 J-0.000 K0.000 F400.000
G3 X-54.374 Y-4.953 Z7.000 I0.626 J-4.953 K0.000 F400.000
G3 X-50.007 Y0.000 Z7.000 I-0.626 J4.953 K0.000 F400.000
G1 X-46.005 Y0.000 Z7.000 F200.000
G3 X-56.127 Y8.924 Z7.000 I-8.995 J-0.000 K0.000 F400.000
G3 X-53.873 Y-8.924 Z7.000 I1.127 J-8.924 K0.000 F400.000
G3 X-46.005 Y0.000 Z7.000 I-1.127 J8.924 K0.000 F400.000
G1 X-42.003 Y0.000 Z7.000 F200.000
G3 X-56.629 Y12.894 Z7.000 I-12.997 J-0.000 K0.000 F400.000
G3 X-67.894 Y-1.629 Z7.000 I1.629 J-12.894 K0.000 F400.000
G3 X-53.371 Y-12.894 Z7.000 I12.894 J1.629 K0.000 F400.000
G3 X-42.003 Y0.000 Z7.000 I-1.629 J12.894 K0.000 F400.000
G1 X-38.001 Y0.000 Z7.000 F200.000
G3 X-57.131 Y16.865 Z7.000 I-16.999 J-0.000 K0.000 F400.000
G3 X-71.865 Y-2.131 Z7.000 I2.131 J-16.865 K0.000 F400.000
G3 X-52.869 Y-16.865 Z7.000 I16.865 J2.131 K0.000 F400.000
G3 X-38.001 Y0.000 Z7.000 I-2.131 J16.865 K0.000 F400.000
G0 Z27.000
G0 Z27.000
G0 X-38.001
G0 X66.471 Y-35.132
G0 X66.471 Y-35.132 Z25.000
G1 X66.471 Y-35.132 Z8.000 F200.000
G3 X76.481 Y-46.875 Z8.000 I8.529 J-2.868 K0.000 F400.000
G3 X73.519 Y-29.125 Z8.000 I-1.481 J8.875 K0.000 F400.000
G3 X66.471 Y-35.132 Z8.000 I1.481 J-8.875 K0.000 F400.000
G1 X70.266 Y-36.408 Z8.000 F200.000
G3 X75.822 Y-42.926 Z8.000 I4.734 J-1.592 K0.000 F400.000
G3 X74.178 Y-33.074 Z8.000 I-0.822 J4.926 K0.000 F400.000
G3 X70.266 Y-36.408 Z8.000 I0.822 J-4.926 K0.000 F400.000
G1 X74.061 Y-37.684 Z8.000 F200.000
G3 X75.163 Y-38.978 Z8.000 I0.939 J-0.316 K0.000 F400.000
G3 X74.837 Y-37.022 Z8.000 I-0.163 J0.978 K0.000 F400.000
G3 X74.061 Y-37.684 Z8.000 I0.163 J-0.978 K0.000 F400.000
G1 X74.061 Y-37.684 Z7.000 F200.000
G3 X75.163 Y-38.978 Z7.000 I0.939 J-0.316 K0.000 F400.000
G3 X74.837 Y-37.022 Z7.000 I-0.163 J0.978 K0.000 F400.000
G3 X74.061 Y-37.684 Z7.000 I0.163 J-0.978 K0.000 F400.000
G1 X70.266 Y-36.408 Z7.000 F200.000
G3 X75.822 Y-42.926 Z7.000 I4.734 J-1.592 K0.000 F400.000
G3 X74.178 Y-33.074 Z7.000 I-0.822 J4.926 K0.000 F400.000
G3 X70.266 Y-36.408 Z7.000 I0.822 J-4.926 K0.000 F400.000
G1 X66.471 Y-35.132 Z7.000 F200.000
G3 X76.481 Y-46.875 Z7.000 I8.529 J-2.868 K0.000 F400.000
G3 X73.519 Y-29.125 Z7.000 I-1.481 J8.875 K0.000 F400.000
G3 X66.471 Y-35.132 Z7.000 I1.481 J-8.875 K0.000 F400.000
G0 Z27.000
G0 Z27.000
(Finish operation: Pocket_Shape001)
(Begin operation: Drilling)
(Path: Drilling)
(Drilling)
(Begin Drilling)
G0 Z27.000
G90
( G98 )
G0 X-31.430 Y-23.570
(G83 X-31.430 Y-23.570 Z0.000 F200.000 Q3.750 R25.000)
G0 X-31.430 Y-23.570
G0 Z25.000 F200.00
G1 Z21.250 F200.00
G0 Z25.000
G0 Z21.438
G1 Z17.500 F200.00
G0 Z25.000
G0 Z17.688
G1 Z13.750 F200.00
G0 Z25.000
G0 Z13.938
G1 Z10.000 F200.00
G0 Z25.000
G0 Z10.188
G1 Z6.250 F200.00
G0 Z25.000
G0 Z6.438
G1 Z2.500 F200.00
G0 Z25.000
G0 Z2.688
G1 Z0.000 F200.00
G0 Z27.000
G0 X-31.430 Y23.570
(G83 X-31.430 Y23.570 Z0.000 F200.000 Q3.750 R25.000)
G0 X-31.430 Y23.570
G0 Z25.000 F200.00
G1 Z21.250 F200.00
G0 Z25.000
G0 Z21.438
G1 Z17.500 F200.00
G0 Z25.000
G0 Z17.688
G1 Z13.750 F200.00
G0 Z25.000
G0 Z13.938
G1 Z10.000 F200.00
G0 Z25.000
G0 Z10.188
G1 Z6.250 F200.00
G0 Z25.000
G0 Z6.438
G1 Z2.500 F200.00
G0 Z25.000
G0 Z2.688
G1 Z0.000 F200.00
G0 Z27.000
G0 X-78.570 Y23.570
(G83 X-78.570 Y23.570 Z0.000 F200.000 Q3.750 R25.000)
G0 X-78.570 Y23.570
G0 Z25.000 F200.00
G1 Z21.250 F200.00
G0 Z25.000
G0 Z21.438
G1 Z17.500 F200.00
G0 Z25.000
G0 Z17.688
G1 Z13.750 F200.00
G0 Z25.000
G0 Z13.938
G1 Z10.000 F200.00
G0 Z25.000
G0 Z10.188
G1 Z6.250 F200.00
G0 Z25.000
G0 Z6.438
G1 Z2.500 F200.00
G0 Z25.000
G0 Z2.688
G1 Z0.000 F200.00
G0 Z27.000
G0 X-78.570 Y-23.570
(G83 X-78.570 Y-23.570 Z0.000 F200.000 Q3.750 R25.000)
G0 X-78.570 Y-23.570
G0 Z25.000 F200.00
G1 Z21.250 F200.00
G0 Z25.000
G0 Z21.438
G1 Z17.500 F200.00
G0 Z25.000
G0 Z17.688
G1 Z13.750 F200.00
G0 Z25.000
G0 Z13.938
G1 Z10.000 F200.00
G0 Z25.000
G0 Z10.188
G1 Z6.250 F200.00
G0 Z25.000
G0 Z6.438
G1 Z2.500 F200.00
G0 Z25.000
G0 Z2.688
G1 Z0.000 F200.00
G0 Z27.000
G0 X59.500 Y-22.500
(G83 X59.500 Y-22.500 Z0.000 F200.000 Q3.750 R25.000)
G0 X59.500 Y-22.500
G0 Z25.000 F200.00
G1 Z21.250 F200.00
G0 Z25.000
G0 Z21.438
G1 Z17.500 F200.00
G0 Z25.000
G0 Z17.688
G1 Z13.750 F200.00
G0 Z25.000
G0 Z13.938
G1 Z10.000 F200.00
G0 Z25.000
G0 Z10.188
G1 Z6.250 F200.00
G0 Z25.000
G0 Z6.438
G1 Z2.500 F200.00
G0 Z25.000
G0 Z2.688
G1 Z0.000 F200.00
G0 Z27.000
G0 X59.500 Y-53.500
(G83 X59.500 Y-53.500 Z0.000 F200.000 Q3.750 R25.000)
G0 X59.500 Y-53.500
G0 Z25.000 F200.00
G1 Z21.250 F200.00
G0 Z25.000
G0 Z21.438
G1 Z17.500 F200.00
G0 Z25.000
G0 Z17.688
G1 Z13.750 F200.00
G0 Z25.000
G0 Z13.938
G1 Z10.000 F200.00
G0 Z25.000
G0 Z10.188
G1 Z6.250 F200.00
G0 Z25.000
G0 Z6.438
G1 Z2.500 F200.00
G0 Z25.000
G0 Z2.688
G1 Z0.000 F200.00
G0 Z27.000
G0 X90.500 Y-53.500
(G83 X90.500 Y-53.500 Z0.000 F200.000 Q3.750 R25.000)
G0 X90.500 Y-53.500
G0 Z25.000 F200.00
G1 Z21.250 F200.00
G0 Z25.000
G0 Z21.438
G1 Z17.500 F200.00
G0 Z25.000
G0 Z17.688
G1 Z13.750 F200.00
G0 Z25.000
G0 Z13.938
G1 Z10.000 F200.00
G0 Z25.000
G0 Z10.188
G1 Z6.250 F200.00
G0 Z25.000
G0 Z6.438
G1 Z2.500 F200.00
G0 Z25.000
G0 Z2.688
G1 Z0.000 F200.00
G0 Z27.000
G0 X90.500 Y-22.500
(G83 X90.500 Y-22.500 Z0.000 F200.000 Q3.750 R25.000)
G0 X90.500 Y-22.500
G0 Z25.000 F200.00
G1 Z21.250 F200.00
G0 Z25.000
G0 Z21.438
G1 Z17.500 F200.00
G0 Z25.000
G0 Z17.688
G1 Z13.750 F200.00
G0 Z25.000
G0 Z13.938
G1 Z10.000 F200.00
G0 Z25.000
G0 Z10.188
G1 Z6.250 F200.00
G0 Z25.000
G0 Z6.438
G1 Z2.500 F200.00
G0 Z25.000
G0 Z2.688
G1 Z0.000 F200.00
G0 Z27.000
( G80 )
G0 Z25.000
G0 Z27.000
(Finish operation: Drilling)
(Begin operation: Profile)
(Path: Profile)
(Profile)
(Compensated Tool Path. Diameter: 5.0)
G0 Z27.000
G0 X0.000 Y0.000
G0 X-52.505 Y0.000
G0 X-52.505 Y0.000 Z25.000
G1 X-52.505 Y0.000 Z9.000 F200.000
G3 X-55.456 Y2.453 Z9.000 I-2.495 J0.000 K0.000 F400.000
G3 X-57.452 Y-0.461 Z9.000 I0.456 J-2.453 K0.000 F400.000
G3 X-54.532 Y-2.451 Z9.000 I2.452 J0.462 K0.000 F400.000
G3 X-52.505 Y0.000 Z9.000 I-0.468 J2.451 K0.000 F400.000
G1 X-52.505 Y0.000 Z8.000 F200.000
G3 X-55.456 Y2.453 Z8.000 I-2.495 J0.000 K0.000 F400.000
G3 X-57.452 Y-0.461 Z8.000 I0.456 J-2.453 K0.000 F400.000
G3 X-54.532 Y-2.451 Z8.000 I2.452 J0.462 K0.000 F400.000
G3 X-52.505 Y0.000 Z8.000 I-0.468 J2.451 K0.000 F400.000
G1 X-52.505 Y0.000 Z7.000 F200.000
G3 X-55.456 Y2.453 Z7.000 I-2.495 J0.000 K0.000 F400.000
G3 X-57.452 Y-0.461 Z7.000 I0.456 J-2.453 K0.000 F400.000
G3 X-54.532 Y-2.451 Z7.000 I2.452 J0.462 K0.000 F400.000
G3 X-52.505 Y0.000 Z7.000 I-0.468 J2.451 K0.000 F400.000
G1 X-52.505 Y0.000 Z6.000 F200.000
G3 X-55.456 Y2.453 Z6.000 I-2.495 J0.000 K0.000 F400.000
G3 X-57.452 Y-0.461 Z6.000 I0.456 J-2.453 K0.000 F400.000
G3 X-54.532 Y-2.451 Z6.000 I2.452 J0.462 K0.000 F400.000
G3 X-52.505 Y0.000 Z6.000 I-0.468 J2.451 K0.000 F400.000
G1 X-52.505 Y0.000 Z5.000 F200.000
G3 X-55.456 Y2.453 Z5.000 I-2.495 J0.000 K0.000 F400.000
G3 X-57.452 Y-0.461 Z5.000 I0.456 J-2.453 K0.000 F400.000
G3 X-54.532 Y-2.451 Z5.000 I2.452 J0.462 K0.000 F400.000
G3 X-52.505 Y0.000 Z5.000 I-0.468 J2.451 K0.000 F400.000
G1 X-52.505 Y0.000 Z4.000 F200.000
G3 X-55.456 Y2.453 Z4.000 I-2.495 J0.000 K0.000 F400.000
G3 X-57.452 Y-0.461 Z4.000 I0.456 J-2.453 K0.000 F400.000
G3 X-54.532 Y-2.451 Z4.000 I2.452 J0.462 K0.000 F400.000
G3 X-52.505 Y0.000 Z4.000 I-0.468 J2.451 K0.000 F400.000
G1 X-52.505 Y0.000 Z3.000 F200.000
G3 X-55.456 Y2.453 Z3.000 I-2.495 J0.000 K0.000 F400.000
G3 X-57.452 Y-0.461 Z3.000 I0.456 J-2.453 K0.000 F400.000
G3 X-54.532 Y-2.451 Z3.000 I2.452 J0.462 K0.000 F400.000
G3 X-52.505 Y0.000 Z3.000 I-0.468 J2.451 K0.000 F400.000
G1 X-52.505 Y0.000 Z2.000 F200.000
G3 X-55.456 Y2.453 Z2.000 I-2.495 J0.000 K0.000 F400.000
G3 X-57.452 Y-0.461 Z2.000 I0.456 J-2.453 K0.000 F400.000
G3 X-54.532 Y-2.451 Z2.000 I2.452 J0.462 K0.000 F400.000
G3 X-52.505 Y0.000 Z2.000 I-0.468 J2.451 K0.000 F400.000
G1 X-52.505 Y0.000 Z1.000 F200.000
G3 X-55.456 Y2.453 Z1.000 I-2.495 J0.000 K0.000 F400.000
G3 X-57.452 Y-0.461 Z1.000 I0.456 J-2.453 K0.000 F400.000
G3 X-54.532 Y-2.451 Z1.000 I2.452 J0.462 K0.000 F400.000
G3 X-52.505 Y0.000 Z1.000 I-0.468 J2.451 K0.000 F400.000
G1 X-52.505 Y0.000 Z0.000 F200.000
G3 X-55.456 Y2.453 Z0.000 I-2.495 J0.000 K0.000 F400.000
G3 X-57.452 Y-0.461 Z0.000 I0.456 J-2.453 K0.000 F400.000
G3 X-54.532 Y-2.451 Z0.000 I2.452 J0.462 K0.000 F400.000
G3 X-52.505 Y0.000 Z0.000 I-0.468 J2.451 K0.000 F400.000
G0 Z27.000
G0 Z27.000
(Finish operation: Profile)
(Begin operation: Pocket_Shape002)
(Path: Pocket_Shape002)
(Pocket_Shape002)
G0 Z27.000
G0 X0.000 Y0.000
G0 X68.312 Y-34.611
G0 X68.312 Y-34.611 Z25.000
G1 X68.312 Y-34.611 Z10.000 F200.000
G3 X76.302 Y-45.384 Z10.000 I6.688 J-3.389 K0.000 F400.000
G3 X73.698 Y-30.616 Z10.000 I-1.302 J7.384 K0.000 F400.000
G3 X68.312 Y-34.611 Z10.000 I1.302 J-7.384 K0.000 F400.000
G1 X71.883 Y-36.421 Z10.000 F200.000
G3 X75.607 Y-41.441 Z10.000 I3.117 J-1.579 K0.000 F400.000
G3 X74.393 Y-34.559 Z10.000 I-0.607 J3.441 K0.000 F400.000
G3 X71.883 Y-36.421 Z10.000 I0.607 J-3.441 K0.000 F400.000
G1 X73.000 Y-36.986 Z10.000 F200.000
G3 X75.389 Y-40.209 Z10.000 I2.000 J-1.014 K0.000 F400.000
G3 X74.611 Y-35.791 Z10.000 I-0.389 J2.209 K0.000 F400.000
G3 X73.000 Y-36.986 Z10.000 I0.389 J-2.209 K0.000 F400.000
G1 X74.116 Y-37.552 Z10.000 F200.000
G3 X75.172 Y-38.976 Z10.000 I0.884 J-0.448 K0.000 F400.000
G3 X74.828 Y-37.024 Z10.000 I-0.172 J0.976 K0.000 F400.000
G3 X74.116 Y-37.552 Z10.000 I0.172 J-0.976 K0.000 F400.000
G1 X74.116 Y-37.552 Z9.000 F200.000
G3 X75.172 Y-38.976 Z9.000 I0.884 J-0.448 K0.000 F400.000
G3 X74.828 Y-37.024 Z9.000 I-0.172 J0.976 K0.000 F400.000
G3 X74.116 Y-37.552 Z9.000 I0.172 J-0.976 K0.000 F400.000
G1 X73.000 Y-36.986 Z9.000 F200.000
G3 X75.389 Y-40.209 Z9.000 I2.000 J-1.014 K0.000 F400.000
G3 X74.611 Y-35.791 Z9.000 I-0.389 J2.209 K0.000 F400.000
G3 X73.000 Y-36.986 Z9.000 I0.389 J-2.209 K0.000 F400.000
G1 X71.883 Y-36.421 Z9.000 F200.000
G3 X75.607 Y-41.441 Z9.000 I3.117 J-1.579 K0.000 F400.000
G3 X74.393 Y-34.559 Z9.000 I-0.607 J3.441 K0.000 F400.000
G3 X71.883 Y-36.421 Z9.000 I0.607 J-3.441 K0.000 F400.000
G1 X68.312 Y-34.611 Z9.000 F200.000
G3 X76.302 Y-45.384 Z9.000 I6.688 J-3.389 K0.000 F400.000
G3 X73.698 Y-30.616 Z9.000 I-1.302 J7.384 K0.000 F400.000
G3 X68.312 Y-34.611 Z9.000 I1.302 J-7.384 K0.000 F400.000
G1 X68.312 Y-34.611 Z8.000 F200.000
G3 X76.302 Y-45.384 Z8.000 I6.688 J-3.389 K0.000 F400.000
G3 X73.698 Y-30.616 Z8.000 I-1.302 J7.384 K0.000 F400.000
G3 X68.312 Y-34.611 Z8.000 I1.302 J-7.384 K0.000 F400.000
G1 X71.883 Y-36.421 Z8.000 F200.000
G3 X75.607 Y-41.441 Z8.000 I3.117 J-1.579 K0.000 F400.000
G3 X74.393 Y-34.559 Z8.000 I-0.607 J3.441 K0.000 F400.000
G3 X71.883 Y-36.421 Z8.000 I0.607 J-3.441 K0.000 F400.000
G1 X73.000 Y-36.986 Z8.000 F200.000
G3 X75.389 Y-40.209 Z8.000 I2.000 J-1.014 K0.000 F400.000
G3 X74.611 Y-35.791 Z8.000 I-0.389 J2.209 K0.000 F400.000
G3 X73.000 Y-36.986 Z8.000 I0.389 J-2.209 K0.000 F400.000
G1 X74.116 Y-37.552 Z8.000 F200.000
G3 X75.172 Y-38.976 Z8.000 I0.884 J-0.448 K0.000 F400.000
G3 X74.828 Y-37.024 Z8.000 I-0.172 J0.976 K0.000 F400.000
G3 X74.116 Y-37.552 Z8.000 I0.172 J-0.976 K0.000 F400.000
G1 X74.116 Y-37.552 Z7.000 F200.000
G3 X75.172 Y-38.976 Z7.000 I0.884 J-0.448 K0.000 F400.000
G3 X74.828 Y-37.024 Z7.000 I-0.172 J0.976 K0.000 F400.000
G3 X74.116 Y-37.552 Z7.000 I0.172 J-0.976 K0.000 F400.000
G1 X73.000 Y-36.986 Z7.000 F200.000
G3 X75.389 Y-40.209 Z7.000 I2.000 J-1.014 K0.000 F400.000
G3 X74.611 Y-35.791 Z7.000 I-0.389 J2.209 K0.000 F400.000
G3 X73.000 Y-36.986 Z7.000 I0.389 J-2.209 K0.000 F400.000
G1 X71.883 Y-36.421 Z7.000 F200.000
G3 X75.607 Y-41.441 Z7.000 I3.117 J-1.579 K0.000 F400.000
G3 X74.393 Y-34.559 Z7.000 I-0.607 J3.441 K0.000 F400.000
G3 X71.883 Y-36.421 Z7.000 I0.607 J-3.441 K0.000 F400.000
G1 X68.312 Y-34.611 Z7.000 F200.000
G3 X76.302 Y-45.384 Z7.000 I6.688 J-3.389 K0.000 F400.000
G3 X73.698 Y-30.616 Z7.000 I-1.302 J7.384 K0.000 F400.000
G3 X68.312 Y-34.611 Z7.000 I1.302 J-7.384 K0.000 F400.000
G1 X68.312 Y-34.611 Z6.000 F200.000
G3 X76.302 Y-45.384 Z6.000 I6.688 J-3.389 K0.000 F400.000
G3 X73.698 Y-30.616 Z6.000 I-1.302 J7.384 K0.000 F400.000
G3 X68.312 Y-34.611 Z6.000 I1.302 J-7.384 K0.000 F400.000
G1 X71.883 Y-36.421 Z6.000 F200.000
G3 X75.607 Y-41.441 Z6.000 I3.117 J-1.579 K0.000 F400.000
G3 X74.393 Y-34.559 Z6.000 I-0.607 J3.441 K0.000 F400.000
G3 X71.883 Y-36.421 Z6.000 I0.607 J-3.441 K0.000 F400.000
G1 X73.000 Y-36.986 Z6.000 F200.000
G3 X75.389 Y-40.209 Z6.000 I2.000 J-1.014 K0.000 F400.000
G3 X74.611 Y-35.791 Z6.000 I-0.389 J2.209 K0.000 F400.000
G3 X73.000 Y-36.986 Z6.000 I0.389 J-2.209 K0.000 F400.000
G1 X74.116 Y-37.552 Z6.000 F200.000
G3 X75.172 Y-38.976 Z6.000 I0.884 J-0.448 K0.000 F400.000
G3 X74.828 Y-37.024 Z6.000 I-0.172 J0.976 K0.000 F400.000
G3 X74.116 Y-37.552 Z6.000 I0.172 J-0.976 K0.000 F400.000
G1 X74.116 Y-37.552 Z5.000 F200.000
G3 X75.172 Y-38.976 Z5.000 I0.884 J-0.448 K0.000 F400.000
G3 X74.828 Y-37.024 Z5.000 I-0.172 J0.976 K0.000 F400.000
G3 X74.116 Y-37.552 Z5.000 I0.172 J-0.976 K0.000 F400.000
G1 X73.000 Y-36.986 Z5.000 F200.000
G3 X75.389 Y-40.209 Z5.000 I2.000 J-1.014 K0.000 F400.000
G3 X74.611 Y-35.791 Z5.000 I-0.389 J2.209 K0.000 F400.000
G3 X73.000 Y-36.986 Z5.000 I0.389 J-2.209 K0.000 F400.000
G1 X71.883 Y-36.421 Z5.000 F200.000
G3 X75.607 Y-41.441 Z5.000 I3.117 J-1.579 K0.000 F400.000
G3 X74.393 Y-34.559 Z5.000 I-0.607 J3.441 K0.000 F400.000
G3 X71.883 Y-36.421 Z5.000 I0.607 J-3.441 K0.000 F400.000
G1 X68.312 Y-34.611 Z5.000 F200.000
G3 X76.302 Y-45.384 Z5.000 I6.688 J-3.389 K0.000 F400.000
G3 X73.698 Y-30.616 Z5.000 I-1.302 J7.384 K0.000 F400.000
G3 X68.312 Y-34.611 Z5.000 I1.302 J-7.384 K0.000 F400.000
G1 X68.312 Y-34.611 Z4.000 F200.000
G3 X76.302 Y-45.384 Z4.000 I6.688 J-3.389 K0.000 F400.000
G3 X73.698 Y-30.616 Z4.000 I-1.302 J7.384 K0.000 F400.000
G3 X68.312 Y-34.611 Z4.000 I1.302 J-7.384 K0.000 F400.000
G1 X71.883 Y-36.421 Z4.000 F200.000
G3 X75.607 Y-41.441 Z4.000 I3.117 J-1.579 K0.000 F400.000
G3 X74.393 Y-34.559 Z4.000 I-0.607 J3.441 K0.000 F400.000
G3 X71.883 Y-36.421 Z4.000 I0.607 J-3.441 K0.000 F400.000
G1 X73.000 Y-36.986 Z4.000 F200.000
G3 X75.389 Y-40.209 Z4.000 I2.000 J-1.014 K0.000 F400.000
G3 X74.611 Y-35.791 Z4.000 I-0.389 J2.209 K0.000 F400.000
G3 X73.000 Y-36.986 Z4.000 I0.389 J-2.209 K0.000 F400.000
G1 X74.116 Y-37.552 Z4.000 F200.000
G3 X75.172 Y-38.976 Z4.000 I0.884 J-0.448 K0.000 F400.000
G3 X74.828 Y-37.024 Z4.000 I-0.172 J0.976 K0.000 F400.000
G3 X74.116 Y-37.552 Z4.000 I0.172 J-0.976 K0.000 F400.000
G1 X74.116 Y-37.552 Z3.000 F200.000
G3 X75.172 Y-38.976 Z3.000 I0.884 J-0.448 K0.000 F400.000
G3 X74.828 Y-37.024 Z3.000 I-0.172 J0.976 K0.000 F400.000
G3 X74.116 Y-37.552 Z3.000 I0.172 J-0.976 K0.000 F400.000
G1 X73.000 Y-36.986 Z3.000 F200.000
G3 X75.389 Y-40.209 Z3.000 I2.000 J-1.014 K0.000 F400.000
G3 X74.611 Y-35.791 Z3.000 I-0.389 J2.209 K0.000 F400.000
G3 X73.000 Y-36.986 Z3.000 I0.389 J-2.209 K0.000 F400.000
G1 X71.883 Y-36.421 Z3.000 F200.000
G3 X75.607 Y-41.441 Z3.000 I3.117 J-1.579 K0.000 F400.000
G3 X74.393 Y-34.559 Z3.000 I-0.607 J3.441 K0.000 F400.000
G3 X71.883 Y-36.421 Z3.000 I0.607 J-3.441 K0.000 F400.000
G1 X68.312 Y-34.611 Z3.000 F200.000
G3 X76.302 Y-45.384 Z3.000 I6.688 J-3.389 K0.000 F400.000
G3 X73.698 Y-30.616 Z3.000 I-1.302 J7.384 K0.000 F400.000
G3 X68.312 Y-34.611 Z3.000 I1.302 J-7.384 K0.000 F400.000
G1 X68.312 Y-34.611 Z2.000 F200.000
G3 X76.302 Y-45.384 Z2.000 I6.688 J-3.389 K0.000 F400.000
G3 X73.698 Y-30.616 Z2.000 I-1.302 J7.384 K0.000 F400.000
G3 X68.312 Y-34.611 Z2.000 I1.302 J-7.384 K0.000 F400.000
G1 X71.883 Y-36.421 Z2.000 F200.000
G3 X75.607 Y-41.441 Z2.000 I3.117 J-1.579 K0.000 F400.000
G3 X74.393 Y-34.559 Z2.000 I-0.607 J3.441 K0.000 F400.000
G3 X71.883 Y-36.421 Z2.000 I0.607 J-3.441 K0.000 F400.000
G1 X73.000 Y-36.986 Z2.000 F200.000
G3 X75.389 Y-40.209 Z2.000 I2.000 J-1.014 K0.000 F400.000
G3 X74.611 Y-35.791 Z2.000 I-0.389 J2.209 K0.000 F400.000
G3 X73.000 Y-36.986 Z2.000 I0.389 J-2.209 K0.000 F400.000
G1 X74.116 Y-37.552 Z2.000 F200.000
G3 X75.172 Y-38.976 Z2.000 I0.884 J-0.448 K0.000 F400.000
G3 X74.828 Y-37.024 Z2.000 I-0.172 J0.976 K0.000 F400.000
G3 X74.116 Y-37.552 Z2.000 I0.172 J-0.976 K0.000 F400.000
G1 X74.116 Y-37.552 Z1.000 F200.000
G3 X75.172 Y-38.976 Z1.000 I0.884 J-0.448 K0.000 F400.000
G3 X74.828 Y-37.024 Z1.000 I-0.172 J0.976 K0.000 F400.000
G3 X74.116 Y-37.552 Z1.000 I0.172 J-0.976 K0.000 F400.000
G1 X73.000 Y-36.986 Z1.000 F200.000
G3 X75.389 Y-40.209 Z1.000 I2.000 J-1.014 K0.000 F400.000
G3 X74.611 Y-35.791 Z1.000 I-0.389 J2.209 K0.000 F400.000
G3 X73.000 Y-36.986 Z1.000 I0.389 J-2.209 K0.000 F400.000
G1 X71.883 Y-36.421 Z1.000 F200.000
G3 X75.607 Y-41.441 Z1.000 I3.117 J-1.579 K0.000 F400.000
G3 X74.393 Y-34.559 Z1.000 I-0.607 J3.441 K0.000 F400.000
G3 X71.883 Y-36.421 Z1.000 I0.607 J-3.441 K0.000 F400.000
G1 X68.312 Y-34.611 Z1.000 F200.000
G3 X76.302 Y-45.384 Z1.000 I6.688 J-3.389 K0.000 F400.000
G3 X73.698 Y-30.616 Z1.000 I-1.302 J7.384 K0.000 F400.000
G3 X68.312 Y-34.611 Z1.000 I1.302 J-7.384 K0.000 F400.000
G1 X68.312 Y-34.611 Z0.000 F200.000
G3 X76.302 Y-45.384 Z0.000 I6.688 J-3.389 K0.000 F400.000
G3 X73.698 Y-30.616 Z0.000 I-1.302 J7.384 K0.000 F400.000
G3 X68.312 Y-34.611 Z0.000 I1.302 J-7.384 K0.000 F400.000
G1 X71.883 Y-36.421 Z0.000 F200.000
G3 X75.607 Y-41.441 Z0.000 I3.117 J-1.579 K0.000 F400.000
G3 X74.393 Y-34.559 Z0.000 I-0.607 J3.441 K0.000 F400.000
G3 X71.883 Y-36.421 Z0.000 I0.607 J-3.441 K0.000 F400.000
G1 X73.000 Y-36.986 Z0.000 F200.000
G3 X75.389 Y-40.209 Z0.000 I2.000 J-1.014 K0.000 F400.000
G3 X74.611 Y-35.791 Z0.000 I-0.389 J2.209 K0.000 F400.000
G3 X73.000 Y-36.986 Z0.000 I0.389 J-2.209 K0.000 F400.000
G1 X74.116 Y-37.552 Z0.000 F200.000
G3 X75.172 Y-38.976 Z0.000 I0.884 J-0.448 K0.000 F400.000
G3 X74.828 Y-37.024 Z0.000 I-0.172 J0.976 K0.000 F400.000
G3 X74.116 Y-37.552 Z0.000 I0.172 J-0.976 K0.000 F400.000
G0 Z27.000
G0 Z27.000
(Finish operation: Pocket_Shape002)
(Begin operation: DressupTag)
(Path: DressupTag)
G0 Z27.000
G0 X0.000 Y62.500 Z27.000
G0 X0.000 Y62.500 Z25.000
G1 X0.000 Y62.500 Z20.000 F200.000
G1 X-175.000 Y62.500 Z20.000 F400.000
G3 X-177.500 Y60.000 Z20.000 I0.000 J-2.500 K0.000 F400.000
G1 X-177.500 Y-60.000 Z20.000 F400.000
G3 X-175.000 Y-62.500 Z20.000 I2.500 J0.000 K0.000 F400.000
G1 X175.000 Y-62.500 Z20.000 F400.000
G3 X177.500 Y-60.000 Z20.000 I-0.000 J2.500 K0.000 F400.000
G1 X177.500 Y60.000 Z20.000 F400.000
G3 X175.000 Y62.500 Z20.000 I-2.500 J-0.000 K0.000 F400.000
G1 X0.000 Y62.500 Z20.000 F400.000
G1 X0.000 Y62.500 Z18.000 F200.000
G1 X-175.000 Y62.500 Z18.000 F400.000
G3 X-177.500 Y60.000 Z18.000 I0.000 J-2.500 K0.000 F400.000
G1 X-177.500 Y-60.000 Z18.000 F400.000
G3 X-175.000 Y-62.500 Z18.000 I2.500 J0.000 K0.000 F400.000
G1 X175.000 Y-62.500 Z18.000 F400.000
G3 X177.500 Y-60.000 Z18.000 I-0.000 J2.500 K0.000 F400.000
G1 X177.500 Y60.000 Z18.000 F400.000
G3 X175.000 Y62.500 Z18.000 I-2.500 J-0.000 K0.000 F400.000
G1 X0.000 Y62.500 Z18.000 F400.000
G1 X0.000 Y62.500 Z16.000 F200.000
G1 X-175.000 Y62.500 Z16.000 F400.000
G3 X-177.500 Y60.000 Z16.000 I0.000 J-2.500 K0.000 F400.000
G1 X-177.500 Y-60.000 Z16.000 F400.000
G3 X-175.000 Y-62.500 Z16.000 I2.500 J0.000 K0.000 F400.000
G1 X175.000 Y-62.500 Z16.000 F400.000
G3 X177.500 Y-60.000 Z16.000 I-0.000 J2.500 K0.000 F400.000
G1 X177.500 Y60.000 Z16.000 F400.000
G3 X175.000 Y62.500 Z16.000 I-2.500 J-0.000 K0.000 F400.000
G1 X0.000 Y62.500 Z16.000 F400.000
G1 X0.000 Y62.500 Z14.000 F200.000
G1 X-175.000 Y62.500 Z14.000 F400.000
G3 X-177.500 Y60.000 Z14.000 I0.000 J-2.500 K0.000 F400.000
G1 X-177.500 Y-60.000 Z14.000 F400.000
G3 X-175.000 Y-62.500 Z14.000 I2.500 J0.000 K0.000 F400.000
G1 X175.000 Y-62.500 Z14.000 F400.000
G3 X177.500 Y-60.000 Z14.000 I-0.000 J2.500 K0.000 F400.000
G1 X177.500 Y60.000 Z14.000 F400.000
G3 X175.000 Y62.500 Z14.000 I-2.500 J-0.000 K0.000 F400.000
G1 X0.000 Y62.500 Z14.000 F400.000
G1 X0.000 Y62.500 Z12.000 F200.000
G1 X-175.000 Y62.500 Z12.000 F400.000
G3 X-177.500 Y60.000 Z12.000 I0.000 J-2.500 K0.000 F400.000
G1 X-177.500 Y-60.000 Z12.000 F400.000
G3 X-175.000 Y-62.500 Z12.000 I2.500 J0.000 K0.000 F400.000
G1 X175.000 Y-62.500 Z12.000 F400.000
G3 X177.500 Y-60.000 Z12.000 I-0.000 J2.500 K0.000 F400.000
G1 X177.500 Y60.000 Z12.000 F400.000
G3 X175.000 Y62.500 Z12.000 I-2.500 J-0.000 K0.000 F400.000
G1 X0.000 Y62.500 Z12.000 F400.000
G1 X0.000 Y62.500 Z10.000 F200.000
G1 X-175.000 Y62.500 Z10.000 F400.000
G3 X-177.500 Y60.000 Z10.000 I0.000 J-2.500 K0.000 F400.000
G1 X-177.500 Y-60.000 Z10.000 F400.000
G3 X-175.000 Y-62.500 Z10.000 I2.500 J0.000 K0.000 F400.000
G1 X175.000 Y-62.500 Z10.000 F400.000
G3 X177.500 Y-60.000 Z10.000 I-0.000 J2.500 K0.000 F400.000
G1 X177.500 Y60.000 Z10.000 F400.000
G3 X175.000 Y62.500 Z10.000 I-2.500 J-0.000 K0.000 F400.000
G1 X0.000 Y62.500 Z10.000 F400.000
G1 X0.000 Y62.500 Z8.000 F200.000
G1 X-175.000 Y62.500 Z8.000 F400.000
G3 X-177.500 Y60.000 Z8.000 I0.000 J-2.500 K0.000 F400.000
G1 X-177.500 Y-60.000 Z8.000 F400.000
G3 X-175.000 Y-62.500 Z8.000 I2.500 J0.000 K0.000 F400.000
G1 X175.000 Y-62.500 Z8.000 F400.000
G3 X177.500 Y-60.000 Z8.000 I-0.000 J2.500 K0.000 F400.000
G1 X177.500 Y60.000 Z8.000 F400.000
G3 X175.000 Y62.500 Z8.000 I-2.500 J-0.000 K0.000 F400.000
G1 X0.000 Y62.500 Z8.000 F400.000
G1 X0.000 Y62.500 Z6.000 F200.000
G1 X-175.000 Y62.500 Z6.000 F400.000
G3 X-177.500 Y60.000 Z6.000 I0.000 J-2.500 K0.000 F400.000
G1 X-177.500 Y-60.000 Z6.000 F400.000
G3 X-175.000 Y-62.500 Z6.000 I2.500 J0.000 K0.000 F400.000
G1 X175.000 Y-62.500 Z6.000 F400.000
G3 X177.500 Y-60.000 Z6.000 I-0.000 J2.500 K0.000 F400.000
G1 X177.500 Y60.000 Z6.000 F400.000
G3 X175.000 Y62.500 Z6.000 I-2.500 J-0.000 K0.000 F400.000
G1 X0.000 Y62.500 Z6.000 F400.000
G1 X0.000 Y62.500 Z4.000 F200.000
G1 X-175.000 Y62.500 Z4.000 F400.000
G3 X-177.500 Y60.000 Z4.000 I0.000 J-2.500 K0.000 F400.000
G1 X-177.500 Y-60.000 Z4.000 F400.000
G3 X-175.000 Y-62.500 Z4.000 I2.500 J0.000 K0.000 F400.000
G1 X175.000 Y-62.500 Z4.000 F400.000
G3 X177.500 Y-60.000 Z4.000 I-0.000 J2.500 K0.000 F400.000
G1 X177.500 Y60.000 Z4.000 F400.000
G3 X175.000 Y62.500 Z4.000 I-2.500 J-0.000 K0.000 F400.000
G1 X0.000 Y62.500 Z4.000 F400.000
G1 X0.000 Y62.500 Z2.000 F200.000
G1 X-175.000 Y62.500 Z2.000 F400.000
G3 X-177.500 Y60.000 Z2.000 I0.000 J-2.500 K0.000 F400.000
G1 X-177.500 Y-60.000 Z2.000 F400.000
G3 X-175.000 Y-62.500 Z2.000 I2.500 J0.000 K0.000 F400.000
G1 X175.000 Y-62.500 Z2.000 F400.000
G3 X177.500 Y-60.000 Z2.000 I-0.000 J2.500 K0.000 F400.000
G1 X177.500 Y60.000 Z2.000 F400.000
G3 X175.000 Y62.500 Z2.000 I-2.500 J-0.000 K0.000 F400.000
G1 X0.000 Y62.500 Z2.000 F400.000
G1 X0.000 Y62.500 Z0.000 F200.000
G1 X-31.260 Y62.500 Z0.000 F400.000
G1 X-32.260 Y62.500 Z1.000 F300.000
G1 X-55.240 Y62.500 Z1.000 F400.000
G1 X-56.240 Y62.500 Z0.000 F300.000
G1 X-118.760 Y62.500 Z0.000 F400.000
G1 X-119.760 Y62.500 Z1.000 F300.000
G1 X-142.740 Y62.500 Z1.000 F400.000
G1 X-143.740 Y62.500 Z0.000 F300.000
G1 X-175.000 Y62.500 Z0.000 F400.000
G3 X-177.500 Y60.000 Z0.000 I0.000 J-2.500 K0.000 F400.000
G1 X-177.500 Y12.490 Z0.000 F400.000
G1 X-177.500 Y11.490 Z1.000 F300.000
G1 X-177.500 Y-11.490 Z1.000 F400.000
G1 X-177.500 Y-12.490 Z0.000 F300.000
G1 X-177.500 Y-60.000 Z0.000 F400.000
G3 X-175.000 Y-62.500 Z0.000 I2.500 J0.000 K0.000 F400.000
G1 X-143.740 Y-62.500 Z0.000 F400.000
G1 X-142.740 Y-62.500 Z1.000 F300.000
G1 X-119.760 Y-62.500 Z1.000 F400.000
G1 X-118.760 Y-62.500 Z0.000 F300.000
G1 X-56.240 Y-62.500 Z0.000 F400.000
G1 X-55.240 Y-62.500 Z1.000 F300.000
G1 X-32.260 Y-62.500 Z1.000 F400.000
G1 X-31.260 Y-62.500 Z0.000 F300.000
G1 X31.260 Y-62.500 Z0.000 F400.000
G1 X32.260 Y-62.500 Z1.000 F300.000
G1 X55.240 Y-62.500 Z1.000 F400.000
G1 X56.240 Y-62.500 Z0.000 F300.000
G1 X118.760 Y-62.500 Z0.000 F400.000
G1 X119.760 Y-62.500 Z1.000 F300.000
G1 X142.740 Y-62.500 Z1.000 F400.000
G1 X143.740 Y-62.500 Z0.000 F300.000
G1 X175.000 Y-62.500 Z0.000 F400.000
G3 X177.500 Y-60.000 Z0.000 I-0.000 J2.500 K0.000 F400.000
G1 X177.500 Y-12.490 Z0.000 F400.000
G1 X177.500 Y-11.490 Z1.000 F300.000
G1 X177.500 Y11.490 Z1.000 F400.000
G1 X177.500 Y12.490 Z0.000 F300.000
G1 X177.500 Y60.000 Z0.000 F400.000
G3 X175.000 Y62.500 Z0.000 I-2.500 J-0.000 K0.000 F400.000
G1 X143.740 Y62.500 Z0.000 F400.000
G1 X142.740 Y62.500 Z1.000 F300.000
G1 X119.760 Y62.500 Z1.000 F400.000
G1 X118.760 Y62.500 Z0.000 F300.000
G1 X56.240 Y62.500 Z0.000 F400.000
G1 X55.240 Y62.500 Z1.000 F300.000
G1 X32.260 Y62.500 Z1.000 F400.000
G1 X31.260 Y62.500 Z0.000 F300.000
G1 X0.000 Y62.500 Z0.000 F400.000
G0 X0.000 Y62.500 Z27.000
(Finish operation: DressupTag)
(Begin postamble)
M5
G17 G90
M2
