(Exported by FreeCAD)
(Post Processor: script_module)
(Output Time:2025-05-28 10:54:07.157037)
(Begin preamble)
G17 G90
G21
(Begin operation: Fixture)
(Path: Fixture)
G54
(Finish operation: Fixture)
(Begin operation: 5mm Endmill014)
(Path: 5mm Endmill014)
(5mm Endmill014)
(Begin toolchange)
( M6 T2 )
M3 S8000
(Finish operation: 5mm Endmill014)
(Begin operation: Drilling002)
(Path: Drilling002)
(Drilling002)
(Begin Drilling)
G0 Z15.000
G90
( G98 )
G0 X0.000 Y0.000
(G83 X0.000 Y0.000 Z0.000 F200.000 Q3.750 R13.000)
G0 X0.000 Y0.000
G0 Z13.000 F200.00
G1 Z9.250 F200.00
G0 Z13.000
G0 Z9.438
G1 Z5.500 F200.00
G0 Z13.000
G0 Z5.688
G1 Z1.750 F200.00
G0 Z13.000
G0 Z1.938
G1 Z0.000 F200.00
G0 Z15.000
( G80 )
G0 Z13.000
G0 Z15.000
(Finish operation: Drilling002)
(Begin operation: DressupTag006)
(Path: DressupTag006)
G0 Z15.000
G0 X0.000 Y24.500 Z15.000
G0 X0.000 Y24.500 Z13.000
G1 X0.000 Y24.500 Z8.000 F200.000
G1 X-16.167 Y24.500 Z8.000 F400.000
G3 X-18.365 Y23.191 Z8.000 I0.000 J-2.500 K0.000 F400.000
G1 X-42.198 Y-20.809 Z8.000 F400.000
G3 X-40.000 Y-24.500 Z8.000 I2.198 J-1.191 K0.000 F400.000
G1 X40.000 Y-24.500 Z8.000 F400.000
G3 X42.198 Y-20.809 Z8.000 I-0.000 J2.500 K0.000 F400.000
G1 X18.365 Y23.191 Z8.000 F400.000
G3 X16.167 Y24.500 Z8.000 I-2.198 J-1.191 K0.000 F400.000
G1 X0.000 Y24.500 Z8.000 F400.000
G1 X0.000 Y24.500 Z6.000 F200.000
G1 X-16.167 Y24.500 Z6.000 F400.000
G3 X-18.365 Y23.191 Z6.000 I0.000 J-2.500 K0.000 F400.000
G1 X-42.198 Y-20.809 Z6.000 F400.000
G3 X-40.000 Y-24.500 Z6.000 I2.198 J-1.191 K0.000 F400.000
G1 X40.000 Y-24.500 Z6.000 F400.000
G3 X42.198 Y-20.809 Z6.000 I-0.000 J2.500 K0.000 F400.000
G1 X18.365 Y23.191 Z6.000 F400.000
G3 X16.167 Y24.500 Z6.000 I-2.198 J-1.191 K0.000 F400.000
G1 X0.000 Y24.500 Z6.000 F400.000
G1 X0.000 Y24.500 Z4.000 F200.000
G1 X-16.167 Y24.500 Z4.000 F400.000
G3 X-18.365 Y23.191 Z4.000 I0.000 J-2.500 K0.000 F400.000
G1 X-42.198 Y-20.809 Z4.000 F400.000
G3 X-40.000 Y-24.500 Z4.000 I2.198 J-1.191 K0.000 F400.000
G1 X40.000 Y-24.500 Z4.000 F400.000
G3 X42.198 Y-20.809 Z4.000 I-0.000 J2.500 K0.000 F400.000
G1 X18.365 Y23.191 Z4.000 F400.000
G3 X16.167 Y24.500 Z4.000 I-2.198 J-1.191 K0.000 F400.000
G1 X0.000 Y24.500 Z4.000 F400.000
G1 X0.000 Y24.500 Z2.000 F200.000
G1 X-16.167 Y24.500 Z2.000 F400.000
G3 X-18.365 Y23.191 Z2.000 I0.000 J-2.500 K0.000 F400.000
G1 X-42.198 Y-20.809 Z2.000 F400.000
G3 X-40.000 Y-24.500 Z2.000 I2.198 J-1.191 K0.000 F400.000
G1 X40.000 Y-24.500 Z2.000 F400.000
G3 X42.198 Y-20.809 Z2.000 I-0.000 J2.500 K0.000 F400.000
G1 X18.365 Y23.191 Z2.000 F400.000
G3 X16.167 Y24.500 Z2.000 I-2.198 J-1.191 K0.000 F400.000
G1 X0.000 Y24.500 Z2.000 F400.000
G1 X0.000 Y24.500 Z0.000 F200.000
G1 X-16.167 Y24.500 Z0.000 F400.000
G3 X-18.365 Y23.191 Z0.000 I0.000 J-2.500 K0.000 F400.000
G1 X-24.333 Y12.173 Z0.000 F400.000
G1 X-24.809 Y11.294 Z1.000 F300.000
G1 X-35.754 Y-8.912 Z1.000 F400.000
G1 X-36.230 Y-9.792 Z0.000 F300.000
G1 X-42.198 Y-20.809 Z0.000 F400.000
G3 X-40.000 Y-24.500 Z0.000 I2.198 J-1.191 K0.000 F400.000
G1 X-32.490 Y-24.500 Z0.000 F400.000
G1 X-31.490 Y-24.500 Z1.000 F300.000
G1 X-8.510 Y-24.500 Z1.000 F400.000
G1 X-7.510 Y-24.500 Z0.000 F300.000
G1 X7.510 Y-24.500 Z0.000 F400.000
G1 X8.510 Y-24.500 Z1.000 F300.000
G1 X31.490 Y-24.500 Z1.000 F400.000
G1 X32.490 Y-24.500 Z0.000 F300.000
G1 X40.000 Y-24.500 Z0.000 F400.000
G3 X42.198 Y-20.809 Z0.000 I-0.000 J2.500 K0.000 F400.000
G1 X36.230 Y-9.792 Z0.000 F400.000
G1 X35.754 Y-8.912 Z1.000 F300.000
G1 X24.809 Y11.294 Z1.000 F400.000
G1 X24.333 Y12.173 Z0.000 F300.000
G1 X18.365 Y23.191 Z0.000 F400.000
G3 X16.167 Y24.500 Z0.000 I-2.198 J-1.191 K0.000 F400.000
G1 X0.000 Y24.500 Z0.000 F400.000
G0 X0.000 Y24.500 Z15.000
(Finish operation: DressupTag006)
(Begin postamble)
M5
G17 G90
M2
