(Exported by FreeCAD)
(Post Processor: script_module)
(Output Time:2025-04-27 11:41:59.536429)
(Begin preamble)
G17 G90
G21
(Begin operation: Fixture)
(Path: Fixture)
G54
(Finish operation: Fixture)
(Begin operation: 5mm Endmill008)
(Path: 5mm Endmill008)
(5mm Endmill008)
(Begin toolchange)
( M6 T2 )
M3 S8000
(Finish operation: 5mm Endmill008)
(Begin operation: Profile003)
(Path: Profile003)
(Profile003)
(Compensated Tool Path. Diameter: 5.0)
G0 Z15.000
G0 X0.000 Y0.000
G0 X-60.055 Y0.000
G0 X-60.055 Y0.000 Z13.000
G1 X-60.055 Y0.000 Z8.000 F200.000
G3 X-62.085 Y1.662 Z8.000 I-1.695 J0.000 K0.000 F400.000
G3 X-63.411 Y-0.340 Z8.000 I0.335 J-1.661 K0.000 F400.000
G3 X-61.405 Y-1.659 Z8.000 I1.660 J0.340 K0.000 F400.000
G3 X-60.055 Y0.000 Z8.000 I-0.345 J1.659 K0.000 F400.000
G1 X-60.055 Y0.000 Z6.000 F200.000
G3 X-62.085 Y1.662 Z6.000 I-1.695 J0.000 K0.000 F400.000
G3 X-63.411 Y-0.340 Z6.000 I0.335 J-1.661 K0.000 F400.000
G3 X-61.405 Y-1.659 Z6.000 I1.660 J0.340 K0.000 F400.000
G3 X-60.055 Y0.000 Z6.000 I-0.345 J1.659 K0.000 F400.000
G1 X-60.055 Y0.000 Z4.000 F200.000
G3 X-62.085 Y1.662 Z4.000 I-1.695 J0.000 K0.000 F400.000
G3 X-63.411 Y-0.340 Z4.000 I0.335 J-1.661 K0.000 F400.000
G3 X-61.405 Y-1.659 Z4.000 I1.660 J0.340 K0.000 F400.000
G3 X-60.055 Y0.000 Z4.000 I-0.345 J1.659 K0.000 F400.000
G1 X-60.055 Y0.000 Z2.000 F200.000
G3 X-62.085 Y1.662 Z2.000 I-1.695 J0.000 K0.000 F400.000
G3 X-63.411 Y-0.340 Z2.000 I0.335 J-1.661 K0.000 F400.000
G3 X-61.405 Y-1.659 Z2.000 I1.660 J0.340 K0.000 F400.000
G3 X-60.055 Y0.000 Z2.000 I-0.345 J1.659 K0.000 F400.000
G1 X-60.055 Y0.000 Z0.000 F200.000
G3 X-62.085 Y1.662 Z0.000 I-1.695 J0.000 K0.000 F400.000
G3 X-63.411 Y-0.340 Z0.000 I0.335 J-1.661 K0.000 F400.000
G3 X-61.405 Y-1.659 Z0.000 I1.660 J0.340 K0.000 F400.000
G3 X-60.055 Y0.000 Z0.000 I-0.345 J1.659 K0.000 F400.000
G0 Z15.000
G0 Z15.000
(Finish operation: Profile003)
(Begin operation: DressupTag002)
(Path: DressupTag002)
G0 Z15.000
G0 X-11.000 Y0.000 Z15.000
G0 X-11.000 Y0.000 Z13.000
G1 X-11.000 Y0.000 Z8.000 F200.000
G1 X-11.000 Y-25.000 Z8.000 F400.000
G1 X71.000 Y-25.000 Z8.000 F400.000
G1 X71.000 Y25.000 Z8.000 F400.000
G1 X-11.000 Y25.000 Z8.000 F400.000
G1 X-11.000 Y0.000 Z8.000 F400.000
G1 X-11.000 Y0.000 Z6.000 F200.000
G1 X-11.000 Y-25.000 Z6.000 F400.000
G1 X71.000 Y-25.000 Z6.000 F400.000
G1 X71.000 Y25.000 Z6.000 F400.000
G1 X-11.000 Y25.000 Z6.000 F400.000
G1 X-11.000 Y0.000 Z6.000 F400.000
G1 X-11.000 Y0.000 Z4.000 F200.000
G1 X-11.000 Y-25.000 Z4.000 F400.000
G1 X71.000 Y-25.000 Z4.000 F400.000
G1 X71.000 Y25.000 Z4.000 F400.000
G1 X-11.000 Y25.000 Z4.000 F400.000
G1 X-11.000 Y0.000 Z4.000 F400.000
G1 X-11.000 Y0.000 Z2.000 F200.000
G1 X-11.000 Y-25.000 Z2.000 F400.000
G1 X71.000 Y-25.000 Z2.000 F400.000
G1 X71.000 Y25.000 Z2.000 F400.000
G1 X-11.000 Y25.000 Z2.000 F400.000
G1 X-11.000 Y0.000 Z2.000 F400.000
G1 X-11.000 Y0.000 Z0.000 F200.000
G1 X-11.000 Y-25.000 Z0.000 F400.000
G1 X-2.990 Y-25.000 Z0.000 F400.000
G1 X-1.990 Y-25.000 Z1.000 F300.000
G1 X20.990 Y-25.000 Z1.000 F400.000
G1 X21.990 Y-25.000 Z0.000 F300.000
G1 X38.010 Y-25.000 Z0.000 F400.000
G1 X39.010 Y-25.000 Z1.000 F300.000
G1 X61.990 Y-25.000 Z1.000 F400.000
G1 X62.990 Y-25.000 Z0.000 F300.000
G1 X71.000 Y-25.000 Z0.000 F400.000
G1 X71.000 Y25.000 Z0.000 F400.000
G1 X62.990 Y25.000 Z0.000 F400.000
G1 X61.990 Y25.000 Z1.000 F300.000
G1 X39.010 Y25.000 Z1.000 F400.000
G1 X38.010 Y25.000 Z0.000 F300.000
G1 X21.990 Y25.000 Z0.000 F400.000
G1 X20.990 Y25.000 Z1.000 F300.000
G1 X-1.990 Y25.000 Z1.000 F400.000
G1 X-2.990 Y25.000 Z0.000 F300.000
G1 X-11.000 Y25.000 Z0.000 F400.000
G1 X-11.000 Y0.000 Z0.000 F400.000
G0 X-11.000 Y0.000 Z15.000
(Finish operation: DressupTag002)
(Begin operation: Pocket_Shape004)
(Path: Pocket_Shape004)
(Pocket_Shape004)
G0 Z15.000
G0 X0.000 Y0.000
G0 X59.000 Y-1.000
G0 X59.000 Y-1.000 Z13.000
G1 X59.000 Y-1.000 Z8.000 F200.000
G1 X59.000 Y1.000 Z8.000 F400.000
G1 X7.000 Y1.000 Z8.000 F400.000
G1 X7.000 Y-1.000 Z8.000 F400.000
G1 X59.000 Y-1.000 Z8.000 F400.000
G0 Z15.000
G0 X60.250 Y-2.250 Z15.000
G0 X60.250 Y-2.250 Z13.000
G1 X60.250 Y-2.250 Z8.000 F200.000
G1 X60.250 Y2.250 Z8.000 F400.000
G1 X5.750 Y2.250 Z8.000 F400.000
G1 X5.750 Y-2.250 Z8.000 F400.000
G1 X60.250 Y-2.250 Z8.000 F400.000
G0 Z15.000
G0 X61.500 Y-3.500 Z15.000
G0 X61.500 Y-3.500 Z13.000
G1 X61.500 Y-3.500 Z8.000 F200.000
G1 X61.500 Y3.500 Z8.000 F400.000
G1 X4.500 Y3.500 Z8.000 F400.000
G1 X4.500 Y-3.500 Z8.000 F400.000
G1 X61.500 Y-3.500 Z8.000 F400.000
G0 Z15.000
G0 X65.500 Y-7.500 Z15.000
G0 X65.500 Y-7.500 Z13.000
G1 X65.500 Y-7.500 Z8.000 F200.000
G1 X65.500 Y7.500 Z8.000 F400.000
G1 X0.500 Y7.500 Z8.000 F400.000
G1 X0.500 Y-7.500 Z8.000 F400.000
G1 X65.500 Y-7.500 Z8.000 F400.000
G0 Z15.000
G0 X69.500 Y-11.500 Z15.000
G0 X69.500 Y-11.500 Z13.000
G1 X69.500 Y-11.500 Z8.000 F200.000
G1 X69.500 Y11.500 Z8.000 F400.000
G1 X-3.500 Y11.500 Z8.000 F400.000
G1 X-3.500 Y-11.500 Z8.000 F400.000
G1 X69.500 Y-11.500 Z8.000 F400.000
G0 Z15.000
G0 X73.500 Y-15.500 Z15.000
G0 X73.500 Y-15.500 Z13.000
G1 X73.500 Y-15.500 Z8.000 F200.000
G1 X73.500 Y15.500 Z8.000 F400.000
G1 X-7.500 Y15.500 Z8.000 F400.000
G1 X-7.500 Y-15.500 Z8.000 F400.000
G1 X73.500 Y-15.500 Z8.000 F400.000
G0 Z15.000
G0 X77.500 Y-19.500 Z15.000
G0 X77.500 Y-19.500 Z13.000
G1 X77.500 Y-19.500 Z8.000 F200.000
G1 X77.500 Y19.500 Z8.000 F400.000
G1 X-11.500 Y19.500 Z8.000 F400.000
G1 X-11.500 Y-19.500 Z8.000 F400.000
G1 X77.500 Y-19.500 Z8.000 F400.000
G0 Z15.000
G0 X81.500 Y-23.500 Z15.000
G0 X81.500 Y-23.500 Z13.000
G1 X81.500 Y-23.500 Z8.000 F200.000
G1 X81.500 Y23.500 Z8.000 F400.000
G1 X-15.500 Y23.500 Z8.000 F400.000
G1 X-15.500 Y-23.500 Z8.000 F400.000
G1 X81.500 Y-23.500 Z8.000 F400.000
G0 Z15.000
G0 X85.500 Y-27.500 Z15.000
G0 X85.500 Y-27.500 Z13.000
G1 X85.500 Y-27.500 Z8.000 F200.000
G1 X85.500 Y27.500 Z8.000 F400.000
G1 X-19.500 Y27.500 Z8.000 F400.000
G1 X-19.500 Y-27.500 Z8.000 F400.000
G1 X85.500 Y-27.500 Z8.000 F400.000
G0 Z15.000
G0 X59.000 Y-1.000 Z15.000
G0 X59.000 Y-1.000 Z13.000
G1 X59.000 Y-1.000 Z6.000 F200.000
G1 X59.000 Y1.000 Z6.000 F400.000
G1 X7.000 Y1.000 Z6.000 F400.000
G1 X7.000 Y-1.000 Z6.000 F400.000
G1 X59.000 Y-1.000 Z6.000 F400.000
G0 Z15.000
G0 X60.250 Y-2.250 Z15.000
G0 X60.250 Y-2.250 Z13.000
G1 X60.250 Y-2.250 Z6.000 F200.000
G1 X60.250 Y2.250 Z6.000 F400.000
G1 X5.750 Y2.250 Z6.000 F400.000
G1 X5.750 Y-2.250 Z6.000 F400.000
G1 X60.250 Y-2.250 Z6.000 F400.000
G0 Z15.000
G0 X61.500 Y-3.500 Z15.000
G0 X61.500 Y-3.500 Z13.000
G1 X61.500 Y-3.500 Z6.000 F200.000
G1 X61.500 Y3.500 Z6.000 F400.000
G1 X4.500 Y3.500 Z6.000 F400.000
G1 X4.500 Y-3.500 Z6.000 F400.000
G1 X61.500 Y-3.500 Z6.000 F400.000
G0 Z15.000
G0 X65.500 Y-7.500 Z15.000
G0 X65.500 Y-7.500 Z13.000
G1 X65.500 Y-7.500 Z6.000 F200.000
G1 X65.500 Y7.500 Z6.000 F400.000
G1 X0.500 Y7.500 Z6.000 F400.000
G1 X0.500 Y-7.500 Z6.000 F400.000
G1 X65.500 Y-7.500 Z6.000 F400.000
G0 Z15.000
G0 X69.500 Y-11.500 Z15.000
G0 X69.500 Y-11.500 Z13.000
G1 X69.500 Y-11.500 Z6.000 F200.000
G1 X69.500 Y11.500 Z6.000 F400.000
G1 X-3.500 Y11.500 Z6.000 F400.000
G1 X-3.500 Y-11.500 Z6.000 F400.000
G1 X69.500 Y-11.500 Z6.000 F400.000
G0 Z15.000
G0 X73.500 Y-15.500 Z15.000
G0 X73.500 Y-15.500 Z13.000
G1 X73.500 Y-15.500 Z6.000 F200.000
G1 X73.500 Y15.500 Z6.000 F400.000
G1 X-7.500 Y15.500 Z6.000 F400.000
G1 X-7.500 Y-15.500 Z6.000 F400.000
G1 X73.500 Y-15.500 Z6.000 F400.000
G0 Z15.000
G0 X77.500 Y-19.500 Z15.000
G0 X77.500 Y-19.500 Z13.000
G1 X77.500 Y-19.500 Z6.000 F200.000
G1 X77.500 Y19.500 Z6.000 F400.000
G1 X-11.500 Y19.500 Z6.000 F400.000
G1 X-11.500 Y-19.500 Z6.000 F400.000
G1 X77.500 Y-19.500 Z6.000 F400.000
G0 Z15.000
G0 X81.500 Y-23.500 Z15.000
G0 X81.500 Y-23.500 Z13.000
G1 X81.500 Y-23.500 Z6.000 F200.000
G1 X81.500 Y23.500 Z6.000 F400.000
G1 X-15.500 Y23.500 Z6.000 F400.000
G1 X-15.500 Y-23.500 Z6.000 F400.000
G1 X81.500 Y-23.500 Z6.000 F400.000
G0 Z15.000
G0 X85.500 Y-27.500 Z15.000
G0 X85.500 Y-27.500 Z13.000
G1 X85.500 Y-27.500 Z6.000 F200.000
G1 X85.500 Y27.500 Z6.000 F400.000
G1 X-19.500 Y27.500 Z6.000 F400.000
G1 X-19.500 Y-27.500 Z6.000 F400.000
G1 X85.500 Y-27.500 Z6.000 F400.000
G0 Z15.000
G0 X59.000 Y-1.000 Z15.000
G0 X59.000 Y-1.000 Z13.000
G1 X59.000 Y-1.000 Z4.000 F200.000
G1 X59.000 Y1.000 Z4.000 F400.000
G1 X7.000 Y1.000 Z4.000 F400.000
G1 X7.000 Y-1.000 Z4.000 F400.000
G1 X59.000 Y-1.000 Z4.000 F400.000
G0 Z15.000
G0 X60.250 Y-2.250 Z15.000
G0 X60.250 Y-2.250 Z13.000
G1 X60.250 Y-2.250 Z4.000 F200.000
G1 X60.250 Y2.250 Z4.000 F400.000
G1 X5.750 Y2.250 Z4.000 F400.000
G1 X5.750 Y-2.250 Z4.000 F400.000
G1 X60.250 Y-2.250 Z4.000 F400.000
G0 Z15.000
G0 X61.500 Y-3.500 Z15.000
G0 X61.500 Y-3.500 Z13.000
G1 X61.500 Y-3.500 Z4.000 F200.000
G1 X61.500 Y3.500 Z4.000 F400.000
G1 X4.500 Y3.500 Z4.000 F400.000
G1 X4.500 Y-3.500 Z4.000 F400.000
G1 X61.500 Y-3.500 Z4.000 F400.000
G0 Z15.000
G0 X65.500 Y-7.500 Z15.000
G0 X65.500 Y-7.500 Z13.000
G1 X65.500 Y-7.500 Z4.000 F200.000
G1 X65.500 Y7.500 Z4.000 F400.000
G1 X0.500 Y7.500 Z4.000 F400.000
G1 X0.500 Y-7.500 Z4.000 F400.000
G1 X65.500 Y-7.500 Z4.000 F400.000
G0 Z15.000
G0 X69.500 Y-11.500 Z15.000
G0 X69.500 Y-11.500 Z13.000
G1 X69.500 Y-11.500 Z4.000 F200.000
G1 X69.500 Y11.500 Z4.000 F400.000
G1 X-3.500 Y11.500 Z4.000 F400.000
G1 X-3.500 Y-11.500 Z4.000 F400.000
G1 X69.500 Y-11.500 Z4.000 F400.000
G0 Z15.000
G0 X73.500 Y-15.500 Z15.000
G0 X73.500 Y-15.500 Z13.000
G1 X73.500 Y-15.500 Z4.000 F200.000
G1 X73.500 Y15.500 Z4.000 F400.000
G1 X-7.500 Y15.500 Z4.000 F400.000
G1 X-7.500 Y-15.500 Z4.000 F400.000
G1 X73.500 Y-15.500 Z4.000 F400.000
G0 Z15.000
G0 X77.500 Y-19.500 Z15.000
G0 X77.500 Y-19.500 Z13.000
G1 X77.500 Y-19.500 Z4.000 F200.000
G1 X77.500 Y19.500 Z4.000 F400.000
G1 X-11.500 Y19.500 Z4.000 F400.000
G1 X-11.500 Y-19.500 Z4.000 F400.000
G1 X77.500 Y-19.500 Z4.000 F400.000
G0 Z15.000
G0 X81.500 Y-23.500 Z15.000
G0 X81.500 Y-23.500 Z13.000
G1 X81.500 Y-23.500 Z4.000 F200.000
G1 X81.500 Y23.500 Z4.000 F400.000
G1 X-15.500 Y23.500 Z4.000 F400.000
G1 X-15.500 Y-23.500 Z4.000 F400.000
G1 X81.500 Y-23.500 Z4.000 F400.000
G0 Z15.000
G0 X85.500 Y-27.500 Z15.000
G0 X85.500 Y-27.500 Z13.000
G1 X85.500 Y-27.500 Z4.000 F200.000
G1 X85.500 Y27.500 Z4.000 F400.000
G1 X-19.500 Y27.500 Z4.000 F400.000
G1 X-19.500 Y-27.500 Z4.000 F400.000
G1 X85.500 Y-27.500 Z4.000 F400.000
G0 Z15.000
G0 Z15.000
(Finish operation: Pocket_Shape004)
(Begin operation: Pocket_Shape005)
(Path: Pocket_Shape005)
(Pocket_Shape005)
G0 Z15.000
G0 X0.000 Y0.000
G0 X-54.250
G0 X-54.250 Z13.000
G1 X-54.250 Y0.000 Z8.000 F200.000
G1 X-54.250 Y7.500 Z8.000 F400.000
G1 X-89.250 Y7.500 Z8.000 F400.000
G1 X-89.250 Y-7.500 Z8.000 F400.000
G1 X-54.250 Y-7.500 Z8.000 F400.000
G1 X-54.250 Y0.000 Z8.000 F400.000
G1 X-58.250 Y0.000 Z8.000 F200.000
G1 X-58.250 Y3.500 Z8.000 F400.000
G1 X-85.250 Y3.500 Z8.000 F400.000
G1 X-85.250 Y-3.500 Z8.000 F400.000
G1 X-58.250 Y-3.500 Z8.000 F400.000
G1 X-58.250 Y0.000 Z8.000 F400.000
G1 X-59.500 Y0.000 Z8.000 F200.000
G1 X-59.500 Y2.250 Z8.000 F400.000
G1 X-84.000 Y2.250 Z8.000 F400.000
G1 X-84.000 Y-2.250 Z8.000 F400.000
G1 X-59.500 Y-2.250 Z8.000 F400.000
G1 X-59.500 Y0.000 Z8.000 F400.000
G1 X-60.750 Y0.000 Z8.000 F200.000
G1 X-60.750 Y1.000 Z8.000 F400.000
G1 X-82.750 Y1.000 Z8.000 F400.000
G1 X-82.750 Y-1.000 Z8.000 F400.000
G1 X-60.750 Y-1.000 Z8.000 F400.000
G1 X-60.750 Y0.000 Z8.000 F400.000
G1 X-60.750 Y0.000 Z6.000 F200.000
G1 X-60.750 Y1.000 Z6.000 F400.000
G1 X-82.750 Y1.000 Z6.000 F400.000
G1 X-82.750 Y-1.000 Z6.000 F400.000
G1 X-60.750 Y-1.000 Z6.000 F400.000
G1 X-60.750 Y0.000 Z6.000 F400.000
G1 X-59.500 Y0.000 Z6.000 F200.000
G1 X-59.500 Y2.250 Z6.000 F400.000
G1 X-84.000 Y2.250 Z6.000 F400.000
G1 X-84.000 Y-2.250 Z6.000 F400.000
G1 X-59.500 Y-2.250 Z6.000 F400.000
G1 X-59.500 Y0.000 Z6.000 F400.000
G1 X-58.250 Y0.000 Z6.000 F200.000
G1 X-58.250 Y3.500 Z6.000 F400.000
G1 X-85.250 Y3.500 Z6.000 F400.000
G1 X-85.250 Y-3.500 Z6.000 F400.000
G1 X-58.250 Y-3.500 Z6.000 F400.000
G1 X-58.250 Y0.000 Z6.000 F400.000
G1 X-54.250 Y0.000 Z6.000 F200.000
G1 X-54.250 Y7.500 Z6.000 F400.000
G1 X-89.250 Y7.500 Z6.000 F400.000
G1 X-89.250 Y-7.500 Z6.000 F400.000
G1 X-54.250 Y-7.500 Z6.000 F400.000
G1 X-54.250 Y0.000 Z6.000 F400.000
G1 X-54.250 Y0.000 Z4.000 F200.000
G1 X-54.250 Y7.500 Z4.000 F400.000
G1 X-89.250 Y7.500 Z4.000 F400.000
G1 X-89.250 Y-7.500 Z4.000 F400.000
G1 X-54.250 Y-7.500 Z4.000 F400.000
G1 X-54.250 Y0.000 Z4.000 F400.000
G1 X-58.250 Y0.000 Z4.000 F200.000
G1 X-58.250 Y3.500 Z4.000 F400.000
G1 X-85.250 Y3.500 Z4.000 F400.000
G1 X-85.250 Y-3.500 Z4.000 F400.000
G1 X-58.250 Y-3.500 Z4.000 F400.000
G1 X-58.250 Y0.000 Z4.000 F400.000
G1 X-59.500 Y0.000 Z4.000 F200.000
G1 X-59.500 Y2.250 Z4.000 F400.000
G1 X-84.000 Y2.250 Z4.000 F400.000
G1 X-84.000 Y-2.250 Z4.000 F400.000
G1 X-59.500 Y-2.250 Z4.000 F400.000
G1 X-59.500 Y0.000 Z4.000 F400.000
G1 X-60.750 Y0.000 Z4.000 F200.000
G1 X-60.750 Y1.000 Z4.000 F400.000
G1 X-82.750 Y1.000 Z4.000 F400.000
G1 X-82.750 Y-1.000 Z4.000 F400.000
G1 X-60.750 Y-1.000 Z4.000 F400.000
G1 X-60.750 Y0.000 Z4.000 F400.000
G1 X-60.750 Y0.000 Z3.000 F200.000
G1 X-60.750 Y1.000 Z3.000 F400.000
G1 X-82.750 Y1.000 Z3.000 F400.000
G1 X-82.750 Y-1.000 Z3.000 F400.000
G1 X-60.750 Y-1.000 Z3.000 F400.000
G1 X-60.750 Y0.000 Z3.000 F400.000
G1 X-59.500 Y0.000 Z3.000 F200.000
G1 X-59.500 Y2.250 Z3.000 F400.000
G1 X-84.000 Y2.250 Z3.000 F400.000
G1 X-84.000 Y-2.250 Z3.000 F400.000
G1 X-59.500 Y-2.250 Z3.000 F400.000
G1 X-59.500 Y0.000 Z3.000 F400.000
G1 X-58.250 Y0.000 Z3.000 F200.000
G1 X-58.250 Y3.500 Z3.000 F400.000
G1 X-85.250 Y3.500 Z3.000 F400.000
G1 X-85.250 Y-3.500 Z3.000 F400.000
G1 X-58.250 Y-3.500 Z3.000 F400.000
G1 X-58.250 Y0.000 Z3.000 F400.000
G1 X-54.250 Y0.000 Z3.000 F200.000
G1 X-54.250 Y7.500 Z3.000 F400.000
G1 X-89.250 Y7.500 Z3.000 F400.000
G1 X-89.250 Y-7.500 Z3.000 F400.000
G1 X-54.250 Y-7.500 Z3.000 F400.000
G1 X-54.250 Y0.000 Z3.000 F400.000
G0 Z15.000
G0 Z15.000
(Finish operation: Pocket_Shape005)
(Begin operation: DressupTag003)
(Path: DressupTag003)
G0 Z15.000
G0 X0.000 Y67.500 Z15.000
G0 X0.000 Y67.500 Z13.000
G1 X0.000 Y67.500 Z8.000 F200.000
G1 X-110.000 Y67.500 Z8.000 F400.000
G3 X-112.500 Y65.000 Z8.000 I0.000 J-2.500 K0.000 F400.000
G1 X-112.500 Y-65.000 Z8.000 F400.000
G3 X-110.000 Y-67.500 Z8.000 I2.500 J0.000 K0.000 F400.000
G1 X110.000 Y-67.500 Z8.000 F400.000
G3 X112.500 Y-65.000 Z8.000 I-0.000 J2.500 K0.000 F400.000
G1 X112.500 Y65.000 Z8.000 F400.000
G3 X110.000 Y67.500 Z8.000 I-2.500 J-0.000 K0.000 F400.000
G1 X0.000 Y67.500 Z8.000 F400.000
G1 X0.000 Y67.500 Z6.000 F200.000
G1 X-110.000 Y67.500 Z6.000 F400.000
G3 X-112.500 Y65.000 Z6.000 I0.000 J-2.500 K0.000 F400.000
G1 X-112.500 Y-65.000 Z6.000 F400.000
G3 X-110.000 Y-67.500 Z6.000 I2.500 J0.000 K0.000 F400.000
G1 X110.000 Y-67.500 Z6.000 F400.000
G3 X112.500 Y-65.000 Z6.000 I-0.000 J2.500 K0.000 F400.000
G1 X112.500 Y65.000 Z6.000 F400.000
G3 X110.000 Y67.500 Z6.000 I-2.500 J-0.000 K0.000 F400.000
G1 X0.000 Y67.500 Z6.000 F400.000
G1 X0.000 Y67.500 Z4.000 F200.000
G1 X-110.000 Y67.500 Z4.000 F400.000
G3 X-112.500 Y65.000 Z4.000 I0.000 J-2.500 K0.000 F400.000
G1 X-112.500 Y-65.000 Z4.000 F400.000
G3 X-110.000 Y-67.500 Z4.000 I2.500 J0.000 K0.000 F400.000
G1 X110.000 Y-67.500 Z4.000 F400.000
G3 X112.500 Y-65.000 Z4.000 I-0.000 J2.500 K0.000 F400.000
G1 X112.500 Y65.000 Z4.000 F400.000
G3 X110.000 Y67.500 Z4.000 I-2.500 J-0.000 K0.000 F400.000
G1 X0.000 Y67.500 Z4.000 F400.000
G1 X0.000 Y67.500 Z2.000 F200.000
G1 X-110.000 Y67.500 Z2.000 F400.000
G3 X-112.500 Y65.000 Z2.000 I0.000 J-2.500 K0.000 F400.000
G1 X-112.500 Y-65.000 Z2.000 F400.000
G3 X-110.000 Y-67.500 Z2.000 I2.500 J0.000 K0.000 F400.000
G1 X110.000 Y-67.500 Z2.000 F400.000
G3 X112.500 Y-65.000 Z2.000 I-0.000 J2.500 K0.000 F400.000
G1 X112.500 Y65.000 Z2.000 F400.000
G3 X110.000 Y67.500 Z2.000 I-2.500 J-0.000 K0.000 F400.000
G1 X0.000 Y67.500 Z2.000 F400.000
G1 X0.000 Y67.500 Z0.000 F200.000
G1 X-42.510 Y67.500 Z0.000 F400.000
G1 X-43.510 Y67.500 Z1.000 F300.000
G1 X-66.490 Y67.500 Z1.000 F400.000
G1 X-67.490 Y67.500 Z0.000 F300.000
G1 X-110.000 Y67.500 Z0.000 F400.000
G3 X-112.500 Y65.000 Z0.000 I0.000 J-2.500 K0.000 F400.000
G1 X-112.500 Y12.490 Z0.000 F400.000
G1 X-112.500 Y11.490 Z1.000 F300.000
G1 X-112.500 Y-11.490 Z1.000 F400.000
G1 X-112.500 Y-12.490 Z0.000 F300.000
G1 X-112.500 Y-65.000 Z0.000 F400.000
G3 X-110.000 Y-67.500 Z0.000 I2.500 J0.000 K0.000 F400.000
G1 X-67.490 Y-67.500 Z0.000 F400.000
G1 X-66.490 Y-67.500 Z1.000 F300.000
G1 X-43.510 Y-67.500 Z1.000 F400.000
G1 X-42.510 Y-67.500 Z0.000 F300.000
G1 X42.510 Y-67.500 Z0.000 F400.000
G1 X43.510 Y-67.500 Z1.000 F300.000
G1 X66.490 Y-67.500 Z1.000 F400.000
G1 X67.490 Y-67.500 Z0.000 F300.000
G1 X110.000 Y-67.500 Z0.000 F400.000
G3 X112.500 Y-65.000 Z0.000 I-0.000 J2.500 K0.000 F400.000
G1 X112.500 Y-12.490 Z0.000 F400.000
G1 X112.500 Y-11.490 Z1.000 F300.000
G1 X112.500 Y11.490 Z1.000 F400.000
G1 X112.500 Y12.490 Z0.000 F300.000
G1 X112.500 Y65.000 Z0.000 F400.000
G3 X110.000 Y67.500 Z0.000 I-2.500 J-0.000 K0.000 F400.000
G1 X67.490 Y67.500 Z0.000 F400.000
G1 X66.490 Y67.500 Z1.000 F300.000
G1 X43.510 Y67.500 Z1.000 F400.000
G1 X42.510 Y67.500 Z0.000 F300.000
G1 X0.000 Y67.500 Z0.000 F400.000
G0 X0.000 Y67.500 Z15.000
(Finish operation: DressupTag003)
(Begin postamble)
M5
G17 G90
M2
