(Exported by FreeCAD)
(Post Processor: script_module)
(Output Time:2025-04-21 11:04:17.266705)
(Begin preamble)
G17 G90
G21
(Begin operation: Fixture)
(Path: Fixture)
G54
(Finish operation: Fixture)
(Begin operation: 5mm Endmill006)
(Path: 5mm Endmill006)
(5mm Endmill006)
(Begin toolchange)
( M6 T2 )
M3 S8000
(Finish operation: 5mm Endmill006)
(Begin operation: Trou support)
(Path: Trou support)
(Pocket_Shape003)
G0 Z27.000
G0
G0 X-10.261 Y1.008
G0 X-10.261 Y1.008 Z25.000
G1 X-10.261 Y1.008 Z20.000 F200.000
G3 X-9.739 Y-1.008 Z20.000 I0.261 J-1.008 K0.000 F400.000
G3 X-10.261 Y1.008 Z20.000 I-0.261 J1.008 K0.000 F400.000
G0 Z27.000
G0 X-11.265 Y4.886 Z27.000
G0 X-11.265 Y4.886 Z25.000
G1 X-11.265 Y4.886 Z20.000 F200.000
G3 X-8.735 Y-4.886 Z20.000 I1.265 J-4.886 K0.000 F400.000
G3 X-11.265 Y4.886 Z20.000 I-1.265 J4.886 K0.000 F400.000
G0 Z27.000
G0 X-10.261 Y1.008 Z27.000
G0 X-10.261 Y1.008 Z25.000
G1 X-10.261 Y1.008 Z18.000 F200.000
G3 X-9.739 Y-1.008 Z18.000 I0.261 J-1.008 K0.000 F400.000
G3 X-10.261 Y1.008 Z18.000 I-0.261 J1.008 K0.000 F400.000
G0 Z27.000
G0 X-11.265 Y4.886 Z27.000
G0 X-11.265 Y4.886 Z25.000
G1 X-11.265 Y4.886 Z18.000 F200.000
G3 X-8.735 Y-4.886 Z18.000 I1.265 J-4.886 K0.000 F400.000
G3 X-11.265 Y4.886 Z18.000 I-1.265 J4.886 K0.000 F400.000
G0 Z27.000
G0 X-10.261 Y1.008 Z27.000
G0 X-10.261 Y1.008 Z25.000
G1 X-10.261 Y1.008 Z16.000 F200.000
G3 X-9.739 Y-1.008 Z16.000 I0.261 J-1.008 K0.000 F400.000
G3 X-10.261 Y1.008 Z16.000 I-0.261 J1.008 K0.000 F400.000
G0 Z27.000
G0 X-11.265 Y4.886 Z27.000
G0 X-11.265 Y4.886 Z25.000
G1 X-11.265 Y4.886 Z16.000 F200.000
G3 X-8.735 Y-4.886 Z16.000 I1.265 J-4.886 K0.000 F400.000
G3 X-11.265 Y4.886 Z16.000 I-1.265 J4.886 K0.000 F400.000
G0 Z27.000
G0 X-10.261 Y1.008 Z27.000
G0 X-10.261 Y1.008 Z25.000
G1 X-10.261 Y1.008 Z14.000 F200.000
G3 X-9.739 Y-1.008 Z14.000 I0.261 J-1.008 K0.000 F400.000
G3 X-10.261 Y1.008 Z14.000 I-0.261 J1.008 K0.000 F400.000
G0 Z27.000
G0 X-11.265 Y4.886 Z27.000
G0 X-11.265 Y4.886 Z25.000
G1 X-11.265 Y4.886 Z14.000 F200.000
G3 X-8.735 Y-4.886 Z14.000 I1.265 J-4.886 K0.000 F400.000
G3 X-11.265 Y4.886 Z14.000 I-1.265 J4.886 K0.000 F400.000
G0 Z27.000
G0 X-10.261 Y1.008 Z27.000
G0 X-10.261 Y1.008 Z25.000
G1 X-10.261 Y1.008 Z12.000 F200.000
G3 X-9.739 Y-1.008 Z12.000 I0.261 J-1.008 K0.000 F400.000
G3 X-10.261 Y1.008 Z12.000 I-0.261 J1.008 K0.000 F400.000
G0 Z27.000
G0 X-11.265 Y4.886 Z27.000
G0 X-11.265 Y4.886 Z25.000
G1 X-11.265 Y4.886 Z12.000 F200.000
G3 X-8.735 Y-4.886 Z12.000 I1.265 J-4.886 K0.000 F400.000
G3 X-11.265 Y4.886 Z12.000 I-1.265 J4.886 K0.000 F400.000
G0 Z27.000
G0 X-10.261 Y1.008 Z27.000
G0 X-10.261 Y1.008 Z25.000
G1 X-10.261 Y1.008 Z10.000 F200.000
G3 X-9.739 Y-1.008 Z10.000 I0.261 J-1.008 K0.000 F400.000
G3 X-10.261 Y1.008 Z10.000 I-0.261 J1.008 K0.000 F400.000
G0 Z27.000
G0 X-11.265 Y4.886 Z27.000
G0 X-11.265 Y4.886 Z25.000
G1 X-11.265 Y4.886 Z10.000 F200.000
G3 X-8.735 Y-4.886 Z10.000 I1.265 J-4.886 K0.000 F400.000
G3 X-11.265 Y4.886 Z10.000 I-1.265 J4.886 K0.000 F400.000
G0 Z27.000
G0 X-10.261 Y1.008 Z27.000
G0 X-10.261 Y1.008 Z25.000
G1 X-10.261 Y1.008 Z8.000 F200.000
G3 X-9.739 Y-1.008 Z8.000 I0.261 J-1.008 K0.000 F400.000
G3 X-10.261 Y1.008 Z8.000 I-0.261 J1.008 K0.000 F400.000
G0 Z27.000
G0 X-11.265 Y4.886 Z27.000
G0 X-11.265 Y4.886 Z25.000
G1 X-11.265 Y4.886 Z8.000 F200.000
G3 X-8.735 Y-4.886 Z8.000 I1.265 J-4.886 K0.000 F400.000
G3 X-11.265 Y4.886 Z8.000 I-1.265 J4.886 K0.000 F400.000
G0 Z27.000
G0 X-10.261 Y1.008 Z27.000
G0 X-10.261 Y1.008 Z25.000
G1 X-10.261 Y1.008 Z6.000 F200.000
G3 X-9.739 Y-1.008 Z6.000 I0.261 J-1.008 K0.000 F400.000
G3 X-10.261 Y1.008 Z6.000 I-0.261 J1.008 K0.000 F400.000
G0 Z27.000
G0 X-11.265 Y4.886 Z27.000
G0 X-11.265 Y4.886 Z25.000
G1 X-11.265 Y4.886 Z6.000 F200.000
G3 X-8.735 Y-4.886 Z6.000 I1.265 J-4.886 K0.000 F400.000
G3 X-11.265 Y4.886 Z6.000 I-1.265 J4.886 K0.000 F400.000
G0 Z27.000
G0 X-10.261 Y1.008 Z27.000
G0 X-10.261 Y1.008 Z25.000
G1 X-10.261 Y1.008 Z4.000 F200.000
G3 X-9.739 Y-1.008 Z4.000 I0.261 J-1.008 K0.000 F400.000
G3 X-10.261 Y1.008 Z4.000 I-0.261 J1.008 K0.000 F400.000
G0 Z27.000
G0 X-11.265 Y4.886 Z27.000
G0 X-11.265 Y4.886 Z25.000
G1 X-11.265 Y4.886 Z4.000 F200.000
G3 X-8.735 Y-4.886 Z4.000 I1.265 J-4.886 K0.000 F400.000
G3 X-11.265 Y4.886 Z4.000 I-1.265 J4.886 K0.000 F400.000
G0 Z27.000
G0 X-10.261 Y1.008 Z27.000
G0 X-10.261 Y1.008 Z25.000
G1 X-10.261 Y1.008 Z2.000 F200.000
G3 X-9.739 Y-1.008 Z2.000 I0.261 J-1.008 K0.000 F400.000
G3 X-10.261 Y1.008 Z2.000 I-0.261 J1.008 K0.000 F400.000
G0 Z27.000
G0 X-11.265 Y4.886 Z27.000
G0 X-11.265 Y4.886 Z25.000
G1 X-11.265 Y4.886 Z2.000 F200.000
G3 X-8.735 Y-4.886 Z2.000 I1.265 J-4.886 K0.000 F400.000
G3 X-11.265 Y4.886 Z2.000 I-1.265 J4.886 K0.000 F400.000
G0 Z27.000
G0 X-10.261 Y1.008 Z27.000
G0 X-10.261 Y1.008 Z25.000
G1 X-10.261 Y1.008 Z0.000 F200.000
G3 X-9.739 Y-1.008 Z0.000 I0.261 J-1.008 K0.000 F400.000
G3 X-10.261 Y1.008 Z0.000 I-0.261 J1.008 K0.000 F400.000
G0 Z27.000
G0 X-11.265 Y4.886 Z27.000
G0 X-11.265 Y4.886 Z25.000
G1 X-11.265 Y4.886 Z0.000 F200.000
G3 X-8.735 Y-4.886 Z0.000 I1.265 J-4.886 K0.000 F400.000
G3 X-11.265 Y4.886 Z0.000 I-1.265 J4.886 K0.000 F400.000
G0 Z27.000
G0 Z27.000
(Finish operation: Trou support)
(Begin operation: Decoupe)
(Path: Decoupe)
G0 Z27.000
G0 X0.000 Y62.500 Z27.000
G0 X0.000 Y62.500 Z25.000
G1 X0.000 Y62.500 Z20.000 F200.000
G1 X-110.000 Y62.500 Z20.000 F400.000
G3 X-112.500 Y60.000 Z20.000 I0.000 J-2.500 K0.000 F400.000
G1 X-112.500 Y-60.000 Z20.000 F400.000
G3 X-110.000 Y-62.500 Z20.000 I2.500 J0.000 K0.000 F400.000
G1 X110.000 Y-62.500 Z20.000 F400.000
G3 X112.500 Y-60.000 Z20.000 I-0.000 J2.500 K0.000 F400.000
G1 X112.500 Y60.000 Z20.000 F400.000
G3 X110.000 Y62.500 Z20.000 I-2.500 J-0.000 K0.000 F400.000
G1 X0.000 Y62.500 Z20.000 F400.000
G1 X0.000 Y62.500 Z18.000 F200.000
G1 X-110.000 Y62.500 Z18.000 F400.000
G3 X-112.500 Y60.000 Z18.000 I0.000 J-2.500 K0.000 F400.000
G1 X-112.500 Y-60.000 Z18.000 F400.000
G3 X-110.000 Y-62.500 Z18.000 I2.500 J0.000 K0.000 F400.000
G1 X110.000 Y-62.500 Z18.000 F400.000
G3 X112.500 Y-60.000 Z18.000 I-0.000 J2.500 K0.000 F400.000
G1 X112.500 Y60.000 Z18.000 F400.000
G3 X110.000 Y62.500 Z18.000 I-2.500 J-0.000 K0.000 F400.000
G1 X0.000 Y62.500 Z18.000 F400.000
G1 X0.000 Y62.500 Z16.000 F200.000
G1 X-110.000 Y62.500 Z16.000 F400.000
G3 X-112.500 Y60.000 Z16.000 I0.000 J-2.500 K0.000 F400.000
G1 X-112.500 Y-60.000 Z16.000 F400.000
G3 X-110.000 Y-62.500 Z16.000 I2.500 J0.000 K0.000 F400.000
G1 X110.000 Y-62.500 Z16.000 F400.000
G3 X112.500 Y-60.000 Z16.000 I-0.000 J2.500 K0.000 F400.000
G1 X112.500 Y60.000 Z16.000 F400.000
G3 X110.000 Y62.500 Z16.000 I-2.500 J-0.000 K0.000 F400.000
G1 X0.000 Y62.500 Z16.000 F400.000
G1 X0.000 Y62.500 Z14.000 F200.000
G1 X-110.000 Y62.500 Z14.000 F400.000
G3 X-112.500 Y60.000 Z14.000 I0.000 J-2.500 K0.000 F400.000
G1 X-112.500 Y-60.000 Z14.000 F400.000
G3 X-110.000 Y-62.500 Z14.000 I2.500 J0.000 K0.000 F400.000
G1 X110.000 Y-62.500 Z14.000 F400.000
G3 X112.500 Y-60.000 Z14.000 I-0.000 J2.500 K0.000 F400.000
G1 X112.500 Y60.000 Z14.000 F400.000
G3 X110.000 Y62.500 Z14.000 I-2.500 J-0.000 K0.000 F400.000
G1 X0.000 Y62.500 Z14.000 F400.000
G1 X0.000 Y62.500 Z12.000 F200.000
G1 X-110.000 Y62.500 Z12.000 F400.000
G3 X-112.500 Y60.000 Z12.000 I0.000 J-2.500 K0.000 F400.000
G1 X-112.500 Y-60.000 Z12.000 F400.000
G3 X-110.000 Y-62.500 Z12.000 I2.500 J0.000 K0.000 F400.000
G1 X110.000 Y-62.500 Z12.000 F400.000
G3 X112.500 Y-60.000 Z12.000 I-0.000 J2.500 K0.000 F400.000
G1 X112.500 Y60.000 Z12.000 F400.000
G3 X110.000 Y62.500 Z12.000 I-2.500 J-0.000 K0.000 F400.000
G1 X0.000 Y62.500 Z12.000 F400.000
G1 X0.000 Y62.500 Z10.000 F200.000
G1 X-110.000 Y62.500 Z10.000 F400.000
G3 X-112.500 Y60.000 Z10.000 I0.000 J-2.500 K0.000 F400.000
G1 X-112.500 Y-60.000 Z10.000 F400.000
G3 X-110.000 Y-62.500 Z10.000 I2.500 J0.000 K0.000 F400.000
G1 X110.000 Y-62.500 Z10.000 F400.000
G3 X112.500 Y-60.000 Z10.000 I-0.000 J2.500 K0.000 F400.000
G1 X112.500 Y60.000 Z10.000 F400.000
G3 X110.000 Y62.500 Z10.000 I-2.500 J-0.000 K0.000 F400.000
G1 X0.000 Y62.500 Z10.000 F400.000
G1 X0.000 Y62.500 Z8.000 F200.000
G1 X-110.000 Y62.500 Z8.000 F400.000
G3 X-112.500 Y60.000 Z8.000 I0.000 J-2.500 K0.000 F400.000
G1 X-112.500 Y-60.000 Z8.000 F400.000
G3 X-110.000 Y-62.500 Z8.000 I2.500 J0.000 K0.000 F400.000
G1 X110.000 Y-62.500 Z8.000 F400.000
G3 X112.500 Y-60.000 Z8.000 I-0.000 J2.500 K0.000 F400.000
G1 X112.500 Y60.000 Z8.000 F400.000
G3 X110.000 Y62.500 Z8.000 I-2.500 J-0.000 K0.000 F400.000
G1 X0.000 Y62.500 Z8.000 F400.000
G1 X0.000 Y62.500 Z6.000 F200.000
G1 X-110.000 Y62.500 Z6.000 F400.000
G3 X-112.500 Y60.000 Z6.000 I0.000 J-2.500 K0.000 F400.000
G1 X-112.500 Y-60.000 Z6.000 F400.000
G3 X-110.000 Y-62.500 Z6.000 I2.500 J0.000 K0.000 F400.000
G1 X110.000 Y-62.500 Z6.000 F400.000
G3 X112.500 Y-60.000 Z6.000 I-0.000 J2.500 K0.000 F400.000
G1 X112.500 Y60.000 Z6.000 F400.000
G3 X110.000 Y62.500 Z6.000 I-2.500 J-0.000 K0.000 F400.000
G1 X0.000 Y62.500 Z6.000 F400.000
G1 X0.000 Y62.500 Z4.000 F200.000
G1 X-110.000 Y62.500 Z4.000 F400.000
G3 X-112.500 Y60.000 Z4.000 I0.000 J-2.500 K0.000 F400.000
G1 X-112.500 Y-60.000 Z4.000 F400.000
G3 X-110.000 Y-62.500 Z4.000 I2.500 J0.000 K0.000 F400.000
G1 X110.000 Y-62.500 Z4.000 F400.000
G3 X112.500 Y-60.000 Z4.000 I-0.000 J2.500 K0.000 F400.000
G1 X112.500 Y60.000 Z4.000 F400.000
G3 X110.000 Y62.500 Z4.000 I-2.500 J-0.000 K0.000 F400.000
G1 X0.000 Y62.500 Z4.000 F400.000
G1 X0.000 Y62.500 Z2.000 F200.000
G1 X-110.000 Y62.500 Z2.000 F400.000
G3 X-112.500 Y60.000 Z2.000 I0.000 J-2.500 K0.000 F400.000
G1 X-112.500 Y-60.000 Z2.000 F400.000
G3 X-110.000 Y-62.500 Z2.000 I2.500 J0.000 K0.000 F400.000
G1 X110.000 Y-62.500 Z2.000 F400.000
G3 X112.500 Y-60.000 Z2.000 I-0.000 J2.500 K0.000 F400.000
G1 X112.500 Y60.000 Z2.000 F400.000
G3 X110.000 Y62.500 Z2.000 I-2.500 J-0.000 K0.000 F400.000
G1 X0.000 Y62.500 Z2.000 F400.000
G1 X0.000 Y62.500 Z0.000 F200.000
G1 X-42.510 Y62.500 Z0.000 F400.000
G1 X-43.510 Y62.500 Z1.000 F300.000
G1 X-66.490 Y62.500 Z1.000 F400.000
G1 X-67.490 Y62.500 Z0.000 F300.000
G1 X-110.000 Y62.500 Z0.000 F400.000
G3 X-112.500 Y60.000 Z0.000 I0.000 J-2.500 K0.000 F400.000
G1 X-112.500 Y12.490 Z0.000 F400.000
G1 X-112.500 Y11.490 Z1.000 F300.000
G1 X-112.500 Y-11.490 Z1.000 F400.000
G1 X-112.500 Y-12.490 Z0.000 F300.000
G1 X-112.500 Y-60.000 Z0.000 F400.000
G3 X-110.000 Y-62.500 Z0.000 I2.500 J0.000 K0.000 F400.000
G1 X-67.490 Y-62.500 Z0.000 F400.000
G1 X-66.490 Y-62.500 Z1.000 F300.000
G1 X-43.510 Y-62.500 Z1.000 F400.000
G1 X-42.510 Y-62.500 Z0.000 F300.000
G1 X42.510 Y-62.500 Z0.000 F400.000
G1 X43.510 Y-62.500 Z1.000 F300.000
G1 X66.490 Y-62.500 Z1.000 F400.000
G1 X67.490 Y-62.500 Z0.000 F300.000
G1 X110.000 Y-62.500 Z0.000 F400.000
G3 X112.500 Y-60.000 Z0.000 I-0.000 J2.500 K0.000 F400.000
G1 X112.500 Y-12.490 Z0.000 F400.000
G1 X112.500 Y-11.490 Z1.000 F300.000
G1 X112.500 Y11.490 Z1.000 F400.000
G1 X112.500 Y12.490 Z0.000 F300.000
G1 X112.500 Y60.000 Z0.000 F400.000
G3 X110.000 Y62.500 Z0.000 I-2.500 J-0.000 K0.000 F400.000
G1 X67.490 Y62.500 Z0.000 F400.000
G1 X66.490 Y62.500 Z1.000 F300.000
G1 X43.510 Y62.500 Z1.000 F400.000
G1 X42.510 Y62.500 Z0.000 F300.000
G1 X0.000 Y62.500 Z0.000 F400.000
G0 X0.000 Y62.500 Z27.000
(Finish operation: Decoupe)
(Begin postamble)
M5
G17 G90
M2
