(Exported by FreeCAD)
(Post Processor: script_module)
(Output Time:2025-04-29 18:31:08.465004)
(Begin preamble)
G17 G90
G21
(Begin operation: Fixture)
(Path: Fixture)
G54
(Finish operation: Fixture)
(Begin operation: 5mm Endmill012)
(Path: 5mm Endmill012)
(5mm Endmill012)
(Begin toolchange)
( M6 T2 )
M3 S8000
(Finish operation: 5mm Endmill012)
(Begin operation: Feuillure moteur001)
(Path: Feuillure moteur001)
(Pocket_Shape006)
G0 Z27.000
G0 X0.000 Y0.000
G0 X-28.000
G0 X-28.000 Z25.000
G1 X-28.000 Y0.000 Z20.000 F200.000
G1 X-28.000 Y27.000 Z20.000 F400.000
G1 X-82.000 Y27.000 Z20.000 F400.000
G1 X-82.000 Y-27.000 Z20.000 F400.000
G1 X-28.000 Y-27.000 Z20.000 F400.000
G1 X-28.000 Y0.000 Z20.000 F400.000
G1 X-32.000 Y0.000 Z20.000 F200.000
G1 X-32.000 Y23.000 Z20.000 F400.000
G1 X-78.000 Y23.000 Z20.000 F400.000
G1 X-78.000 Y-23.000 Z20.000 F400.000
G1 X-32.000 Y-23.000 Z20.000 F400.000
G1 X-32.000 Y0.000 Z20.000 F400.000
G1 X-36.000 Y0.000 Z20.000 F200.000
G1 X-36.000 Y19.000 Z20.000 F400.000
G1 X-74.000 Y19.000 Z20.000 F400.000
G1 X-74.000 Y-19.000 Z20.000 F400.000
G1 X-36.000 Y-19.000 Z20.000 F400.000
G1 X-36.000 Y0.000 Z20.000 F400.000
G1 X-40.000 Y0.000 Z20.000 F200.000
G1 X-40.000 Y15.000 Z20.000 F400.000
G1 X-70.000 Y15.000 Z20.000 F400.000
G1 X-70.000 Y-15.000 Z20.000 F400.000
G1 X-40.000 Y-15.000 Z20.000 F400.000
G1 X-40.000 Y0.000 Z20.000 F400.000
G1 X-44.000 Y0.000 Z20.000 F200.000
G1 X-44.000 Y11.000 Z20.000 F400.000
G1 X-66.000 Y11.000 Z20.000 F400.000
G1 X-66.000 Y-11.000 Z20.000 F400.000
G1 X-44.000 Y-11.000 Z20.000 F400.000
G1 X-44.000 Y0.000 Z20.000 F400.000
G1 X-48.000 Y0.000 Z20.000 F200.000
G1 X-48.000 Y7.000 Z20.000 F400.000
G1 X-62.000 Y7.000 Z20.000 F400.000
G1 X-62.000 Y-7.000 Z20.000 F400.000
G1 X-48.000 Y-7.000 Z20.000 F400.000
G1 X-48.000 Y0.000 Z20.000 F400.000
G1 X-52.000 Y0.000 Z20.000 F200.000
G1 X-52.000 Y3.000 Z20.000 F400.000
G1 X-58.000 Y3.000 Z20.000 F400.000
G1 X-58.000 Y-3.000 Z20.000 F400.000
G1 X-52.000 Y-3.000 Z20.000 F400.000
G1 X-52.000 Y0.000 Z20.000 F400.000
G1 X-53.250 Y0.000 Z20.000 F200.000
G1 X-53.250 Y1.750 Z20.000 F400.000
G1 X-56.750 Y1.750 Z20.000 F400.000
G1 X-56.750 Y-1.750 Z20.000 F400.000
G1 X-53.250 Y-1.750 Z20.000 F400.000
G1 X-53.250 Y0.000 Z20.000 F400.000
G1 X-54.500 Y0.000 Z20.000 F200.000
G1 X-54.500 Y0.500 Z20.000 F400.000
G1 X-55.500 Y0.500 Z20.000 F400.000
G1 X-55.500 Y-0.500 Z20.000 F400.000
G1 X-54.500 Y-0.500 Z20.000 F400.000
G1 X-54.500 Y0.000 Z20.000 F400.000
G1 X-54.500 Y0.000 Z18.000 F200.000
G1 X-54.500 Y0.500 Z18.000 F400.000
G1 X-55.500 Y0.500 Z18.000 F400.000
G1 X-55.500 Y-0.500 Z18.000 F400.000
G1 X-54.500 Y-0.500 Z18.000 F400.000
G1 X-54.500 Y0.000 Z18.000 F400.000
G1 X-53.250 Y0.000 Z18.000 F200.000
G1 X-53.250 Y1.750 Z18.000 F400.000
G1 X-56.750 Y1.750 Z18.000 F400.000
G1 X-56.750 Y-1.750 Z18.000 F400.000
G1 X-53.250 Y-1.750 Z18.000 F400.000
G1 X-53.250 Y0.000 Z18.000 F400.000
G1 X-52.000 Y0.000 Z18.000 F200.000
G1 X-52.000 Y3.000 Z18.000 F400.000
G1 X-58.000 Y3.000 Z18.000 F400.000
G1 X-58.000 Y-3.000 Z18.000 F400.000
G1 X-52.000 Y-3.000 Z18.000 F400.000
G1 X-52.000 Y0.000 Z18.000 F400.000
G1 X-48.000 Y0.000 Z18.000 F200.000
G1 X-48.000 Y7.000 Z18.000 F400.000
G1 X-62.000 Y7.000 Z18.000 F400.000
G1 X-62.000 Y-7.000 Z18.000 F400.000
G1 X-48.000 Y-7.000 Z18.000 F400.000
G1 X-48.000 Y0.000 Z18.000 F400.000
G1 X-44.000 Y0.000 Z18.000 F200.000
G1 X-44.000 Y11.000 Z18.000 F400.000
G1 X-66.000 Y11.000 Z18.000 F400.000
G1 X-66.000 Y-11.000 Z18.000 F400.000
G1 X-44.000 Y-11.000 Z18.000 F400.000
G1 X-44.000 Y0.000 Z18.000 F400.000
G1 X-40.000 Y0.000 Z18.000 F200.000
G1 X-40.000 Y15.000 Z18.000 F400.000
G1 X-70.000 Y15.000 Z18.000 F400.000
G1 X-70.000 Y-15.000 Z18.000 F400.000
G1 X-40.000 Y-15.000 Z18.000 F400.000
G1 X-40.000 Y0.000 Z18.000 F400.000
G1 X-36.000 Y0.000 Z18.000 F200.000
G1 X-36.000 Y19.000 Z18.000 F400.000
G1 X-74.000 Y19.000 Z18.000 F400.000
G1 X-74.000 Y-19.000 Z18.000 F400.000
G1 X-36.000 Y-19.000 Z18.000 F400.000
G1 X-36.000 Y0.000 Z18.000 F400.000
G1 X-32.000 Y0.000 Z18.000 F200.000
G1 X-32.000 Y23.000 Z18.000 F400.000
G1 X-78.000 Y23.000 Z18.000 F400.000
G1 X-78.000 Y-23.000 Z18.000 F400.000
G1 X-32.000 Y-23.000 Z18.000 F400.000
G1 X-32.000 Y0.000 Z18.000 F400.000
G1 X-28.000 Y0.000 Z18.000 F200.000
G1 X-28.000 Y27.000 Z18.000 F400.000
G1 X-82.000 Y27.000 Z18.000 F400.000
G1 X-82.000 Y-27.000 Z18.000 F400.000
G1 X-28.000 Y-27.000 Z18.000 F400.000
G1 X-28.000 Y0.000 Z18.000 F400.000
G1 X-28.000 Y0.000 Z16.000 F200.000
G1 X-28.000 Y27.000 Z16.000 F400.000
G1 X-82.000 Y27.000 Z16.000 F400.000
G1 X-82.000 Y-27.000 Z16.000 F400.000
G1 X-28.000 Y-27.000 Z16.000 F400.000
G1 X-28.000 Y0.000 Z16.000 F400.000
G1 X-32.000 Y0.000 Z16.000 F200.000
G1 X-32.000 Y23.000 Z16.000 F400.000
G1 X-78.000 Y23.000 Z16.000 F400.000
G1 X-78.000 Y-23.000 Z16.000 F400.000
G1 X-32.000 Y-23.000 Z16.000 F400.000
G1 X-32.000 Y0.000 Z16.000 F400.000
G1 X-36.000 Y0.000 Z16.000 F200.000
G1 X-36.000 Y19.000 Z16.000 F400.000
G1 X-74.000 Y19.000 Z16.000 F400.000
G1 X-74.000 Y-19.000 Z16.000 F400.000
G1 X-36.000 Y-19.000 Z16.000 F400.000
G1 X-36.000 Y0.000 Z16.000 F400.000
G1 X-40.000 Y0.000 Z16.000 F200.000
G1 X-40.000 Y15.000 Z16.000 F400.000
G1 X-70.000 Y15.000 Z16.000 F400.000
G1 X-70.000 Y-15.000 Z16.000 F400.000
G1 X-40.000 Y-15.000 Z16.000 F400.000
G1 X-40.000 Y0.000 Z16.000 F400.000
G1 X-44.000 Y0.000 Z16.000 F200.000
G1 X-44.000 Y11.000 Z16.000 F400.000
G1 X-66.000 Y11.000 Z16.000 F400.000
G1 X-66.000 Y-11.000 Z16.000 F400.000
G1 X-44.000 Y-11.000 Z16.000 F400.000
G1 X-44.000 Y0.000 Z16.000 F400.000
G1 X-48.000 Y0.000 Z16.000 F200.000
G1 X-48.000 Y7.000 Z16.000 F400.000
G1 X-62.000 Y7.000 Z16.000 F400.000
G1 X-62.000 Y-7.000 Z16.000 F400.000
G1 X-48.000 Y-7.000 Z16.000 F400.000
G1 X-48.000 Y0.000 Z16.000 F400.000
G1 X-52.000 Y0.000 Z16.000 F200.000
G1 X-52.000 Y3.000 Z16.000 F400.000
G1 X-58.000 Y3.000 Z16.000 F400.000
G1 X-58.000 Y-3.000 Z16.000 F400.000
G1 X-52.000 Y-3.000 Z16.000 F400.000
G1 X-52.000 Y0.000 Z16.000 F400.000
G1 X-53.250 Y0.000 Z16.000 F200.000
G1 X-53.250 Y1.750 Z16.000 F400.000
G1 X-56.750 Y1.750 Z16.000 F400.000
G1 X-56.750 Y-1.750 Z16.000 F400.000
G1 X-53.250 Y-1.750 Z16.000 F400.000
G1 X-53.250 Y0.000 Z16.000 F400.000
G1 X-54.500 Y0.000 Z16.000 F200.000
G1 X-54.500 Y0.500 Z16.000 F400.000
G1 X-55.500 Y0.500 Z16.000 F400.000
G1 X-55.500 Y-0.500 Z16.000 F400.000
G1 X-54.500 Y-0.500 Z16.000 F400.000
G1 X-54.500 Y0.000 Z16.000 F400.000
G1 X-54.500 Y0.000 Z14.000 F200.000
G1 X-54.500 Y0.500 Z14.000 F400.000
G1 X-55.500 Y0.500 Z14.000 F400.000
G1 X-55.500 Y-0.500 Z14.000 F400.000
G1 X-54.500 Y-0.500 Z14.000 F400.000
G1 X-54.500 Y0.000 Z14.000 F400.000
G1 X-53.250 Y0.000 Z14.000 F200.000
G1 X-53.250 Y1.750 Z14.000 F400.000
G1 X-56.750 Y1.750 Z14.000 F400.000
G1 X-56.750 Y-1.750 Z14.000 F400.000
G1 X-53.250 Y-1.750 Z14.000 F400.000
G1 X-53.250 Y0.000 Z14.000 F400.000
G1 X-52.000 Y0.000 Z14.000 F200.000
G1 X-52.000 Y3.000 Z14.000 F400.000
G1 X-58.000 Y3.000 Z14.000 F400.000
G1 X-58.000 Y-3.000 Z14.000 F400.000
G1 X-52.000 Y-3.000 Z14.000 F400.000
G1 X-52.000 Y0.000 Z14.000 F400.000
G1 X-48.000 Y0.000 Z14.000 F200.000
G1 X-48.000 Y7.000 Z14.000 F400.000
G1 X-62.000 Y7.000 Z14.000 F400.000
G1 X-62.000 Y-7.000 Z14.000 F400.000
G1 X-48.000 Y-7.000 Z14.000 F400.000
G1 X-48.000 Y0.000 Z14.000 F400.000
G1 X-44.000 Y0.000 Z14.000 F200.000
G1 X-44.000 Y11.000 Z14.000 F400.000
G1 X-66.000 Y11.000 Z14.000 F400.000
G1 X-66.000 Y-11.000 Z14.000 F400.000
G1 X-44.000 Y-11.000 Z14.000 F400.000
G1 X-44.000 Y0.000 Z14.000 F400.000
G1 X-40.000 Y0.000 Z14.000 F200.000
G1 X-40.000 Y15.000 Z14.000 F400.000
G1 X-70.000 Y15.000 Z14.000 F400.000
G1 X-70.000 Y-15.000 Z14.000 F400.000
G1 X-40.000 Y-15.000 Z14.000 F400.000
G1 X-40.000 Y0.000 Z14.000 F400.000
G1 X-36.000 Y0.000 Z14.000 F200.000
G1 X-36.000 Y19.000 Z14.000 F400.000
G1 X-74.000 Y19.000 Z14.000 F400.000
G1 X-74.000 Y-19.000 Z14.000 F400.000
G1 X-36.000 Y-19.000 Z14.000 F400.000
G1 X-36.000 Y0.000 Z14.000 F400.000
G1 X-32.000 Y0.000 Z14.000 F200.000
G1 X-32.000 Y23.000 Z14.000 F400.000
G1 X-78.000 Y23.000 Z14.000 F400.000
G1 X-78.000 Y-23.000 Z14.000 F400.000
G1 X-32.000 Y-23.000 Z14.000 F400.000
G1 X-32.000 Y0.000 Z14.000 F400.000
G1 X-28.000 Y0.000 Z14.000 F200.000
G1 X-28.000 Y27.000 Z14.000 F400.000
G1 X-82.000 Y27.000 Z14.000 F400.000
G1 X-82.000 Y-27.000 Z14.000 F400.000
G1 X-28.000 Y-27.000 Z14.000 F400.000
G1 X-28.000 Y0.000 Z14.000 F400.000
G1 X-28.000 Y0.000 Z12.000 F200.000
G1 X-28.000 Y27.000 Z12.000 F400.000
G1 X-82.000 Y27.000 Z12.000 F400.000
G1 X-82.000 Y-27.000 Z12.000 F400.000
G1 X-28.000 Y-27.000 Z12.000 F400.000
G1 X-28.000 Y0.000 Z12.000 F400.000
G1 X-32.000 Y0.000 Z12.000 F200.000
G1 X-32.000 Y23.000 Z12.000 F400.000
G1 X-78.000 Y23.000 Z12.000 F400.000
G1 X-78.000 Y-23.000 Z12.000 F400.000
G1 X-32.000 Y-23.000 Z12.000 F400.000
G1 X-32.000 Y0.000 Z12.000 F400.000
G1 X-36.000 Y0.000 Z12.000 F200.000
G1 X-36.000 Y19.000 Z12.000 F400.000
G1 X-74.000 Y19.000 Z12.000 F400.000
G1 X-74.000 Y-19.000 Z12.000 F400.000
G1 X-36.000 Y-19.000 Z12.000 F400.000
G1 X-36.000 Y0.000 Z12.000 F400.000
G1 X-40.000 Y0.000 Z12.000 F200.000
G1 X-40.000 Y15.000 Z12.000 F400.000
G1 X-70.000 Y15.000 Z12.000 F400.000
G1 X-70.000 Y-15.000 Z12.000 F400.000
G1 X-40.000 Y-15.000 Z12.000 F400.000
G1 X-40.000 Y0.000 Z12.000 F400.000
G1 X-44.000 Y0.000 Z12.000 F200.000
G1 X-44.000 Y11.000 Z12.000 F400.000
G1 X-66.000 Y11.000 Z12.000 F400.000
G1 X-66.000 Y-11.000 Z12.000 F400.000
G1 X-44.000 Y-11.000 Z12.000 F400.000
G1 X-44.000 Y0.000 Z12.000 F400.000
G1 X-48.000 Y0.000 Z12.000 F200.000
G1 X-48.000 Y7.000 Z12.000 F400.000
G1 X-62.000 Y7.000 Z12.000 F400.000
G1 X-62.000 Y-7.000 Z12.000 F400.000
G1 X-48.000 Y-7.000 Z12.000 F400.000
G1 X-48.000 Y0.000 Z12.000 F400.000
G1 X-52.000 Y0.000 Z12.000 F200.000
G1 X-52.000 Y3.000 Z12.000 F400.000
G1 X-58.000 Y3.000 Z12.000 F400.000
G1 X-58.000 Y-3.000 Z12.000 F400.000
G1 X-52.000 Y-3.000 Z12.000 F400.000
G1 X-52.000 Y0.000 Z12.000 F400.000
G1 X-53.250 Y0.000 Z12.000 F200.000
G1 X-53.250 Y1.750 Z12.000 F400.000
G1 X-56.750 Y1.750 Z12.000 F400.000
G1 X-56.750 Y-1.750 Z12.000 F400.000
G1 X-53.250 Y-1.750 Z12.000 F400.000
G1 X-53.250 Y0.000 Z12.000 F400.000
G1 X-54.500 Y0.000 Z12.000 F200.000
G1 X-54.500 Y0.500 Z12.000 F400.000
G1 X-55.500 Y0.500 Z12.000 F400.000
G1 X-55.500 Y-0.500 Z12.000 F400.000
G1 X-54.500 Y-0.500 Z12.000 F400.000
G1 X-54.500 Y0.000 Z12.000 F400.000
G1 X-54.500 Y0.000 Z10.000 F200.000
G1 X-54.500 Y0.500 Z10.000 F400.000
G1 X-55.500 Y0.500 Z10.000 F400.000
G1 X-55.500 Y-0.500 Z10.000 F400.000
G1 X-54.500 Y-0.500 Z10.000 F400.000
G1 X-54.500 Y0.000 Z10.000 F400.000
G1 X-53.250 Y0.000 Z10.000 F200.000
G1 X-53.250 Y1.750 Z10.000 F400.000
G1 X-56.750 Y1.750 Z10.000 F400.000
G1 X-56.750 Y-1.750 Z10.000 F400.000
G1 X-53.250 Y-1.750 Z10.000 F400.000
G1 X-53.250 Y0.000 Z10.000 F400.000
G1 X-52.000 Y0.000 Z10.000 F200.000
G1 X-52.000 Y3.000 Z10.000 F400.000
G1 X-58.000 Y3.000 Z10.000 F400.000
G1 X-58.000 Y-3.000 Z10.000 F400.000
G1 X-52.000 Y-3.000 Z10.000 F400.000
G1 X-52.000 Y0.000 Z10.000 F400.000
G1 X-48.000 Y0.000 Z10.000 F200.000
G1 X-48.000 Y7.000 Z10.000 F400.000
G1 X-62.000 Y7.000 Z10.000 F400.000
G1 X-62.000 Y-7.000 Z10.000 F400.000
G1 X-48.000 Y-7.000 Z10.000 F400.000
G1 X-48.000 Y0.000 Z10.000 F400.000
G1 X-44.000 Y0.000 Z10.000 F200.000
G1 X-44.000 Y11.000 Z10.000 F400.000
G1 X-66.000 Y11.000 Z10.000 F400.000
G1 X-66.000 Y-11.000 Z10.000 F400.000
G1 X-44.000 Y-11.000 Z10.000 F400.000
G1 X-44.000 Y0.000 Z10.000 F400.000
G1 X-40.000 Y0.000 Z10.000 F200.000
G1 X-40.000 Y15.000 Z10.000 F400.000
G1 X-70.000 Y15.000 Z10.000 F400.000
G1 X-70.000 Y-15.000 Z10.000 F400.000
G1 X-40.000 Y-15.000 Z10.000 F400.000
G1 X-40.000 Y0.000 Z10.000 F400.000
G1 X-36.000 Y0.000 Z10.000 F200.000
G1 X-36.000 Y19.000 Z10.000 F400.000
G1 X-74.000 Y19.000 Z10.000 F400.000
G1 X-74.000 Y-19.000 Z10.000 F400.000
G1 X-36.000 Y-19.000 Z10.000 F400.000
G1 X-36.000 Y0.000 Z10.000 F400.000
G1 X-32.000 Y0.000 Z10.000 F200.000
G1 X-32.000 Y23.000 Z10.000 F400.000
G1 X-78.000 Y23.000 Z10.000 F400.000
G1 X-78.000 Y-23.000 Z10.000 F400.000
G1 X-32.000 Y-23.000 Z10.000 F400.000
G1 X-32.000 Y0.000 Z10.000 F400.000
G1 X-28.000 Y0.000 Z10.000 F200.000
G1 X-28.000 Y27.000 Z10.000 F400.000
G1 X-82.000 Y27.000 Z10.000 F400.000
G1 X-82.000 Y-27.000 Z10.000 F400.000
G1 X-28.000 Y-27.000 Z10.000 F400.000
G1 X-28.000 Y0.000 Z10.000 F400.000
G1 X-28.000 Y0.000 Z9.000 F200.000
G1 X-28.000 Y27.000 Z9.000 F400.000
G1 X-82.000 Y27.000 Z9.000 F400.000
G1 X-82.000 Y-27.000 Z9.000 F400.000
G1 X-28.000 Y-27.000 Z9.000 F400.000
G1 X-28.000 Y0.000 Z9.000 F400.000
G1 X-32.000 Y0.000 Z9.000 F200.000
G1 X-32.000 Y23.000 Z9.000 F400.000
G1 X-78.000 Y23.000 Z9.000 F400.000
G1 X-78.000 Y-23.000 Z9.000 F400.000
G1 X-32.000 Y-23.000 Z9.000 F400.000
G1 X-32.000 Y0.000 Z9.000 F400.000
G1 X-36.000 Y0.000 Z9.000 F200.000
G1 X-36.000 Y19.000 Z9.000 F400.000
G1 X-74.000 Y19.000 Z9.000 F400.000
G1 X-74.000 Y-19.000 Z9.000 F400.000
G1 X-36.000 Y-19.000 Z9.000 F400.000
G1 X-36.000 Y0.000 Z9.000 F400.000
G1 X-40.000 Y0.000 Z9.000 F200.000
G1 X-40.000 Y15.000 Z9.000 F400.000
G1 X-70.000 Y15.000 Z9.000 F400.000
G1 X-70.000 Y-15.000 Z9.000 F400.000
G1 X-40.000 Y-15.000 Z9.000 F400.000
G1 X-40.000 Y0.000 Z9.000 F400.000
G1 X-44.000 Y0.000 Z9.000 F200.000
G1 X-44.000 Y11.000 Z9.000 F400.000
G1 X-66.000 Y11.000 Z9.000 F400.000
G1 X-66.000 Y-11.000 Z9.000 F400.000
G1 X-44.000 Y-11.000 Z9.000 F400.000
G1 X-44.000 Y0.000 Z9.000 F400.000
G1 X-48.000 Y0.000 Z9.000 F200.000
G1 X-48.000 Y7.000 Z9.000 F400.000
G1 X-62.000 Y7.000 Z9.000 F400.000
G1 X-62.000 Y-7.000 Z9.000 F400.000
G1 X-48.000 Y-7.000 Z9.000 F400.000
G1 X-48.000 Y0.000 Z9.000 F400.000
G1 X-52.000 Y0.000 Z9.000 F200.000
G1 X-52.000 Y3.000 Z9.000 F400.000
G1 X-58.000 Y3.000 Z9.000 F400.000
G1 X-58.000 Y-3.000 Z9.000 F400.000
G1 X-52.000 Y-3.000 Z9.000 F400.000
G1 X-52.000 Y0.000 Z9.000 F400.000
G1 X-53.250 Y0.000 Z9.000 F200.000
G1 X-53.250 Y1.750 Z9.000 F400.000
G1 X-56.750 Y1.750 Z9.000 F400.000
G1 X-56.750 Y-1.750 Z9.000 F400.000
G1 X-53.250 Y-1.750 Z9.000 F400.000
G1 X-53.250 Y0.000 Z9.000 F400.000
G1 X-54.500 Y0.000 Z9.000 F200.000
G1 X-54.500 Y0.500 Z9.000 F400.000
G1 X-55.500 Y0.500 Z9.000 F400.000
G1 X-55.500 Y-0.500 Z9.000 F400.000
G1 X-54.500 Y-0.500 Z9.000 F400.000
G1 X-54.500 Y0.000 Z9.000 F400.000
G0 Z27.000
G0 Z27.000
G0 X-54.500
G0 X56.000 Y-19.000
G0 X56.000 Y-19.000 Z25.000
G1 X56.000 Y-19.000 Z20.000 F200.000
G1 X56.000 Y-57.000 Z20.000 F400.000
G1 X94.000 Y-57.000 Z20.000 F400.000
G1 X94.000 Y-19.000 Z20.000 F400.000
G1 X56.000 Y-19.000 Z20.000 F400.000
G1 X56.000 Y-19.000 Z18.000 F200.000
G1 X56.000 Y-57.000 Z18.000 F400.000
G1 X94.000 Y-57.000 Z18.000 F400.000
G1 X94.000 Y-19.000 Z18.000 F400.000
G1 X56.000 Y-19.000 Z18.000 F400.000
G1 X56.000 Y-19.000 Z16.000 F200.000
G1 X56.000 Y-57.000 Z16.000 F400.000
G1 X94.000 Y-57.000 Z16.000 F400.000
G1 X94.000 Y-19.000 Z16.000 F400.000
G1 X56.000 Y-19.000 Z16.000 F400.000
G1 X56.000 Y-19.000 Z14.000 F200.000
G1 X56.000 Y-57.000 Z14.000 F400.000
G1 X94.000 Y-57.000 Z14.000 F400.000
G1 X94.000 Y-19.000 Z14.000 F400.000
G1 X56.000 Y-19.000 Z14.000 F400.000
G1 X56.000 Y-19.000 Z12.000 F200.000
G1 X56.000 Y-57.000 Z12.000 F400.000
G1 X94.000 Y-57.000 Z12.000 F400.000
G1 X94.000 Y-19.000 Z12.000 F400.000
G1 X56.000 Y-19.000 Z12.000 F400.000
G1 X56.000 Y-19.000 Z10.000 F200.000
G1 X56.000 Y-57.000 Z10.000 F400.000
G1 X94.000 Y-57.000 Z10.000 F400.000
G1 X94.000 Y-19.000 Z10.000 F400.000
G1 X56.000 Y-19.000 Z10.000 F400.000
G1 X56.000 Y-19.000 Z9.000 F200.000
G1 X56.000 Y-57.000 Z9.000 F400.000
G1 X94.000 Y-57.000 Z9.000 F400.000
G1 X94.000 Y-19.000 Z9.000 F400.000
G1 X56.000 Y-19.000 Z9.000 F400.000
G0 Z27.000
G0 X60.000 Y-23.000 Z27.000
G0 X60.000 Y-23.000 Z25.000
G1 X60.000 Y-23.000 Z20.000 F200.000
G1 X60.000 Y-53.000 Z20.000 F400.000
G1 X90.000 Y-53.000 Z20.000 F400.000
G1 X90.000 Y-23.000 Z20.000 F400.000
G1 X60.000 Y-23.000 Z20.000 F400.000
G1 X60.000 Y-23.000 Z18.000 F200.000
G1 X60.000 Y-53.000 Z18.000 F400.000
G1 X90.000 Y-53.000 Z18.000 F400.000
G1 X90.000 Y-23.000 Z18.000 F400.000
G1 X60.000 Y-23.000 Z18.000 F400.000
G1 X60.000 Y-23.000 Z16.000 F200.000
G1 X60.000 Y-53.000 Z16.000 F400.000
G1 X90.000 Y-53.000 Z16.000 F400.000
G1 X90.000 Y-23.000 Z16.000 F400.000
G1 X60.000 Y-23.000 Z16.000 F400.000
G1 X60.000 Y-23.000 Z14.000 F200.000
G1 X60.000 Y-53.000 Z14.000 F400.000
G1 X90.000 Y-53.000 Z14.000 F400.000
G1 X90.000 Y-23.000 Z14.000 F400.000
G1 X60.000 Y-23.000 Z14.000 F400.000
G1 X60.000 Y-23.000 Z12.000 F200.000
G1 X60.000 Y-53.000 Z12.000 F400.000
G1 X90.000 Y-53.000 Z12.000 F400.000
G1 X90.000 Y-23.000 Z12.000 F400.000
G1 X60.000 Y-23.000 Z12.000 F400.000
G1 X60.000 Y-23.000 Z10.000 F200.000
G1 X60.000 Y-53.000 Z10.000 F400.000
G1 X90.000 Y-53.000 Z10.000 F400.000
G1 X90.000 Y-23.000 Z10.000 F400.000
G1 X60.000 Y-23.000 Z10.000 F400.000
G1 X60.000 Y-23.000 Z9.000 F200.000
G1 X60.000 Y-53.000 Z9.000 F400.000
G1 X90.000 Y-53.000 Z9.000 F400.000
G1 X90.000 Y-23.000 Z9.000 F400.000
G1 X60.000 Y-23.000 Z9.000 F400.000
G0 Z27.000
G0 X64.000 Y-27.000 Z27.000
G0 X64.000 Y-27.000 Z25.000
G1 X64.000 Y-27.000 Z20.000 F200.000
G1 X64.000 Y-49.000 Z20.000 F400.000
G1 X86.000 Y-49.000 Z20.000 F400.000
G1 X86.000 Y-27.000 Z20.000 F400.000
G1 X64.000 Y-27.000 Z20.000 F400.000
G1 X64.000 Y-27.000 Z18.000 F200.000
G1 X64.000 Y-49.000 Z18.000 F400.000
G1 X86.000 Y-49.000 Z18.000 F400.000
G1 X86.000 Y-27.000 Z18.000 F400.000
G1 X64.000 Y-27.000 Z18.000 F400.000
G1 X64.000 Y-27.000 Z16.000 F200.000
G1 X64.000 Y-49.000 Z16.000 F400.000
G1 X86.000 Y-49.000 Z16.000 F400.000
G1 X86.000 Y-27.000 Z16.000 F400.000
G1 X64.000 Y-27.000 Z16.000 F400.000
G1 X64.000 Y-27.000 Z14.000 F200.000
G1 X64.000 Y-49.000 Z14.000 F400.000
G1 X86.000 Y-49.000 Z14.000 F400.000
G1 X86.000 Y-27.000 Z14.000 F400.000
G1 X64.000 Y-27.000 Z14.000 F400.000
G1 X64.000 Y-27.000 Z12.000 F200.000
G1 X64.000 Y-49.000 Z12.000 F400.000
G1 X86.000 Y-49.000 Z12.000 F400.000
G1 X86.000 Y-27.000 Z12.000 F400.000
G1 X64.000 Y-27.000 Z12.000 F400.000
G1 X64.000 Y-27.000 Z10.000 F200.000
G1 X64.000 Y-49.000 Z10.000 F400.000
G1 X86.000 Y-49.000 Z10.000 F400.000
G1 X86.000 Y-27.000 Z10.000 F400.000
G1 X64.000 Y-27.000 Z10.000 F400.000
G1 X64.000 Y-27.000 Z9.000 F200.000
G1 X64.000 Y-49.000 Z9.000 F400.000
G1 X86.000 Y-49.000 Z9.000 F400.000
G1 X86.000 Y-27.000 Z9.000 F400.000
G1 X64.000 Y-27.000 Z9.000 F400.000
G0 Z27.000
G0 X68.000 Y-31.000 Z27.000
G0 X68.000 Y-31.000 Z25.000
G1 X68.000 Y-31.000 Z20.000 F200.000
G1 X68.000 Y-45.000 Z20.000 F400.000
G1 X82.000 Y-45.000 Z20.000 F400.000
G1 X82.000 Y-31.000 Z20.000 F400.000
G1 X68.000 Y-31.000 Z20.000 F400.000
G1 X68.000 Y-31.000 Z18.000 F200.000
G1 X68.000 Y-45.000 Z18.000 F400.000
G1 X82.000 Y-45.000 Z18.000 F400.000
G1 X82.000 Y-31.000 Z18.000 F400.000
G1 X68.000 Y-31.000 Z18.000 F400.000
G1 X68.000 Y-31.000 Z16.000 F200.000
G1 X68.000 Y-45.000 Z16.000 F400.000
G1 X82.000 Y-45.000 Z16.000 F400.000
G1 X82.000 Y-31.000 Z16.000 F400.000
G1 X68.000 Y-31.000 Z16.000 F400.000
G1 X68.000 Y-31.000 Z14.000 F200.000
G1 X68.000 Y-45.000 Z14.000 F400.000
G1 X82.000 Y-45.000 Z14.000 F400.000
G1 X82.000 Y-31.000 Z14.000 F400.000
G1 X68.000 Y-31.000 Z14.000 F400.000
G1 X68.000 Y-31.000 Z12.000 F200.000
G1 X68.000 Y-45.000 Z12.000 F400.000
G1 X82.000 Y-45.000 Z12.000 F400.000
G1 X82.000 Y-31.000 Z12.000 F400.000
G1 X68.000 Y-31.000 Z12.000 F400.000
G1 X68.000 Y-31.000 Z10.000 F200.000
G1 X68.000 Y-45.000 Z10.000 F400.000
G1 X82.000 Y-45.000 Z10.000 F400.000
G1 X82.000 Y-31.000 Z10.000 F400.000
G1 X68.000 Y-31.000 Z10.000 F400.000
G1 X68.000 Y-31.000 Z9.000 F200.000
G1 X68.000 Y-45.000 Z9.000 F400.000
G1 X82.000 Y-45.000 Z9.000 F400.000
G1 X82.000 Y-31.000 Z9.000 F400.000
G1 X68.000 Y-31.000 Z9.000 F400.000
G0 Z27.000
G0 X72.000 Y-35.000 Z27.000
G0 X72.000 Y-35.000 Z25.000
G1 X72.000 Y-35.000 Z20.000 F200.000
G1 X72.000 Y-41.000 Z20.000 F400.000
G1 X78.000 Y-41.000 Z20.000 F400.000
G1 X78.000 Y-35.000 Z20.000 F400.000
G1 X72.000 Y-35.000 Z20.000 F400.000
G1 X73.250 Y-36.250 Z20.000 F200.000
G1 X73.250 Y-39.750 Z20.000 F400.000
G1 X76.750 Y-39.750 Z20.000 F400.000
G1 X76.750 Y-36.250 Z20.000 F400.000
G1 X73.250 Y-36.250 Z20.000 F400.000
G1 X74.500 Y-37.500 Z20.000 F200.000
G1 X74.500 Y-38.500 Z20.000 F400.000
G1 X75.500 Y-38.500 Z20.000 F400.000
G1 X75.500 Y-37.500 Z20.000 F400.000
G1 X74.500 Y-37.500 Z20.000 F400.000
G1 X74.500 Y-37.500 Z18.000 F200.000
G1 X74.500 Y-38.500 Z18.000 F400.000
G1 X75.500 Y-38.500 Z18.000 F400.000
G1 X75.500 Y-37.500 Z18.000 F400.000
G1 X74.500 Y-37.500 Z18.000 F400.000
G1 X74.500 Y-36.250 Z18.000 F200.000
G1 X73.250 Y-36.250 Z18.000 F400.000
G1 X73.250 Y-39.750 Z18.000 F400.000
G1 X76.750 Y-39.750 Z18.000 F400.000
G1 X76.750 Y-36.250 Z18.000 F400.000
G1 X74.500 Y-36.250 Z18.000 F400.000
G1 X74.500 Y-35.000 Z18.000 F200.000
G1 X72.000 Y-35.000 Z18.000 F400.000
G1 X72.000 Y-41.000 Z18.000 F400.000
G1 X78.000 Y-41.000 Z18.000 F400.000
G1 X78.000 Y-35.000 Z18.000 F400.000
G1 X74.500 Y-35.000 Z18.000 F400.000
G1 X74.500 Y-35.000 Z16.000 F200.000
G1 X72.000 Y-35.000 Z16.000 F400.000
G1 X72.000 Y-41.000 Z16.000 F400.000
G1 X78.000 Y-41.000 Z16.000 F400.000
G1 X78.000 Y-35.000 Z16.000 F400.000
G1 X74.500 Y-35.000 Z16.000 F400.000
G1 X74.500 Y-36.250 Z16.000 F200.000
G1 X73.250 Y-36.250 Z16.000 F400.000
G1 X73.250 Y-39.750 Z16.000 F400.000
G1 X76.750 Y-39.750 Z16.000 F400.000
G1 X76.750 Y-36.250 Z16.000 F400.000
G1 X74.500 Y-36.250 Z16.000 F400.000
G1 X74.500 Y-37.500 Z16.000 F200.000
G1 X74.500 Y-38.500 Z16.000 F400.000
G1 X75.500 Y-38.500 Z16.000 F400.000
G1 X75.500 Y-37.500 Z16.000 F400.000
G1 X74.500 Y-37.500 Z16.000 F400.000
G1 X74.500 Y-37.500 Z14.000 F200.000
G1 X74.500 Y-38.500 Z14.000 F400.000
G1 X75.500 Y-38.500 Z14.000 F400.000
G1 X75.500 Y-37.500 Z14.000 F400.000
G1 X74.500 Y-37.500 Z14.000 F400.000
G1 X74.500 Y-36.250 Z14.000 F200.000
G1 X73.250 Y-36.250 Z14.000 F400.000
G1 X73.250 Y-39.750 Z14.000 F400.000
G1 X76.750 Y-39.750 Z14.000 F400.000
G1 X76.750 Y-36.250 Z14.000 F400.000
G1 X74.500 Y-36.250 Z14.000 F400.000
G1 X74.500 Y-35.000 Z14.000 F200.000
G1 X72.000 Y-35.000 Z14.000 F400.000
G1 X72.000 Y-41.000 Z14.000 F400.000
G1 X78.000 Y-41.000 Z14.000 F400.000
G1 X78.000 Y-35.000 Z14.000 F400.000
G1 X74.500 Y-35.000 Z14.000 F400.000
G1 X74.500 Y-35.000 Z12.000 F200.000
G1 X72.000 Y-35.000 Z12.000 F400.000
G1 X72.000 Y-41.000 Z12.000 F400.000
G1 X78.000 Y-41.000 Z12.000 F400.000
G1 X78.000 Y-35.000 Z12.000 F400.000
G1 X74.500 Y-35.000 Z12.000 F400.000
G1 X74.500 Y-36.250 Z12.000 F200.000
G1 X73.250 Y-36.250 Z12.000 F400.000
G1 X73.250 Y-39.750 Z12.000 F400.000
G1 X76.750 Y-39.750 Z12.000 F400.000
G1 X76.750 Y-36.250 Z12.000 F400.000
G1 X74.500 Y-36.250 Z12.000 F400.000
G1 X74.500 Y-37.500 Z12.000 F200.000
G1 X74.500 Y-38.500 Z12.000 F400.000
G1 X75.500 Y-38.500 Z12.000 F400.000
G1 X75.500 Y-37.500 Z12.000 F400.000
G1 X74.500 Y-37.500 Z12.000 F400.000
G1 X74.500 Y-37.500 Z10.000 F200.000
G1 X74.500 Y-38.500 Z10.000 F400.000
G1 X75.500 Y-38.500 Z10.000 F400.000
G1 X75.500 Y-37.500 Z10.000 F400.000
G1 X74.500 Y-37.500 Z10.000 F400.000
G1 X74.500 Y-36.250 Z10.000 F200.000
G1 X73.250 Y-36.250 Z10.000 F400.000
G1 X73.250 Y-39.750 Z10.000 F400.000
G1 X76.750 Y-39.750 Z10.000 F400.000
G1 X76.750 Y-36.250 Z10.000 F400.000
G1 X74.500 Y-36.250 Z10.000 F400.000
G1 X74.500 Y-35.000 Z10.000 F200.000
G1 X72.000 Y-35.000 Z10.000 F400.000
G1 X72.000 Y-41.000 Z10.000 F400.000
G1 X78.000 Y-41.000 Z10.000 F400.000
G1 X78.000 Y-35.000 Z10.000 F400.000
G1 X74.500 Y-35.000 Z10.000 F400.000
G1 X74.500 Y-35.000 Z9.000 F200.000
G1 X72.000 Y-35.000 Z9.000 F400.000
G1 X72.000 Y-41.000 Z9.000 F400.000
G1 X78.000 Y-41.000 Z9.000 F400.000
G1 X78.000 Y-35.000 Z9.000 F400.000
G1 X74.500 Y-35.000 Z9.000 F400.000
G1 X74.500 Y-36.250 Z9.000 F200.000
G1 X73.250 Y-36.250 Z9.000 F400.000
G1 X73.250 Y-39.750 Z9.000 F400.000
G1 X76.750 Y-39.750 Z9.000 F400.000
G1 X76.750 Y-36.250 Z9.000 F400.000
G1 X74.500 Y-36.250 Z9.000 F400.000
G1 X74.500 Y-37.500 Z9.000 F200.000
G1 X74.500 Y-38.500 Z9.000 F400.000
G1 X75.500 Y-38.500 Z9.000 F400.000
G1 X75.500 Y-37.500 Z9.000 F400.000
G1 X74.500 Y-37.500 Z9.000 F400.000
G0 Z27.000
G0 Z27.000
(Finish operation: Feuillure moteur001)
(Begin operation: Feuillure axe001)
(Path: Feuillure axe001)
(Pocket_Shape007)
G0 Z27.000
G0 X0.000 Y0.000
G0 X-38.001
G0 X-38.001 Z25.000
G1 X-38.001 Y0.000 Z8.000 F200.000
G3 X-57.131 Y16.865 Z8.000 I-16.999 J-0.000 K0.000 F400.000
G3 X-71.865 Y-2.131 Z8.000 I2.131 J-16.865 K0.000 F400.000
G3 X-52.869 Y-16.865 Z8.000 I16.865 J2.131 K0.000 F400.000
G3 X-38.001 Y0.000 Z8.000 I-2.131 J16.865 K0.000 F400.000
G1 X-41.753 Y0.000 Z8.000 F200.000
G3 X-56.660 Y13.142 Z8.000 I-13.247 J-0.000 K0.000 F400.000
G3 X-53.340 Y-13.142 Z8.000 I1.660 J-13.142 K0.000 F400.000
G3 X-41.753 Y0.000 Z8.000 I-1.660 J13.142 K0.000 F400.000
G1 X-45.505 Y0.000 Z8.000 F200.000
G3 X-56.190 Y9.420 Z8.000 I-9.495 J-0.000 K0.000 F400.000
G3 X-53.810 Y-9.420 Z8.000 I1.190 J-9.420 K0.000 F400.000
G3 X-45.505 Y0.000 Z8.000 I-1.190 J9.420 K0.000 F400.000
G1 X-49.257 Y0.000 Z8.000 F200.000
G3 X-55.720 Y5.698 Z8.000 I-5.743 J-0.000 K0.000 F400.000
G3 X-54.280 Y-5.698 Z8.000 I0.720 J-5.698 K0.000 F400.000
G3 X-49.257 Y0.000 Z8.000 I-0.720 J5.698 K0.000 F400.000
G1 X-53.009 Y0.000 Z8.000 F200.000
G3 X-55.250 Y1.976 Z8.000 I-1.991 J-0.000 K0.000 F400.000
G3 X-56.976 Y-0.250 Z8.000 I0.250 J-1.976 K0.000 F400.000
G3 X-54.750 Y-1.976 Z8.000 I1.976 J0.250 K0.000 F400.000
G3 X-53.009 Y0.000 Z8.000 I-0.250 J1.976 K0.000 F400.000
G1 X-54.259 Y0.000 Z8.000 F200.000
G3 X-55.093 Y0.735 Z8.000 I-0.741 J-0.000 K0.000 F400.000
G3 X-55.735 Y-0.093 Z8.000 I0.093 J-0.735 K0.000 F400.000
G3 X-54.907 Y-0.735 Z8.000 I0.735 J0.093 K0.000 F400.000
G3 X-54.259 Y0.000 Z8.000 I-0.093 J0.735 K0.000 F400.000
G1 X-54.259 Y0.000 Z7.000 F200.000
G3 X-55.093 Y0.735 Z7.000 I-0.741 J-0.000 K0.000 F400.000
G3 X-55.735 Y-0.093 Z7.000 I0.093 J-0.735 K0.000 F400.000
G3 X-54.907 Y-0.735 Z7.000 I0.735 J0.093 K0.000 F400.000
G3 X-54.259 Y0.000 Z7.000 I-0.093 J0.735 K0.000 F400.000
G1 X-53.009 Y0.000 Z7.000 F200.000
G3 X-55.250 Y1.976 Z7.000 I-1.991 J-0.000 K0.000 F400.000
G3 X-56.976 Y-0.250 Z7.000 I0.250 J-1.976 K0.000 F400.000
G3 X-54.750 Y-1.976 Z7.000 I1.976 J0.250 K0.000 F400.000
G3 X-53.009 Y0.000 Z7.000 I-0.250 J1.976 K0.000 F400.000
G1 X-49.257 Y0.000 Z7.000 F200.000
G3 X-55.720 Y5.698 Z7.000 I-5.743 J-0.000 K0.000 F400.000
G3 X-54.280 Y-5.698 Z7.000 I0.720 J-5.698 K0.000 F400.000
G3 X-49.257 Y0.000 Z7.000 I-0.720 J5.698 K0.000 F400.000
G1 X-45.505 Y0.000 Z7.000 F200.000
G3 X-56.190 Y9.420 Z7.000 I-9.495 J-0.000 K0.000 F400.000
G3 X-53.810 Y-9.420 Z7.000 I1.190 J-9.420 K0.000 F400.000
G3 X-45.505 Y0.000 Z7.000 I-1.190 J9.420 K0.000 F400.000
G1 X-41.753 Y0.000 Z7.000 F200.000
G3 X-56.660 Y13.142 Z7.000 I-13.247 J-0.000 K0.000 F400.000
G3 X-53.340 Y-13.142 Z7.000 I1.660 J-13.142 K0.000 F400.000
G3 X-41.753 Y0.000 Z7.000 I-1.660 J13.142 K0.000 F400.000
G1 X-38.001 Y0.000 Z7.000 F200.000
G3 X-57.131 Y16.865 Z7.000 I-16.999 J-0.000 K0.000 F400.000
G3 X-71.865 Y-2.131 Z7.000 I2.131 J-16.865 K0.000 F400.000
G3 X-52.869 Y-16.865 Z7.000 I16.865 J2.131 K0.000 F400.000
G3 X-38.001 Y0.000 Z7.000 I-2.131 J16.865 K0.000 F400.000
G0 Z27.000
G0 Z27.000
G0 X-38.001
G0 X65.997 Y-34.973
G0 X65.997 Y-34.973 Z25.000
G1 X65.997 Y-34.973 Z8.000 F200.000
G3 X76.900 Y-47.306 Z8.000 I9.003 J-3.027 K0.000 F400.000
G3 X73.100 Y-28.694 Z8.000 I-1.900 J9.306 K0.000 F400.000
G3 X65.997 Y-34.973 Z8.000 I1.900 J-9.306 K0.000 F400.000
G1 X69.555 Y-36.169 Z8.000 F200.000
G3 X76.149 Y-43.629 Z8.000 I5.445 J-1.831 K0.000 F400.000
G3 X80.629 Y-36.851 Z8.000 I-1.149 J5.629 K0.000 F400.000
G3 X73.851 Y-32.371 Z8.000 I-5.629 J-1.149 K0.000 F400.000
G3 X69.555 Y-36.169 Z8.000 I1.149 J-5.629 K0.000 F400.000
G1 X73.112 Y-37.365 Z8.000 F200.000
G3 X75.398 Y-39.952 Z8.000 I1.888 J-0.635 K0.000 F400.000
G3 X74.602 Y-36.048 Z8.000 I-0.398 J1.952 K0.000 F400.000
G3 X73.112 Y-37.365 Z8.000 I0.398 J-1.952 K0.000 F400.000
G1 X74.298 Y-37.764 Z8.000 F200.000
G3 X75.148 Y-38.726 Z8.000 I0.702 J-0.236 K0.000 F400.000
G3 X75.726 Y-37.852 Z8.000 I-0.148 J0.726 K0.000 F400.000
G3 X74.852 Y-37.274 Z8.000 I-0.726 J-0.148 K0.000 F400.000
G3 X74.298 Y-37.764 Z8.000 I0.148 J-0.726 K0.000 F400.000
G1 X74.298 Y-37.764 Z7.000 F200.000
G3 X75.148 Y-38.726 Z7.000 I0.702 J-0.236 K0.000 F400.000
G3 X75.726 Y-37.852 Z7.000 I-0.148 J0.726 K0.000 F400.000
G3 X74.852 Y-37.274 Z7.000 I-0.726 J-0.148 K0.000 F400.000
G3 X74.298 Y-37.764 Z7.000 I0.148 J-0.726 K0.000 F400.000
G1 X73.112 Y-37.365 Z7.000 F200.000
G3 X75.398 Y-39.952 Z7.000 I1.888 J-0.635 K0.000 F400.000
G3 X74.602 Y-36.048 Z7.000 I-0.398 J1.952 K0.000 F400.000
G3 X73.112 Y-37.365 Z7.000 I0.398 J-1.952 K0.000 F400.000
G1 X69.555 Y-36.169 Z7.000 F200.000
G3 X76.149 Y-43.629 Z7.000 I5.445 J-1.831 K0.000 F400.000
G3 X80.629 Y-36.851 Z7.000 I-1.149 J5.629 K0.000 F400.000
G3 X73.851 Y-32.371 Z7.000 I-5.629 J-1.149 K0.000 F400.000
G3 X69.555 Y-36.169 Z7.000 I1.149 J-5.629 K0.000 F400.000
G1 X65.997 Y-34.973 Z7.000 F200.000
G3 X76.900 Y-47.306 Z7.000 I9.003 J-3.027 K0.000 F400.000
G3 X73.100 Y-28.694 Z7.000 I-1.900 J9.306 K0.000 F400.000
G3 X65.997 Y-34.973 Z7.000 I1.900 J-9.306 K0.000 F400.000
G0 Z27.000
G0 Z27.000
(Finish operation: Feuillure axe001)
(Begin operation: Pocket_Shape008)
(Path: Pocket_Shape008)
(Pocket_Shape008)
G0 Z27.000
G0 X0.000 Y0.000
G0 X-52.505
G0 X-52.505 Z25.000
G1 X-52.505 Y-0.000 Z7.000 F200.000
G3 X-55.771 Y2.373 Z7.000 I-2.495 J-0.000 K0.000 F400.000
G3 X-54.229 Y-2.373 Z7.000 I0.771 J-2.373 K0.000 F400.000
G3 X-52.505 Y-0.000 Z7.000 I-0.771 J2.373 K0.000 F400.000
G1 X-53.757 Y0.000 Z7.000 F200.000
G3 X-55.384 Y1.182 Z7.000 I-1.243 J0.000 K0.000 F400.000
G3 X-56.182 Y-0.384 Z7.000 I0.384 J-1.182 K0.000 F400.000
G3 X-54.616 Y-1.182 Z7.000 I1.182 J0.384 K0.000 F400.000
G3 X-53.757 Y0.000 Z7.000 I-0.384 J1.182 K0.000 F400.000
G1 X-53.757 Y0.000 Z5.000 F200.000
G3 X-55.384 Y1.182 Z5.000 I-1.243 J0.000 K0.000 F400.000
G3 X-56.182 Y-0.384 Z5.000 I0.384 J-1.182 K0.000 F400.000
G3 X-54.616 Y-1.182 Z5.000 I1.182 J0.384 K0.000 F400.000
G3 X-53.757 Y0.000 Z5.000 I-0.384 J1.182 K0.000 F400.000
G1 X-52.505 Y0.000 Z5.000 F200.000
G3 X-55.771 Y2.373 Z5.000 I-2.495 J-0.000 K0.000 F400.000
G3 X-54.229 Y-2.373 Z5.000 I0.771 J-2.373 K0.000 F400.000
G3 X-52.505 Y0.000 Z5.000 I-0.771 J2.373 K0.000 F400.000
G1 X-52.505 Y0.000 Z3.000 F200.000
G3 X-55.771 Y2.373 Z3.000 I-2.495 J-0.000 K0.000 F400.000
G3 X-54.229 Y-2.373 Z3.000 I0.771 J-2.373 K0.000 F400.000
G3 X-52.505 Y0.000 Z3.000 I-0.771 J2.373 K0.000 F400.000
G1 X-53.757 Y0.000 Z3.000 F200.000
G3 X-55.384 Y1.182 Z3.000 I-1.243 J-0.000 K0.000 F400.000
G3 X-56.182 Y-0.384 Z3.000 I0.384 J-1.182 K0.000 F400.000
G3 X-54.616 Y-1.182 Z3.000 I1.182 J0.384 K0.000 F400.000
G3 X-53.757 Y0.000 Z3.000 I-0.384 J1.182 K0.000 F400.000
G1 X-53.757 Y0.000 Z1.000 F200.000
G3 X-55.384 Y1.182 Z1.000 I-1.243 J-0.000 K0.000 F400.000
G3 X-56.182 Y-0.384 Z1.000 I0.384 J-1.182 K0.000 F400.000
G3 X-54.616 Y-1.182 Z1.000 I1.182 J0.384 K0.000 F400.000
G3 X-53.757 Y0.000 Z1.000 I-0.384 J1.182 K0.000 F400.000
G1 X-52.505 Y0.000 Z1.000 F200.000
G3 X-55.771 Y2.373 Z1.000 I-2.495 J-0.000 K0.000 F400.000
G3 X-54.229 Y-2.373 Z1.000 I0.771 J-2.373 K0.000 F400.000
G3 X-52.505 Y0.000 Z1.000 I-0.771 J2.373 K0.000 F400.000
G1 X-52.505 Y0.000 Z0.000 F200.000
G3 X-55.771 Y2.373 Z0.000 I-2.495 J-0.000 K0.000 F400.000
G3 X-54.229 Y-2.373 Z0.000 I0.771 J-2.373 K0.000 F400.000
G3 X-52.505 Y0.000 Z0.000 I-0.771 J2.373 K0.000 F400.000
G1 X-53.757 Y0.000 Z0.000 F200.000
G3 X-55.384 Y1.182 Z0.000 I-1.243 J-0.000 K0.000 F400.000
G3 X-56.182 Y-0.384 Z0.000 I0.384 J-1.182 K0.000 F400.000
G3 X-54.616 Y-1.182 Z0.000 I1.182 J0.384 K0.000 F400.000
G3 X-53.757 Y0.000 Z0.000 I-0.384 J1.182 K0.000 F400.000
G0 Z27.000
G0 Z27.000
G0 X-53.757
G0 X67.809 Y-35.878
G0 X67.809 Y-35.878 Z25.000
G1 X67.809 Y-35.878 Z7.000 F200.000
G3 X76.302 Y-45.384 Z7.000 I7.191 J-2.122 K0.000 F400.000
G3 X73.698 Y-30.616 Z7.000 I-1.302 J7.384 K0.000 F400.000
G3 X67.809 Y-35.878 Z7.000 I1.302 J-7.384 K0.000 F400.000
G1 X71.649 Y-37.011 Z7.000 F200.000
G3 X75.607 Y-41.441 Z7.000 I3.351 J-0.989 K0.000 F400.000
G3 X74.393 Y-34.559 Z7.000 I-0.607 J3.441 K0.000 F400.000
G3 X71.649 Y-37.011 Z7.000 I0.607 J-3.441 K0.000 F400.000
G1 X72.849 Y-37.365 Z7.000 F200.000
G3 X75.389 Y-40.209 Z7.000 I2.151 J-0.635 K0.000 F400.000
G3 X74.611 Y-35.791 Z7.000 I-0.389 J2.209 K0.000 F400.000
G3 X72.849 Y-37.365 Z7.000 I0.389 J-2.209 K0.000 F400.000
G1 X74.049 Y-37.719 Z7.000 F200.000
G3 X75.172 Y-38.976 Z7.000 I0.951 J-0.281 K0.000 F400.000
G3 X74.828 Y-37.024 Z7.000 I-0.172 J0.976 K0.000 F400.000
G3 X74.049 Y-37.719 Z7.000 I0.172 J-0.976 K0.000 F400.000
G1 X74.049 Y-37.719 Z5.000 F200.000
G3 X75.172 Y-38.976 Z5.000 I0.951 J-0.281 K0.000 F400.000
G3 X74.828 Y-37.024 Z5.000 I-0.172 J0.976 K0.000 F400.000
G3 X74.049 Y-37.719 Z5.000 I0.172 J-0.976 K0.000 F400.000
G1 X72.849 Y-37.365 Z5.000 F200.000
G3 X75.389 Y-40.209 Z5.000 I2.151 J-0.635 K0.000 F400.000
G3 X74.611 Y-35.791 Z5.000 I-0.389 J2.209 K0.000 F400.000
G3 X72.849 Y-37.365 Z5.000 I0.389 J-2.209 K0.000 F400.000
G1 X71.649 Y-37.011 Z5.000 F200.000
G3 X75.607 Y-41.441 Z5.000 I3.351 J-0.989 K0.000 F400.000
G3 X74.393 Y-34.559 Z5.000 I-0.607 J3.441 K0.000 F400.000
G3 X71.649 Y-37.011 Z5.000 I0.607 J-3.441 K0.000 F400.000
G1 X67.809 Y-35.878 Z5.000 F200.000
G3 X76.302 Y-45.384 Z5.000 I7.191 J-2.122 K0.000 F400.000
G3 X73.698 Y-30.616 Z5.000 I-1.302 J7.384 K0.000 F400.000
G3 X67.809 Y-35.878 Z5.000 I1.302 J-7.384 K0.000 F400.000
G1 X67.809 Y-35.878 Z3.000 F200.000
G3 X76.302 Y-45.384 Z3.000 I7.191 J-2.122 K0.000 F400.000
G3 X73.698 Y-30.616 Z3.000 I-1.302 J7.384 K0.000 F400.000
G3 X67.809 Y-35.878 Z3.000 I1.302 J-7.384 K0.000 F400.000
G1 X71.649 Y-37.011 Z3.000 F200.000
G3 X75.607 Y-41.441 Z3.000 I3.351 J-0.989 K0.000 F400.000
G3 X74.393 Y-34.559 Z3.000 I-0.607 J3.441 K0.000 F400.000
G3 X71.649 Y-37.011 Z3.000 I0.607 J-3.441 K0.000 F400.000
G1 X72.849 Y-37.365 Z3.000 F200.000
G3 X75.389 Y-40.209 Z3.000 I2.151 J-0.635 K0.000 F400.000
G3 X74.611 Y-35.791 Z3.000 I-0.389 J2.209 K0.000 F400.000
G3 X72.849 Y-37.365 Z3.000 I0.389 J-2.209 K0.000 F400.000
G1 X74.049 Y-37.719 Z3.000 F200.000
G3 X75.172 Y-38.976 Z3.000 I0.951 J-0.281 K0.000 F400.000
G3 X74.828 Y-37.024 Z3.000 I-0.172 J0.976 K0.000 F400.000
G3 X74.049 Y-37.719 Z3.000 I0.172 J-0.976 K0.000 F400.000
G1 X74.049 Y-37.719 Z1.000 F200.000
G3 X75.172 Y-38.976 Z1.000 I0.951 J-0.281 K0.000 F400.000
G3 X74.828 Y-37.024 Z1.000 I-0.172 J0.976 K0.000 F400.000
G3 X74.049 Y-37.719 Z1.000 I0.172 J-0.976 K0.000 F400.000
G1 X72.849 Y-37.365 Z1.000 F200.000
G3 X75.389 Y-40.209 Z1.000 I2.151 J-0.635 K0.000 F400.000
G3 X74.611 Y-35.791 Z1.000 I-0.389 J2.209 K0.000 F400.000
G3 X72.849 Y-37.365 Z1.000 I0.389 J-2.209 K0.000 F400.000
G1 X71.649 Y-37.011 Z1.000 F200.000
G3 X75.607 Y-41.441 Z1.000 I3.351 J-0.989 K0.000 F400.000
G3 X74.393 Y-34.559 Z1.000 I-0.607 J3.441 K0.000 F400.000
G3 X71.649 Y-37.011 Z1.000 I0.607 J-3.441 K0.000 F400.000
G1 X67.809 Y-35.878 Z1.000 F200.000
G3 X76.302 Y-45.384 Z1.000 I7.191 J-2.122 K0.000 F400.000
G3 X73.698 Y-30.616 Z1.000 I-1.302 J7.384 K0.000 F400.000
G3 X67.809 Y-35.878 Z1.000 I1.302 J-7.384 K0.000 F400.000
G1 X67.809 Y-35.878 Z0.000 F200.000
G3 X76.302 Y-45.384 Z0.000 I7.191 J-2.122 K0.000 F400.000
G3 X73.698 Y-30.616 Z0.000 I-1.302 J7.384 K0.000 F400.000
G3 X67.809 Y-35.878 Z0.000 I1.302 J-7.384 K0.000 F400.000
G1 X71.649 Y-37.011 Z0.000 F200.000
G3 X75.607 Y-41.441 Z0.000 I3.351 J-0.989 K0.000 F400.000
G3 X74.393 Y-34.559 Z0.000 I-0.607 J3.441 K0.000 F400.000
G3 X71.649 Y-37.011 Z0.000 I0.607 J-3.441 K0.000 F400.000
G1 X72.849 Y-37.365 Z0.000 F200.000
G3 X75.389 Y-40.209 Z0.000 I2.151 J-0.635 K0.000 F400.000
G3 X74.611 Y-35.791 Z0.000 I-0.389 J2.209 K0.000 F400.000
G3 X72.849 Y-37.365 Z0.000 I0.389 J-2.209 K0.000 F400.000
G1 X74.049 Y-37.719 Z0.000 F200.000
G3 X75.172 Y-38.976 Z0.000 I0.951 J-0.281 K0.000 F400.000
G3 X74.828 Y-37.024 Z0.000 I-0.172 J0.976 K0.000 F400.000
G3 X74.049 Y-37.719 Z0.000 I0.172 J-0.976 K0.000 F400.000
G0 Z27.000
G0 Z27.000
(Finish operation: Pocket_Shape008)
(Begin operation: Percage trous)
(Path: Percage trous)
(Percage trous)
(Begin Drilling)
G0 Z27.000
G90
( G98 )
G0 X-31.430 Y-23.570
(G83 X-31.430 Y-23.570 Z0.000 F200.000 Q3.750 R25.000)
G0 X-31.430 Y-23.570
G0 Z25.000 F200.00
G1 Z21.250 F200.00
G0 Z25.000
G0 Z21.438
G1 Z17.500 F200.00
G0 Z25.000
G0 Z17.688
G1 Z13.750 F200.00
G0 Z25.000
G0 Z13.938
G1 Z10.000 F200.00
G0 Z25.000
G0 Z10.188
G1 Z6.250 F200.00
G0 Z25.000
G0 Z6.438
G1 Z2.500 F200.00
G0 Z25.000
G0 Z2.688
G1 Z0.000 F200.00
G0 Z27.000
G0 X-31.430 Y23.570
(G83 X-31.430 Y23.570 Z0.000 F200.000 Q3.750 R25.000)
G0 X-31.430 Y23.570
G0 Z25.000 F200.00
G1 Z21.250 F200.00
G0 Z25.000
G0 Z21.438
G1 Z17.500 F200.00
G0 Z25.000
G0 Z17.688
G1 Z13.750 F200.00
G0 Z25.000
G0 Z13.938
G1 Z10.000 F200.00
G0 Z25.000
G0 Z10.188
G1 Z6.250 F200.00
G0 Z25.000
G0 Z6.438
G1 Z2.500 F200.00
G0 Z25.000
G0 Z2.688
G1 Z0.000 F200.00
G0 Z27.000
G0 X-78.570 Y23.570
(G83 X-78.570 Y23.570 Z0.000 F200.000 Q3.750 R25.000)
G0 X-78.570 Y23.570
G0 Z25.000 F200.00
G1 Z21.250 F200.00
G0 Z25.000
G0 Z21.438
G1 Z17.500 F200.00
G0 Z25.000
G0 Z17.688
G1 Z13.750 F200.00
G0 Z25.000
G0 Z13.938
G1 Z10.000 F200.00
G0 Z25.000
G0 Z10.188
G1 Z6.250 F200.00
G0 Z25.000
G0 Z6.438
G1 Z2.500 F200.00
G0 Z25.000
G0 Z2.688
G1 Z0.000 F200.00
G0 Z27.000
G0 X-78.570 Y-23.570
(G83 X-78.570 Y-23.570 Z0.000 F200.000 Q3.750 R25.000)
G0 X-78.570 Y-23.570
G0 Z25.000 F200.00
G1 Z21.250 F200.00
G0 Z25.000
G0 Z21.438
G1 Z17.500 F200.00
G0 Z25.000
G0 Z17.688
G1 Z13.750 F200.00
G0 Z25.000
G0 Z13.938
G1 Z10.000 F200.00
G0 Z25.000
G0 Z10.188
G1 Z6.250 F200.00
G0 Z25.000
G0 Z6.438
G1 Z2.500 F200.00
G0 Z25.000
G0 Z2.688
G1 Z0.000 F200.00
G0 Z27.000
G0 X59.500 Y-22.500
(G83 X59.500 Y-22.500 Z0.000 F200.000 Q3.750 R25.000)
G0 X59.500 Y-22.500
G0 Z25.000 F200.00
G1 Z21.250 F200.00
G0 Z25.000
G0 Z21.438
G1 Z17.500 F200.00
G0 Z25.000
G0 Z17.688
G1 Z13.750 F200.00
G0 Z25.000
G0 Z13.938
G1 Z10.000 F200.00
G0 Z25.000
G0 Z10.188
G1 Z6.250 F200.00
G0 Z25.000
G0 Z6.438
G1 Z2.500 F200.00
G0 Z25.000
G0 Z2.688
G1 Z0.000 F200.00
G0 Z27.000
G0 X59.500 Y-53.500
(G83 X59.500 Y-53.500 Z0.000 F200.000 Q3.750 R25.000)
G0 X59.500 Y-53.500
G0 Z25.000 F200.00
G1 Z21.250 F200.00
G0 Z25.000
G0 Z21.438
G1 Z17.500 F200.00
G0 Z25.000
G0 Z17.688
G1 Z13.750 F200.00
G0 Z25.000
G0 Z13.938
G1 Z10.000 F200.00
G0 Z25.000
G0 Z10.188
G1 Z6.250 F200.00
G0 Z25.000
G0 Z6.438
G1 Z2.500 F200.00
G0 Z25.000
G0 Z2.688
G1 Z0.000 F200.00
G0 Z27.000
G0 X90.500 Y-53.500
(G83 X90.500 Y-53.500 Z0.000 F200.000 Q3.750 R25.000)
G0 X90.500 Y-53.500
G0 Z25.000 F200.00
G1 Z21.250 F200.00
G0 Z25.000
G0 Z21.438
G1 Z17.500 F200.00
G0 Z25.000
G0 Z17.688
G1 Z13.750 F200.00
G0 Z25.000
G0 Z13.938
G1 Z10.000 F200.00
G0 Z25.000
G0 Z10.188
G1 Z6.250 F200.00
G0 Z25.000
G0 Z6.438
G1 Z2.500 F200.00
G0 Z25.000
G0 Z2.688
G1 Z0.000 F200.00
G0 Z27.000
G0 X90.500 Y-22.500
(G83 X90.500 Y-22.500 Z0.000 F200.000 Q3.750 R25.000)
G0 X90.500 Y-22.500
G0 Z25.000 F200.00
G1 Z21.250 F200.00
G0 Z25.000
G0 Z21.438
G1 Z17.500 F200.00
G0 Z25.000
G0 Z17.688
G1 Z13.750 F200.00
G0 Z25.000
G0 Z13.938
G1 Z10.000 F200.00
G0 Z25.000
G0 Z10.188
G1 Z6.250 F200.00
G0 Z25.000
G0 Z6.438
G1 Z2.500 F200.00
G0 Z25.000
G0 Z2.688
G1 Z0.000 F200.00
G0 Z27.000
( G80 )
G0 Z25.000
G0 Z27.000
(Finish operation: Percage trous)
(Begin operation: DressupTag005)
(Path: DressupTag005)
G0 Z27.000
G0 X0.000 Y62.500 Z27.000
G0 X0.000 Y62.500 Z25.000
G1 X0.000 Y62.500 Z17.000 F200.000
G1 X-175.000 Y62.500 Z17.000 F400.000
G3 X-177.500 Y60.000 Z17.000 I0.000 J-2.500 K0.000 F400.000
G1 X-177.500 Y-60.000 Z17.000 F400.000
G3 X-175.000 Y-62.500 Z17.000 I2.500 J0.000 K0.000 F400.000
G1 X165.000 Y-62.500 Z17.000 F400.000
G3 X167.198 Y-58.809 Z17.000 I-0.000 J2.500 K0.000 F400.000
G1 X102.198 Y61.191 Z17.000 F400.000
G3 X100.000 Y62.500 Z17.000 I-2.198 J-1.191 K0.000 F400.000
G1 X0.000 Y62.500 Z17.000 F400.000
G1 X0.000 Y62.500 Z12.000 F200.000
G1 X-175.000 Y62.500 Z12.000 F400.000
G3 X-177.500 Y60.000 Z12.000 I0.000 J-2.500 K0.000 F400.000
G1 X-177.500 Y-60.000 Z12.000 F400.000
G3 X-175.000 Y-62.500 Z12.000 I2.500 J0.000 K0.000 F400.000
G1 X165.000 Y-62.500 Z12.000 F400.000
G3 X167.198 Y-58.809 Z12.000 I-0.000 J2.500 K0.000 F400.000
G1 X102.198 Y61.191 Z12.000 F400.000
G3 X100.000 Y62.500 Z12.000 I-2.198 J-1.191 K0.000 F400.000
G1 X0.000 Y62.500 Z12.000 F400.000
G1 X0.000 Y62.500 Z7.000 F200.000
G1 X-175.000 Y62.500 Z7.000 F400.000
G3 X-177.500 Y60.000 Z7.000 I0.000 J-2.500 K0.000 F400.000
G1 X-177.500 Y-60.000 Z7.000 F400.000
G3 X-175.000 Y-62.500 Z7.000 I2.500 J0.000 K0.000 F400.000
G1 X165.000 Y-62.500 Z7.000 F400.000
G3 X167.198 Y-58.809 Z7.000 I-0.000 J2.500 K0.000 F400.000
G1 X102.198 Y61.191 Z7.000 F400.000
G3 X100.000 Y62.500 Z7.000 I-2.198 J-1.191 K0.000 F400.000
G1 X0.000 Y62.500 Z7.000 F400.000
G1 X0.000 Y62.500 Z2.000 F200.000
G1 X-175.000 Y62.500 Z2.000 F400.000
G3 X-177.500 Y60.000 Z2.000 I0.000 J-2.500 K0.000 F400.000
G1 X-177.500 Y-60.000 Z2.000 F400.000
G3 X-175.000 Y-62.500 Z2.000 I2.500 J0.000 K0.000 F400.000
G1 X165.000 Y-62.500 Z2.000 F400.000
G3 X167.198 Y-58.809 Z2.000 I-0.000 J2.500 K0.000 F400.000
G1 X102.198 Y61.191 Z2.000 F400.000
G3 X100.000 Y62.500 Z2.000 I-2.198 J-1.191 K0.000 F400.000
G1 X0.000 Y62.500 Z2.000 F400.000
G1 X0.000 Y62.500 Z0.000 F200.000
G1 X-75.010 Y62.500 Z0.000 F400.000
G1 X-76.010 Y62.500 Z1.000 F300.000
G1 X-98.990 Y62.500 Z1.000 F400.000
G1 X-99.990 Y62.500 Z0.000 F300.000
G1 X-175.000 Y62.500 Z0.000 F400.000
G3 X-177.500 Y60.000 Z0.000 I0.000 J-2.500 K0.000 F400.000
G1 X-177.500 Y12.490 Z0.000 F400.000
G1 X-177.500 Y11.490 Z1.000 F300.000
G1 X-177.500 Y-11.490 Z1.000 F400.000
G1 X-177.500 Y-12.490 Z0.000 F300.000
G1 X-177.500 Y-60.000 Z0.000 F400.000
G3 X-175.000 Y-62.500 Z0.000 I2.500 J0.000 K0.000 F400.000
G1 X-130.823 Y-62.500 Z0.000 F400.000
G1 X-129.823 Y-62.500 Z1.000 F300.000
G1 X-106.843 Y-62.500 Z1.000 F400.000
G1 X-105.843 Y-62.500 Z0.000 F300.000
G1 X-17.490 Y-62.500 Z0.000 F400.000
G1 X-16.490 Y-62.500 Z1.000 F300.000
G1 X6.490 Y-62.500 Z1.000 F400.000
G1 X7.490 Y-62.500 Z0.000 F300.000
G1 X95.843 Y-62.500 Z0.000 F400.000
G1 X96.843 Y-62.500 Z1.000 F300.000
G1 X119.823 Y-62.500 Z1.000 F400.000
G1 X120.823 Y-62.500 Z0.000 F300.000
G1 X165.000 Y-62.500 Z0.000 F400.000
G3 X167.198 Y-58.809 Z0.000 I-0.000 J2.500 K0.000 F400.000
G1 X140.647 Y-9.792 Z0.000 F400.000
G1 X140.171 Y-8.912 Z1.000 F300.000
G1 X129.226 Y11.294 Z1.000 F400.000
G1 X128.749 Y12.173 Z0.000 F300.000
G1 X102.198 Y61.191 Z0.000 F400.000
G3 X100.000 Y62.500 Z0.000 I-2.198 J-1.191 K0.000 F400.000
G1 X62.490 Y62.500 Z0.000 F400.000
G1 X61.490 Y62.500 Z1.000 F300.000
G1 X38.510 Y62.500 Z1.000 F400.000
G1 X37.510 Y62.500 Z0.000 F300.000
G1 X0.000 Y62.500 Z0.000 F400.000
G0 X0.000 Y62.500 Z27.000
(Finish operation: DressupTag005)
(Begin postamble)
M5
G17 G90
M2
